; generated by Slic3r 1.2.9 on 2019-07-24 at 12:23:12

; external perimeters extrusion width = 0.40mm
; perimeters extrusion width = 0.40mm
; infill extrusion width = 0.40mm
; solid infill extrusion width = 0.40mm
; top infill extrusion width = 0.40mm

M107
M83
T0
M116
G21 ; set units to millimeters
G90 ; use absolute coordinates
M83 ; use relative distances for extrusion
G1 E-3.50000 F1500.00000
G1 Z0.400 F15000.000
G1 X30.836 Y0.000 F15000.000
G1 Z0.300 F15000.000
G1 E3.50000 F1500.00000
G1 X30.836 Y42.450 E3.27143 F960.000
G1 X30.448 Y43.507 E0.08680
G1 X29.200 Y44.086 E0.10599
G1 X-29.200 Y44.086 E4.50062
G1 X-30.257 Y43.698 E0.08680
G1 X-30.836 Y42.450 E0.10599
G1 X-30.836 Y-42.450 E6.54286
G1 X-30.448 Y-43.507 E0.08680
G1 X-29.200 Y-44.086 E0.10599
G1 X29.200 Y-44.086 E4.50062
G1 X30.257 Y-43.698 E0.08680
G1 X30.836 Y-42.450 E0.10599 F960.000
G1 X30.836 Y-0.060 E3.26681
G1 E-3.50000 F1500.00000
G1 Z0.700 F15000.000
G1 X28.095 Y-1.371 F15000.000
G1 Z0.300 F15000.000
G1 E3.50000 F1500.00000
G1 X27.785 Y-0.877 E0.04491 F600.000
G1 X27.373 Y-0.465 E0.04491
G1 X26.879 Y-0.155 E0.04491
G1 X26.329 Y0.037 E0.04491
G1 X25.748 Y0.103 E0.04505
G1 X25.127 Y0.027 E0.04822
G1 X24.540 Y-0.195 E0.04836
G1 X24.024 Y-0.552 E0.04836
G1 X23.608 Y-1.021 E0.04836
G1 X23.316 Y-1.577 E0.04836
G1 X23.166 Y-2.186 E0.04836
G1 X23.166 Y-2.814 E0.04836
G1 X23.316 Y-3.423 E0.04836
G1 X23.608 Y-3.979 E0.04836
G1 X24.024 Y-4.448 E0.04836
G1 X24.540 Y-4.805 E0.04836
G1 X25.127 Y-5.027 E0.04836
G1 X25.748 Y-5.103 E0.04822 F600.000
G1 X26.329 Y-5.037 E0.04505
G1 X26.879 Y-4.845 E0.04491
G1 X27.373 Y-4.535 E0.04491
G1 X27.785 Y-4.123 E0.04491
G1 X28.095 Y-3.629 E0.04491
G1 X28.287 Y-3.079 E0.04491
G1 X28.353 Y-2.500 E0.04491
G1 X28.287 Y-1.921 E0.04491
G1 X28.115 Y-1.427 E0.04029
G1 X28.308 Y-1.032 F15000.000
G1 E-3.50000 F1500.00000
G1 Z0.700 F15000.000
G1 X23.286 Y-6.464 F15000.000
G1 Z0.300 F15000.000
G1 E3.50000 F1500.00000
G1 X-23.286 Y-6.464 E3.58904 F720.000
G1 X-23.286 Y-33.536 E2.08626
G1 X23.286 Y-33.536 E3.58904 F720.000
G1 X23.286 Y-6.524 E2.08163
G1 X22.650 Y-7.100 F15000.000
G1 X-22.650 Y-7.100 E3.49107 F720.000
G1 X-22.650 Y-32.900 E1.98829
G1 X22.650 Y-32.900 E3.49107 F720.000
G1 X22.650 Y-7.160 E1.98367
G1 X22.650 Y-6.700 F15000.000
G1 X28.214 Y-14.884 F15000.000
G1 X28.214 Y-4.592 E0.79319 F720.000
G1 X27.771 Y-5.035 E0.04827
G1 X27.157 Y-5.421 E0.05595
G1 X26.471 Y-5.661 E0.05595
G1 X25.745 Y-5.743 E0.05630
G1 X24.974 Y-5.649 E0.05990
G1 X24.243 Y-5.372 E0.06025
G1 X23.599 Y-4.928 E0.06025
G1 X23.081 Y-4.342 E0.06025
G1 X22.718 Y-3.650 E0.06025
G1 X22.530 Y-2.891 E0.06025
G1 X22.530 Y-2.109 E0.06025
G1 X22.718 Y-1.350 E0.06025
G1 X23.081 Y-0.658 E0.06025
G1 X23.599 Y-0.072 E0.06025
G1 X24.243 Y0.372 E0.06025
G1 X24.974 Y0.649 E0.06025
G1 X25.745 Y0.743 E0.05990
G1 X26.471 Y0.661 E0.05630
G1 X27.157 Y0.421 E0.05595
G1 X27.771 Y0.035 E0.05595
G1 X28.214 Y-0.408 E0.04827
G1 X28.214 Y41.464 E3.22692
G1 X23.286 Y41.464 E0.37984
G1 X23.286 Y1.464 E3.08262
G1 X-23.286 Y1.464 E3.58904
G1 X-23.286 Y41.464 E3.08262
G1 X-28.214 Y41.464 E0.37984
G1 X-28.214 Y-0.982 E3.27113
G1 X-27.379 Y-0.053 E0.09625
G1 X-26.728 Y0.386 E0.06054
G1 X-26.036 Y0.646 E0.05694
G1 X-25.308 Y0.742 E0.05659
G1 X-24.577 Y0.672 E0.05659
G1 X-23.881 Y0.439 E0.05659
G1 X-23.255 Y0.056 E0.05659
G1 X-22.731 Y-0.459 E0.05659
G1 X-22.336 Y-1.078 E0.05659
G1 X-22.091 Y-1.770 E0.05659
G1 X-22.008 Y-2.500 E0.05659
G1 X-22.091 Y-3.230 E0.05659
G1 X-22.336 Y-3.922 E0.05659
G1 X-22.731 Y-4.541 E0.05659
G1 X-23.255 Y-5.056 E0.05659
G1 X-23.881 Y-5.439 E0.05659
G1 X-24.577 Y-5.672 E0.05659
G1 X-25.308 Y-5.742 E0.05659
G1 X-26.036 Y-5.646 E0.05659
G1 X-26.728 Y-5.386 E0.05694
G1 X-27.379 Y-4.947 E0.06054
G1 X-28.214 Y-4.018 E0.09625
G1 X-28.214 Y-35.982 E2.46328
G1 X-27.379 Y-35.053 E0.09625
G1 X-26.728 Y-34.614 E0.06054
G1 X-26.036 Y-34.354 E0.05694
G1 X-25.308 Y-34.258 E0.05659
G1 X-24.577 Y-34.328 E0.05659
G1 X-23.881 Y-34.561 E0.05659
G1 X-23.255 Y-34.944 E0.05659
G1 X-22.731 Y-35.459 E0.05659
G1 X-22.336 Y-36.078 E0.05659
G1 X-22.091 Y-36.770 E0.05659
G1 X-22.008 Y-37.500 E0.05659
G1 X-22.091 Y-38.230 E0.05659
G1 X-22.336 Y-38.922 E0.05659
G1 X-22.731 Y-39.541 E0.05659
G1 X-23.255 Y-40.056 E0.05659
G1 X-23.881 Y-40.439 E0.05659
G1 X-24.577 Y-40.672 E0.05659
G1 X-25.308 Y-40.742 E0.05659
G1 X-26.036 Y-40.646 E0.05659
G1 X-26.728 Y-40.386 E0.05694
G1 X-27.379 Y-39.947 E0.06054
G1 X-28.214 Y-39.018 E0.09625
G1 X-28.214 Y-41.464 E0.18851
G1 X28.214 Y-41.464 E4.34871
G1 X28.214 Y-39.592 E0.14430
G1 X27.771 Y-40.035 E0.04827 F720.000
G1 X27.157 Y-40.421 E0.05595
G1 X26.471 Y-40.661 E0.05595
G1 X25.745 Y-40.743 E0.05630
G1 X24.974 Y-40.649 E0.05991
G1 X24.243 Y-40.372 E0.06025
G1 X23.599 Y-39.928 E0.06025
G1 X23.081 Y-39.342 E0.06025
G1 X22.718 Y-38.650 E0.06025
G1 X22.530 Y-37.891 E0.06025
G1 X22.530 Y-37.109 E0.06025
G1 X22.718 Y-36.350 E0.06025
G1 X23.081 Y-35.658 E0.06025
G1 X23.599 Y-35.072 E0.06025
G1 X24.243 Y-34.628 E0.06025
G1 X24.974 Y-34.351 E0.06025
G1 X25.745 Y-34.257 E0.05991
G1 X26.471 Y-34.339 E0.05630
G1 X27.157 Y-34.579 E0.05595
G1 X27.771 Y-34.965 E0.05595
G1 X28.214 Y-35.408 E0.04827
G1 X28.214 Y-14.944 E1.57705
G1 X25.963 Y-34.922 F15000.000
G1 X25.748 Y-34.897 E0.01669 F600.000
G1 X25.127 Y-34.973 E0.04822
G1 X24.540 Y-35.195 E0.04836
G1 X24.024 Y-35.552 E0.04836
G1 X23.608 Y-36.021 E0.04836
G1 X23.316 Y-36.577 E0.04836
G1 X23.166 Y-37.186 E0.04836
G1 X23.166 Y-37.814 E0.04836
G1 X23.316 Y-38.423 E0.04836
G1 X23.608 Y-38.979 E0.04836
G1 X24.024 Y-39.448 E0.04836
G1 X24.540 Y-39.805 E0.04836
G1 X25.127 Y-40.027 E0.04836
G1 X25.748 Y-40.103 E0.04822 F600.000
G1 X26.329 Y-40.037 E0.04505
G1 X26.879 Y-39.845 E0.04491
G1 X27.373 Y-39.535 E0.04491
G1 X27.785 Y-39.123 E0.04491
G1 X28.095 Y-38.629 E0.04491
G1 X28.287 Y-38.079 E0.04491
G1 X28.353 Y-37.500 E0.04491
G1 X28.287 Y-36.921 E0.04491
G1 X28.095 Y-36.371 E0.04491
G1 X27.785 Y-35.877 E0.04491
G1 X27.373 Y-35.465 E0.04491
G1 X26.879 Y-35.155 E0.04491
G1 X26.329 Y-34.963 E0.04491
G1 X26.023 Y-34.928 E0.02374
G1 X25.877 Y-34.723 F15000.000
G1 X-22.647 Y-37.500 F15000.000
G1 X-22.714 Y-36.914 E0.04542 F600.000
G1 X-22.911 Y-36.359 E0.04542
G1 X-23.228 Y-35.862 E0.04542
G1 X-23.648 Y-35.449 E0.04542
G1 X-24.151 Y-35.141 E0.04542
G1 X-24.710 Y-34.954 E0.04542
G1 X-25.297 Y-34.898 E0.04542
G1 X-25.881 Y-34.975 E0.04542
G1 X-26.435 Y-35.182 E0.04556
G1 X-26.959 Y-35.536 E0.04873
G1 X-27.383 Y-36.008 E0.04887
G1 X-27.680 Y-36.568 E0.04887
G1 X-27.834 Y-37.183 E0.04887
G1 X-27.834 Y-37.817 E0.04887
G1 X-27.680 Y-38.432 E0.04887
G1 X-27.383 Y-38.992 E0.04887
G1 X-26.959 Y-39.464 E0.04887
G1 X-26.435 Y-39.818 E0.04873
G1 X-25.881 Y-40.025 E0.04556
G1 X-25.297 Y-40.102 E0.04542 F600.000
G1 X-24.710 Y-40.046 E0.04542
G1 X-24.151 Y-39.859 E0.04542
G1 X-23.648 Y-39.551 E0.04542
G1 X-23.228 Y-39.138 E0.04542
G1 X-22.911 Y-38.641 E0.04542
G1 X-22.714 Y-38.086 E0.04542
G1 X-22.654 Y-37.560 E0.04080
G1 X-22.309 Y-37.287 F15000.000
G1 X-25.297 Y-5.102 F15000.000
G1 X-24.710 Y-5.046 E0.04542 F600.000
G1 X-24.151 Y-4.859 E0.04542
G1 X-23.648 Y-4.551 E0.04542
G1 X-23.228 Y-4.138 E0.04542
G1 X-22.911 Y-3.641 E0.04542
G1 X-22.714 Y-3.086 E0.04542
G1 X-22.647 Y-2.500 E0.04542
G1 X-22.714 Y-1.914 E0.04542
G1 X-22.911 Y-1.359 E0.04542
G1 X-23.228 Y-0.862 E0.04542
G1 X-23.648 Y-0.449 E0.04542
G1 X-24.151 Y-0.141 E0.04542
G1 X-24.710 Y0.046 E0.04542
G1 X-25.297 Y0.102 E0.04542
G1 X-25.881 Y0.025 E0.04542
G1 X-26.435 Y-0.182 E0.04556
G1 X-26.959 Y-0.536 E0.04873
G1 X-27.383 Y-1.008 E0.04887
G1 X-27.680 Y-1.568 E0.04887
G1 X-27.834 Y-2.183 E0.04887
G1 X-27.834 Y-2.817 E0.04887
G1 X-27.680 Y-3.432 E0.04887
G1 X-27.383 Y-3.992 E0.04887
G1 X-26.959 Y-4.464 E0.04887
G1 X-26.435 Y-4.818 E0.04873
G1 X-25.881 Y-5.025 E0.04556
G1 X-25.356 Y-5.094 E0.04080 F600.000
G1 X-25.090 Y-5.445 F15000.000
G1 X-28.850 Y-5.094 F15000.000
G1 X-28.850 Y-42.100 E2.85186 F720.000
G1 X28.850 Y-42.100 E4.44668
G1 X28.850 Y42.100 E6.48891
G1 X22.650 Y42.100 E0.47781 F720.000
G1 X22.650 Y2.100 E3.08262
G1 X-22.650 Y2.100 E3.49107
G1 X-22.650 Y42.100 E3.08262
G1 X-28.850 Y42.100 E0.47781
G1 X-28.850 Y-5.034 E3.63243
G1 X-28.504 Y-5.294 F15000.000
G1 X-27.523 Y-5.248 F15000.000
G1 X-27.831 Y-5.556 E0.03463 F960.000
G1 X-27.831 Y-6.484 E0.07373
G1 X-26.969 Y-5.622 E0.09688
G1 X-26.325 Y-5.905 E0.05596
G1 X-27.831 Y-7.411 E0.16934
G1 X-27.831 Y-8.338 E0.07373
G1 X-25.570 Y-6.077 E0.25426
G1 X-24.642 Y-6.077 E0.07375
G1 X-27.831 Y-9.266 E0.35856
G1 X-27.831 Y-10.193 E0.07373
G1 X-23.669 Y-6.031 E0.46797
G1 X-23.669 Y-6.959 E0.07373
G1 X-27.831 Y-11.121 E0.46797
G1 X-27.831 Y-12.048 E0.07373
G1 X-23.669 Y-7.886 E0.46797
G1 X-23.669 Y-8.813 E0.07373
G1 X-27.831 Y-12.975 E0.46797
G1 X-27.831 Y-13.903 E0.07373
G1 X-23.669 Y-9.741 E0.46797
G1 X-23.669 Y-10.668 E0.07373
G1 X-27.831 Y-14.830 E0.46797
G1 X-27.831 Y-15.757 E0.07373
G1 X-23.669 Y-11.596 E0.46797
G1 X-23.669 Y-12.523 E0.07373
G1 X-27.831 Y-16.685 E0.46797
G1 X-27.831 Y-17.612 E0.07373
G1 X-23.669 Y-13.450 E0.46797
G1 X-23.669 Y-14.378 E0.07373
G1 X-27.831 Y-18.540 E0.46797
G1 X-27.831 Y-19.467 E0.07373
G1 X-23.669 Y-15.305 E0.46797
G1 X-23.669 Y-16.233 E0.07373
G1 X-27.831 Y-20.394 E0.46797
G1 X-27.831 Y-21.322 E0.07373
G1 X-23.669 Y-17.160 E0.46797
G1 X-23.669 Y-18.087 E0.07373
G1 X-27.831 Y-22.249 E0.46797
G1 X-27.831 Y-23.177 E0.07373
G1 X-23.669 Y-19.015 E0.46797
G1 X-23.669 Y-19.942 E0.07373
G1 X-27.831 Y-24.104 E0.46797
G1 X-27.831 Y-25.031 E0.07373
G1 X-23.669 Y-20.869 E0.46797
G1 X-23.669 Y-21.797 E0.07373
G1 X-27.831 Y-25.959 E0.46797
G1 X-27.831 Y-26.886 E0.07373
G1 X-23.669 Y-22.724 E0.46797
G1 X-23.669 Y-23.652 E0.07373
G1 X-27.831 Y-27.814 E0.46797
G1 X-27.831 Y-28.741 E0.07373
G1 X-23.669 Y-24.579 E0.46797
G1 X-23.669 Y-25.506 E0.07373
G1 X-27.831 Y-29.668 E0.46797
G1 X-27.831 Y-30.596 E0.07373
G1 X-23.669 Y-26.434 E0.46797
G1 X-23.669 Y-27.361 E0.07373
G1 X-27.831 Y-31.523 E0.46797
G1 X-27.831 Y-32.450 E0.07373
G1 X-23.669 Y-28.289 E0.46797
G1 X-23.669 Y-29.216 E0.07373
G1 X-27.831 Y-33.378 E0.46797
G1 X-27.831 Y-34.305 E0.07373
G1 X-23.669 Y-30.143 E0.46797
G1 X-23.669 Y-31.071 E0.07373
G1 X-26.750 Y-34.152 E0.34645
G1 X-25.556 Y-33.885 E0.09731
G1 X-23.669 Y-31.998 E0.21215
G1 X-23.669 Y-32.925 E0.07373
G1 X-24.688 Y-33.945 E0.11462
G1 X-23.979 Y-34.162 E0.05903
G1 X-23.669 Y-33.853 E0.03479
G1 X-23.249 Y-33.921 F15000.000
G1 X-23.642 Y-34.314 E0.04423 F960.000
G1 X-23.082 Y-34.657 E0.05224
G1 X-22.346 Y-33.921 E0.08281
G1 X-21.442 Y-33.921 E0.07183
G1 X-22.623 Y-35.102 E0.13283
G1 X-22.234 Y-35.617 E0.05128
G1 X-20.539 Y-33.921 E0.19064
G1 X-19.635 Y-33.921 E0.07183
G1 X-21.921 Y-36.207 E0.25703
G1 X-21.703 Y-36.893 E0.05721
G1 X-18.732 Y-33.921 E0.33415
G1 X-17.828 Y-33.921 E0.07183
G1 X-21.629 Y-37.722 E0.42733
G1 X-21.841 Y-38.838 E0.09033
G1 X-16.925 Y-33.921 E0.55282
G1 X-16.021 Y-33.921 E0.07183
G1 X-22.654 Y-40.554 E0.74580
G1 X-22.276 Y-41.079 E0.05146
G1 X-15.118 Y-33.921 E0.80484
G1 X-14.214 Y-33.921 E0.07183
G1 X-21.372 Y-41.079 E0.80484
G1 X-20.469 Y-41.079 E0.07183
G1 X-13.311 Y-33.921 E0.80484
G1 X-12.408 Y-33.921 E0.07183
G1 X-19.565 Y-41.079 E0.80484
G1 X-18.662 Y-41.079 E0.07183
G1 X-11.504 Y-33.921 E0.80484
G1 X-10.601 Y-33.921 E0.07183
G1 X-17.759 Y-41.079 E0.80484
G1 X-16.855 Y-41.079 E0.07183
G1 X-9.697 Y-33.921 E0.80484
G1 X-8.794 Y-33.921 E0.07183
G1 X-15.952 Y-41.079 E0.80484
G1 X-15.048 Y-41.079 E0.07183
G1 X-7.890 Y-33.921 E0.80484
G1 X-6.987 Y-33.921 E0.07183
G1 X-14.145 Y-41.079 E0.80484
G1 X-13.241 Y-41.079 E0.07183
G1 X-6.083 Y-33.921 E0.80484
G1 X-5.180 Y-33.921 E0.07183
G1 X-12.338 Y-41.079 E0.80484
G1 X-11.434 Y-41.079 E0.07183
G1 X-4.276 Y-33.921 E0.80484
G1 X-3.373 Y-33.921 E0.07183
G1 X-10.531 Y-41.079 E0.80484
G1 X-9.627 Y-41.079 E0.07183
G1 X-2.470 Y-33.921 E0.80484
G1 X-1.566 Y-33.921 E0.07183
G1 X-8.724 Y-41.079 E0.80484
G1 X-7.821 Y-41.079 E0.07183
G1 X-0.663 Y-33.921 E0.80484
G1 X0.241 Y-33.921 E0.07183
G1 X-6.917 Y-41.079 E0.80484
G1 X-6.014 Y-41.079 E0.07183
G1 X1.144 Y-33.921 E0.80484
G1 X2.048 Y-33.921 E0.07183
G1 X-5.110 Y-41.079 E0.80484
G1 X-4.207 Y-41.079 E0.07183
G1 X2.951 Y-33.921 E0.80484
G1 X3.855 Y-33.921 E0.07183
G1 X-3.303 Y-41.079 E0.80484
G1 X-2.400 Y-41.079 E0.07183
G1 X4.758 Y-33.921 E0.80484
G1 X5.662 Y-33.921 E0.07183
G1 X-1.496 Y-41.079 E0.80484
G1 X-0.593 Y-41.079 E0.07183
G1 X6.565 Y-33.921 E0.80484
G1 X7.468 Y-33.921 E0.07183
G1 X0.311 Y-41.079 E0.80484
G1 X1.214 Y-41.079 E0.07183
G1 X8.372 Y-33.921 E0.80484
G1 X9.275 Y-33.921 E0.07183
G1 X2.117 Y-41.079 E0.80484
G1 X3.021 Y-41.079 E0.07183
G1 X10.179 Y-33.921 E0.80484
G1 X11.082 Y-33.921 E0.07183
G1 X3.924 Y-41.079 E0.80484
G1 X4.828 Y-41.079 E0.07183
G1 X11.986 Y-33.921 E0.80484
G1 X12.889 Y-33.921 E0.07183
G1 X5.731 Y-41.079 E0.80484
G1 X6.635 Y-41.079 E0.07183
G1 X13.793 Y-33.921 E0.80484
G1 X14.696 Y-33.921 E0.07183
G1 X7.538 Y-41.079 E0.80484
G1 X8.442 Y-41.079 E0.07183
G1 X15.599 Y-33.921 E0.80484
G1 X16.503 Y-33.921 E0.07183
G1 X9.345 Y-41.079 E0.80484
G1 X10.248 Y-41.079 E0.07183
G1 X17.406 Y-33.921 E0.80484
G1 X18.310 Y-33.921 E0.07183
G1 X11.152 Y-41.079 E0.80484
G1 X12.055 Y-41.079 E0.07183
G1 X19.213 Y-33.921 E0.80484
G1 X20.117 Y-33.921 E0.07183
G1 X12.959 Y-41.079 E0.80484
G1 X13.862 Y-41.079 E0.07183
G1 X21.020 Y-33.921 E0.80484
G1 X21.924 Y-33.921 E0.07183
G1 X14.766 Y-41.079 E0.80484
G1 X15.669 Y-41.079 E0.07183
G1 X22.827 Y-33.921 E0.80484
G1 X24.495 Y-34.060 F15000.000
G1 X27.829 Y-30.726 E0.37484 F960.000
G1 X27.829 Y-31.630 E0.07183
G1 X25.588 Y-33.871 E0.25201
G1 X26.404 Y-33.958 E0.06527
G1 X27.829 Y-32.533 E0.16023
G1 X27.829 Y-33.436 E0.07183
G1 X27.082 Y-34.184 E0.08400
G1 E-3.50000 F1500.00000
G1 Z0.700 F15000.000
G1 X23.217 Y-40.759 F15000.000
G1 Z0.300 F15000.000
G1 E3.50000 F1500.00000
G1 X22.897 Y-41.079 E0.03599 F960.000
G1 X21.993 Y-41.079 E0.07183
G1 X23.152 Y-39.920 E0.13029
G1 X22.743 Y-39.426 E0.05102
G1 X21.090 Y-41.079 E0.18586
G1 X20.186 Y-41.079 E0.07183
G1 X22.432 Y-38.834 E0.25248
G1 X22.224 Y-38.138 E0.05770
G1 X19.283 Y-41.079 E0.33065
G1 X18.380 Y-41.079 E0.07183
G1 X22.145 Y-37.314 E0.42339
G1 X22.309 Y-36.246 E0.08586
G1 X17.476 Y-41.079 E0.54340
G1 X16.573 Y-41.079 E0.07183
G1 X27.829 Y-29.823 E1.26567
G1 X27.829 Y-28.919 E0.07183
G1 X23.671 Y-33.077 E0.46752
G1 X23.671 Y-32.174 E0.07183
G1 X27.829 Y-28.016 E0.46752
G1 X27.829 Y-27.112 E0.07183
G1 X23.671 Y-31.270 E0.46752
G1 X23.671 Y-30.367 E0.07183
G1 X27.829 Y-26.209 E0.46752
G1 X27.829 Y-25.305 E0.07183
G1 X23.671 Y-29.463 E0.46752
G1 X23.671 Y-28.560 E0.07183
G1 X27.829 Y-24.402 E0.46752
G1 X27.829 Y-23.498 E0.07183
G1 X23.671 Y-27.656 E0.46752
G1 X23.671 Y-26.753 E0.07183
G1 X27.829 Y-22.595 E0.46752
G1 X27.829 Y-21.692 E0.07183
G1 X23.671 Y-25.850 E0.46752
G1 X23.671 Y-24.946 E0.07183
G1 X27.829 Y-20.788 E0.46752
G1 X27.829 Y-19.885 E0.07183
G1 X23.671 Y-24.043 E0.46752
G1 X23.671 Y-23.139 E0.07183
G1 X27.829 Y-18.981 E0.46752
G1 X27.829 Y-18.078 E0.07183
G1 X23.671 Y-22.236 E0.46752
G1 X23.671 Y-21.332 E0.07183
G1 X27.829 Y-17.174 E0.46752
G1 X27.829 Y-16.271 E0.07183
G1 X23.671 Y-20.429 E0.46752
G1 X23.671 Y-19.525 E0.07183
G1 X27.829 Y-15.367 E0.46752
G1 X27.829 Y-14.464 E0.07183
G1 X23.671 Y-18.622 E0.46752
G1 X23.671 Y-17.718 E0.07183
G1 X27.829 Y-13.561 E0.46752
G1 X27.829 Y-12.657 E0.07183
G1 X23.671 Y-16.815 E0.46752
G1 X23.671 Y-15.912 E0.07183
G1 X27.829 Y-11.754 E0.46752
G1 X27.829 Y-10.850 E0.07183
G1 X23.671 Y-15.008 E0.46752
G1 X23.671 Y-14.105 E0.07183
G1 X27.829 Y-9.947 E0.46752
G1 X27.829 Y-9.043 E0.07183
G1 X23.671 Y-13.201 E0.46752
G1 X23.671 Y-12.298 E0.07183
G1 X27.829 Y-8.140 E0.46752
G1 X27.829 Y-7.236 E0.07183
G1 X23.671 Y-11.394 E0.46752
G1 X23.671 Y-10.491 E0.07183
G1 X27.829 Y-6.333 E0.46752
G1 X27.491 Y-5.768 E0.05237
G1 X23.671 Y-9.587 E0.42947
G1 X23.671 Y-8.684 E0.07183
G1 X26.267 Y-6.088 E0.29191
G1 X25.380 Y-6.071 E0.07052
G1 X23.671 Y-7.780 E0.19219
G1 X23.671 Y-6.877 E0.07183
G1 X24.651 Y-5.897 E0.11019
G1 X24.021 Y-5.623 E0.05459
G1 X23.566 Y-6.079 E0.05125
G1 X23.487 Y-5.254 E0.06587
G1 X22.662 Y-6.079 E0.09273
