; generated by Slic3r 1.2.9 on 2019-07-23 at 10:53:38

; external perimeters extrusion width = 0.40mm
; perimeters extrusion width = 0.40mm
; infill extrusion width = 0.40mm
; solid infill extrusion width = 0.40mm
; top infill extrusion width = 0.40mm

M107
M83
T0
M116
G21 ; set units to millimeters
G90 ; use absolute coordinates
M83 ; use relative distances for extrusion
G1 E-3.50000 F1500.00000
G1 Z0.400 F15000.000
G1 X26.275 Y-2.454 F15000.000
G1 Z0.300 F15000.000
G1 E3.50000 F1500.00000
G1 X28.315 Y19.404 E1.69185 F960.000
G1 X28.370 Y20.387 E0.07585
G1 X28.389 Y21.454 E0.08227
G1 X28.364 Y22.513 E0.08159
G1 X28.315 Y23.357 E0.06515
G1 X28.225 Y24.308 E0.07364
G1 X28.023 Y25.198 E0.07032
G1 X24.342 Y35.309 E0.82926
G1 X23.884 Y36.178 E0.07570
G1 X22.920 Y37.529 E0.12791
G1 X21.564 Y39.162 E0.16352
G1 X20.211 Y40.556 E0.14974
G1 X19.434 Y41.158 E0.07572
G1 X10.116 Y46.538 E0.82923
G1 X9.199 Y46.911 E0.07629
G1 X7.520 Y47.341 E0.13358
G1 X5.231 Y47.742 E0.17909
G1 X3.579 Y47.902 E0.12791
G1 X2.597 Y47.863 E0.07572
G1 X-7.999 Y45.995 E0.82923
G1 X-8.935 Y45.695 E0.07572
G1 X-10.680 Y44.850 E0.14940
G1 X-12.209 Y43.969 E0.13601
G1 X-13.878 Y42.842 E0.15517
G1 X-14.611 Y42.178 E0.07629
G1 X-21.528 Y33.935 E0.82923
G1 X-22.055 Y33.097 E0.07629
G1 X-22.875 Y31.258 E0.15518
G1 X-23.477 Y29.599 E0.13601
G1 X-24.006 Y27.734 E0.14940
G1 X-24.123 Y27.107 E0.04916
G1 X-28.356 Y-17.130 E3.42472
G1 X-28.372 Y-17.477 E0.02672
G1 X-28.372 Y-25.264 E0.60015
G1 X-28.287 Y-26.045 E0.06051
G1 X-27.824 Y-28.155 E0.16650
G1 X-27.730 Y-28.498 E0.02738
G1 X-27.029 Y-30.656 E0.17493
G1 X-26.903 Y-30.988 E0.02738
G1 X-26.038 Y-32.968 E0.16650
G1 X-25.648 Y-33.650 E0.06051
G1 X-21.070 Y-39.950 E0.60015
G1 X-20.543 Y-40.532 E0.06052
G1 X-18.927 Y-41.966 E0.16650
G1 X-18.650 Y-42.189 E0.02738
G1 X-16.814 Y-43.523 E0.17493
G1 X-16.517 Y-43.717 E0.02738
G1 X-14.653 Y-44.811 E0.16650
G1 X-13.937 Y-45.132 E0.06051
G1 X-6.531 Y-47.539 E0.60015
G1 X-5.762 Y-47.700 E0.06052
G1 X-3.612 Y-47.910 E0.16650
G1 X-3.246 Y-47.928 E0.02822
G1 X-0.891 Y-47.921 E0.18153
G1 X-0.544 Y-47.903 E0.02672 F960.000
G1 X1.520 Y-47.699 E0.15987
G1 X2.287 Y-47.539 E0.06034
G1 X9.693 Y-45.132 E0.60015
G1 X10.409 Y-44.811 E0.06052
G1 X12.273 Y-43.717 E0.16650
G1 X12.570 Y-43.523 E0.02738
G1 X14.406 Y-42.189 E0.17493
G1 X14.683 Y-41.966 E0.02738
G1 X16.299 Y-40.532 E0.16650
G1 X16.826 Y-39.950 E0.06049
G1 X21.404 Y-33.650 E0.60018
G1 X21.757 Y-33.052 E0.05351
G1 X22.260 Y-31.966 E0.09226
G1 X22.717 Y-30.837 E0.09386
G1 X23.128 Y-29.685 E0.09427
G1 X23.580 Y-28.154 E0.12301
G1 X23.831 Y-27.130 E0.08127
G1 X24.063 Y-25.955 E0.09225
G1 X24.113 Y-25.603 E0.02746
G1 X26.270 Y-2.514 E1.78708
G1 E-3.50000 F1500.00000
G1 Z0.700 F15000.000
G1 X1.089 Y-18.912 F15000.000
G1 Z0.300 F15000.000
G1 E3.50000 F1500.00000
G1 X0.379 Y-18.199 E0.07758 F600.000
G1 X-0.416 Y-17.705 E0.07217
G1 X-1.343 Y-17.403 E0.07507
G1 X-2.314 Y-17.332 E0.07509
G1 X-3.279 Y-17.496 E0.07545
G1 X-4.199 Y-17.906 E0.07760
G1 X-4.943 Y-18.474 E0.07218
G1 X-5.554 Y-19.233 E0.07505
G1 X-5.966 Y-20.116 E0.07509
G1 X-6.155 Y-21.076 E0.07543
G1 X-6.099 Y-22.082 E0.07763
G1 X-5.831 Y-22.980 E0.07220
G1 X-5.338 Y-23.820 E0.07503
G1 X-4.659 Y-24.518 E0.07508
G1 X-3.829 Y-25.036 E0.07541
G1 X-2.868 Y-25.341 E0.07765
G1 X-1.934 Y-25.409 E0.07222 F600.000
G1 X-0.974 Y-25.247 E0.07501
G1 X-0.080 Y-24.860 E0.07508
G1 X0.697 Y-24.268 E0.07525
G1 X1.320 Y-23.490 E0.07686
G1 X1.724 Y-22.618 E0.07403
G1 X1.911 Y-21.659 E0.07533
G1 X1.853 Y-20.654 E0.07757
G1 X1.585 Y-19.757 E0.07216
G1 X1.119 Y-18.964 E0.07083
G1 X0.582 Y-19.304 F15000.000
G1 X-0.019 Y-18.699 E0.06568 F600.000
G1 X-0.686 Y-18.285 E0.06052
G1 X-1.466 Y-18.031 E0.06319
G1 X-2.284 Y-17.971 E0.06320
G1 X-3.094 Y-18.109 E0.06332
G1 X-3.872 Y-18.456 E0.06569
G1 X-4.497 Y-18.933 E0.06053
G1 X-5.011 Y-19.572 E0.06318
G1 X-5.357 Y-20.315 E0.06319
G1 X-5.516 Y-21.121 E0.06332
G1 X-5.468 Y-21.972 E0.06570
G1 X-5.244 Y-22.725 E0.06053
G1 X-4.829 Y-23.432 E0.06317
G1 X-4.257 Y-24.020 E0.06319
G1 X-3.560 Y-24.454 E0.06331
G1 X-2.748 Y-24.712 E0.06571
G1 X-1.964 Y-24.769 E0.06054 F600.000
G1 X-1.156 Y-24.633 E0.06317
G1 X-0.403 Y-24.307 E0.06319
G1 X0.250 Y-23.810 E0.06325
G1 X0.776 Y-23.153 E0.06488
G1 X1.115 Y-22.420 E0.06219
G1 X1.272 Y-21.615 E0.06322
G1 X1.223 Y-20.765 E0.06567
G1 X0.998 Y-20.012 E0.06052
G1 X0.612 Y-19.355 E0.05870
G1 X0.718 Y-18.928 F15000.000
G1 E-3.50000 F1500.00000
G1 Z0.700 F15000.000
G1 X-22.558 Y-17.305 F15000.000
G1 Z0.300 F15000.000
G1 E3.50000 F1500.00000
G1 X-22.407 Y-17.365 E0.01260 F720.000
G1 X-21.413 Y-17.658 E0.07981
G1 X-21.132 Y-17.715 E0.02214
G1 X-16.395 Y-18.362 E0.36839
G1 X-16.606 Y-20.736 E0.18363
G1 X-16.606 Y-22.005 E0.09779
G1 X-16.395 Y-24.378 E0.18363
G1 X-21.132 Y-25.025 E0.36838
G1 X-21.413 Y-25.083 E0.02214
G1 X-22.407 Y-25.375 E0.07981
G1 X-23.598 Y-25.852 E0.09892
G1 X-23.320 Y-27.115 E0.09968
G1 X-22.649 Y-29.182 E0.16750
G1 X-22.131 Y-30.368 E0.09968
G1 X-20.887 Y-30.053 E0.09892
G1 X-19.911 Y-29.706 E0.07981
G1 X-19.650 Y-29.587 E0.02215
G1 X-15.437 Y-27.326 E0.36838
G1 X-14.213 Y-29.370 E0.18363
G1 X-13.467 Y-30.397 E0.09779
G1 X-11.901 Y-32.193 E0.18363
G1 X-15.353 Y-35.501 E0.36838
G1 X-15.547 Y-35.713 E0.02215
G1 X-16.179 Y-36.533 E0.07981
G1 X-16.862 Y-37.620 E0.09892
G1 X-15.895 Y-38.478 E0.09968
G1 X-14.137 Y-39.756 E0.16750
G1 X-13.021 Y-40.410 E0.09968
G1 X-12.199 Y-39.424 E0.09892
G1 X-11.614 Y-38.570 E0.07981
G1 X-11.473 Y-38.320 E0.02215
G1 X-9.393 Y-34.016 E0.36838
G1 X-7.201 Y-34.949 E0.18363
G1 X-5.994 Y-35.341 E0.09779
G1 X-3.672 Y-35.875 E0.18363
G1 X-4.520 Y-40.579 E0.36838
G1 X-4.553 Y-40.864 E0.02215
G1 X-4.581 Y-41.900 E0.07981
G1 X-4.496 Y-43.180 E0.09892
G1 X-3.210 Y-43.306 E0.09956
G1 X-0.951 Y-43.300 E0.17408
G1 X0.252 Y-43.181 E0.09318 F720.000
G1 X0.337 Y-41.900 E0.09896
G1 X0.309 Y-40.864 E0.07981
G1 X0.276 Y-40.579 E0.02214
G1 X-0.572 Y-35.875 E0.36838
G1 X1.750 Y-35.341 E0.18363
G1 X2.957 Y-34.949 E0.09779
G1 X5.149 Y-34.016 E0.18363
G1 X7.228 Y-38.320 E0.36838
G1 X7.370 Y-38.570 E0.02215
G1 X7.955 Y-39.424 E0.07981
G1 X8.777 Y-40.410 E0.09892
G1 X9.893 Y-39.756 E0.09968
G1 X11.651 Y-38.478 E0.16750
G1 X12.618 Y-37.620 E0.09968
G1 X11.934 Y-36.533 E0.09892
G1 X11.303 Y-35.713 E0.07981
G1 X11.108 Y-35.501 E0.02215
G1 X7.657 Y-32.193 E0.36838
G1 X9.223 Y-30.397 E0.18363
G1 X9.968 Y-29.370 E0.09779
G1 X11.193 Y-27.327 E0.18363
G1 X15.405 Y-29.587 E0.36838
G1 X15.667 Y-29.706 E0.02215
G1 X16.642 Y-30.053 E0.07981
G1 X17.908 Y-30.373 E0.10059
G1 X18.372 Y-29.262 E0.09282
G1 X18.767 Y-28.158 E0.09037
G1 X19.097 Y-27.032 E0.09037
G1 X19.374 Y-25.860 E0.09282
G1 X18.162 Y-25.375 E0.10059
G1 X17.169 Y-25.083 E0.07981
G1 X16.887 Y-25.025 E0.02215
G1 X12.151 Y-24.378 E0.36838
G1 X12.362 Y-22.005 E0.18363
G1 X12.362 Y-20.736 E0.09779
G1 X12.151 Y-18.362 E0.18363
G1 X16.887 Y-17.715 E0.36838
G1 X17.169 Y-17.658 E0.02215
G1 X18.162 Y-17.365 E0.07981
G1 X19.354 Y-16.888 E0.09892
G1 X19.076 Y-15.625 E0.09968
G1 X18.405 Y-13.558 E0.16750
G1 X17.887 Y-12.373 E0.09968
G1 X16.642 Y-12.687 E0.09892
G1 X15.667 Y-13.035 E0.07981
G1 X15.405 Y-13.154 E0.02214
G1 X11.193 Y-15.414 E0.36838
G1 X9.968 Y-13.370 E0.18363
G1 X9.223 Y-12.344 E0.09779
G1 X7.657 Y-10.547 E0.18363
G1 X11.109 Y-7.240 E0.36838
G1 X11.303 Y-7.028 E0.02214
G1 X11.935 Y-6.207 E0.07981
G1 X12.618 Y-5.121 E0.09892
G1 X11.651 Y-4.262 E0.09968
G1 X9.893 Y-2.985 E0.16750
G1 X8.777 Y-2.330 E0.09968
G1 X7.955 Y-3.316 E0.09892
G1 X7.370 Y-4.171 E0.07981
G1 X7.229 Y-4.421 E0.02215
G1 X5.149 Y-8.725 E0.36838
G1 X2.957 Y-7.792 E0.18363
G1 X1.750 Y-7.399 E0.09779
G1 X-0.572 Y-6.866 E0.18363
G1 X0.276 Y-2.162 E0.36838
G1 X0.309 Y-1.876 E0.02215
G1 X0.337 Y-0.841 E0.07981
G1 X0.252 Y0.440 E0.09892
G1 X-1.035 Y0.566 E0.09968
G1 X-3.209 Y0.566 E0.16750
G1 X-4.496 Y0.440 E0.09968
G1 X-4.581 Y-0.841 E0.09892
G1 X-4.553 Y-1.876 E0.07981
G1 X-4.520 Y-2.162 E0.02215
G1 X-3.672 Y-6.866 E0.36838
G1 X-5.994 Y-7.399 E0.18363
G1 X-7.201 Y-7.792 E0.09779
G1 X-9.393 Y-8.725 E0.18363
G1 X-11.473 Y-4.421 E0.36838
G1 X-11.614 Y-4.171 E0.02214
G1 X-12.199 Y-3.316 E0.07981
G1 X-13.021 Y-2.330 E0.09892
G1 X-14.137 Y-2.985 E0.09968
G1 X-15.895 Y-4.262 E0.16750
G1 X-16.862 Y-5.121 E0.09968
G1 X-16.179 Y-6.207 E0.09892
G1 X-15.547 Y-7.028 E0.07981
G1 X-15.353 Y-7.240 E0.02215
G1 X-11.901 Y-10.547 E0.36838
G1 X-13.467 Y-12.344 E0.18363
G1 X-14.213 Y-13.370 E0.09779
G1 X-15.437 Y-15.414 E0.18363
G1 X-19.649 Y-13.154 E0.36838
G1 X-19.911 Y-13.035 E0.02215
G1 X-20.887 Y-12.687 E0.07981
G1 X-22.131 Y-12.373 E0.09892
G1 X-22.649 Y-13.558 E0.09968
G1 X-23.320 Y-15.625 E0.16750
G1 X-23.598 Y-16.888 E0.09968
G1 X-22.614 Y-17.282 E0.08170
G1 X-22.850 Y-17.872 F15000.000
G1 X-22.615 Y-17.967 E0.01954 F720.000
G1 X-21.566 Y-18.275 E0.08423
G1 X-21.238 Y-18.342 E0.02583
G1 X-17.082 Y-18.910 E0.32325
G1 X-17.241 Y-20.708 E0.13908
G1 X-17.241 Y-22.033 E0.10212
G1 X-17.082 Y-23.830 E0.13908
G1 X-21.238 Y-24.398 E0.32325
G1 X-21.566 Y-24.465 E0.02583
G1 X-22.615 Y-24.774 E0.08423
G1 X-24.335 Y-25.462 E0.14276
G1 X-23.935 Y-27.282 E0.14360
G1 X-23.244 Y-29.408 E0.17229
G1 X-22.498 Y-31.116 E0.14360
G1 X-20.702 Y-30.662 E0.14276
G1 X-19.672 Y-30.296 E0.08423
G1 X-19.367 Y-30.156 E0.02583
G1 X-15.671 Y-28.173 E0.32325
G1 X-14.743 Y-29.721 E0.13908
G1 X-13.964 Y-30.793 E0.10212
G1 X-12.779 Y-32.154 E0.13908
G1 X-15.807 Y-35.056 E0.32325
G1 X-16.034 Y-35.303 E0.02583
G1 X-16.701 Y-36.169 E0.08423
G1 X-17.687 Y-37.737 E0.14276
G1 X-16.294 Y-38.974 E0.14360
G1 X-14.485 Y-40.288 E0.17229
G1 X-12.878 Y-41.231 E0.14360
G1 X-11.692 Y-39.808 E0.14276
G1 X-11.074 Y-38.907 E0.08423
G1 X-10.909 Y-38.615 E0.02583
G1 X-9.085 Y-34.838 E0.32325
G1 X-7.424 Y-35.545 E0.13908
G1 X-6.164 Y-35.954 E0.10212
G1 X-4.405 Y-36.358 E0.13908
G1 X-5.149 Y-40.486 E0.32325
G1 X-5.187 Y-40.819 E0.02583
G1 X-5.218 Y-41.912 E0.08423
G1 X-5.094 Y-43.760 E0.14276
G1 X-3.240 Y-43.942 E0.14356
G1 X-0.919 Y-43.935 E0.17889
G1 X0.850 Y-43.760 E0.13702 F720.000
G1 X0.974 Y-41.912 E0.14277
G1 X0.943 Y-40.819 E0.08423
G1 X0.905 Y-40.486 E0.02583
G1 X0.161 Y-36.358 E0.32325
G1 X1.920 Y-35.954 E0.13908
G1 X3.180 Y-35.545 E0.10212
G1 X4.841 Y-34.838 E0.13908
G1 X6.665 Y-38.615 E0.32325
G1 X6.830 Y-38.907 E0.02583
G1 X7.448 Y-39.808 E0.08423
G1 X8.634 Y-41.231 E0.14276
G1 X10.241 Y-40.288 E0.14360
G1 X12.050 Y-38.974 E0.17229
G1 X13.443 Y-37.737 E0.14360
G1 X12.456 Y-36.169 E0.14276
G1 X11.790 Y-35.303 E0.08423
G1 X11.563 Y-35.056 E0.02583
G1 X8.535 Y-32.154 E0.32325
G1 X9.720 Y-30.793 E0.13908
G1 X10.499 Y-29.721 E0.10212
G1 X11.427 Y-28.173 E0.13908
G1 X15.123 Y-30.156 E0.32325
G1 X15.428 Y-30.296 E0.02583
G1 X16.458 Y-30.662 E0.08423
G1 X18.261 Y-31.118 E0.14338
G1 X18.574 Y-30.450 E0.05683
G1 X18.966 Y-29.489 E0.08000
G1 X19.372 Y-28.354 E0.09288
G1 X19.711 Y-27.197 E0.09288
G1 X19.958 Y-26.189 E0.08000
G1 X20.098 Y-25.465 E0.05683
G1 X18.371 Y-24.774 E0.14338
G1 X17.322 Y-24.465 E0.08423
G1 X16.994 Y-24.398 E0.02583
G1 X12.838 Y-23.831 E0.32325
G1 X12.997 Y-22.033 E0.13908
G1 X12.997 Y-20.708 E0.10212
G1 X12.838 Y-18.910 E0.13908
G1 X16.994 Y-18.342 E0.32325
G1 X17.322 Y-18.275 E0.02584
G1 X18.371 Y-17.967 E0.08423
G1 X20.091 Y-17.278 E0.14276
G1 X19.691 Y-15.458 E0.14360
G1 X19.000 Y-13.332 E0.17229
G1 X18.254 Y-11.625 E0.14360
G1 X16.458 Y-12.078 E0.14276
G1 X15.428 Y-12.445 E0.08423
G1 X15.123 Y-12.584 E0.02583
G1 X11.427 Y-14.567 E0.32325
G1 X10.499 Y-13.019 E0.13908
G1 X9.720 Y-11.947 E0.10212
G1 X8.535 Y-10.587 E0.13908
G1 X11.563 Y-7.684 E0.32325
G1 X11.790 Y-7.437 E0.02583
G1 X12.456 Y-6.571 E0.08423
G1 X13.443 Y-5.003 E0.14276
G1 X12.050 Y-3.766 E0.14360
G1 X10.241 Y-2.452 E0.17229
G1 X8.634 Y-1.509 E0.14360
G1 X7.448 Y-2.932 E0.14276
G1 X6.830 Y-3.834 E0.08423
G1 X6.665 Y-4.126 E0.02583
G1 X4.841 Y-7.903 E0.32325
G1 X3.180 Y-7.196 E0.13908
G1 X1.920 Y-6.786 E0.10212
G1 X0.161 Y-6.382 E0.13908
G1 X0.905 Y-2.254 E0.32325
G1 X0.943 Y-1.921 E0.02583
G1 X0.974 Y-0.829 E0.08423
G1 X0.850 Y1.020 E0.14276
G1 X-1.004 Y1.202 E0.14360
G1 X-3.240 Y1.202 E0.17229
G1 X-5.094 Y1.020 E0.14360
G1 X-5.218 Y-0.829 E0.14276
G1 X-5.187 Y-1.921 E0.08423
G1 X-5.149 Y-2.254 E0.02584
G1 X-4.405 Y-6.382 E0.32325
G1 X-6.164 Y-6.786 E0.13908
G1 X-7.424 Y-7.196 E0.10212
G1 X-9.085 Y-7.903 E0.13908
G1 X-10.909 Y-4.126 E0.32325
G1 X-11.074 Y-3.834 E0.02583
G1 X-11.692 Y-2.932 E0.08423
G1 X-12.878 Y-1.509 E0.14276
G1 X-14.485 Y-2.452 E0.14360
G1 X-16.294 Y-3.766 E0.17229
G1 X-17.687 Y-5.003 E0.14360
G1 X-16.701 Y-6.571 E0.14276
G1 X-16.034 Y-7.437 E0.08423
G1 X-15.807 Y-7.684 E0.02584
G1 X-12.779 Y-10.587 E0.32325
G1 X-13.964 Y-11.947 E0.13908
G1 X-14.743 Y-13.019 E0.10212
G1 X-15.671 Y-14.567 E0.13908
G1 X-19.367 Y-12.584 E0.32325
G1 X-19.672 Y-12.445 E0.02584
G1 X-20.702 Y-12.078 E0.08423
G1 X-22.498 Y-11.625 E0.14276
G1 X-23.244 Y-13.332 E0.14360
G1 X-23.935 Y-15.458 E0.17229
G1 X-24.335 Y-17.278 E0.14360
G1 X-22.906 Y-17.850 E0.11860
G1 X-22.651 Y-17.716 F15000.000
G1 X-21.210 Y-12.973 F15000.000
G1 X-22.384 Y-14.148 E0.12831 F960.000
G1 X-22.818 Y-15.483 E0.10844
G1 X-20.522 Y-13.186 E0.25087
G1 X-19.865 Y-13.431 E0.05414
G1 X-23.128 Y-16.693 E0.35646
G1 X-22.493 Y-16.959 E0.05320
G1 X-19.273 Y-13.739 E0.35182
G1 X-18.686 Y-14.054 E0.05142
G1 X-21.806 Y-17.174 E0.34092
G1 X-21.081 Y-17.350 E0.05766
G1 X-18.100 Y-14.369 E0.32575
G1 X-17.513 Y-14.683 E0.05142
G1 X-20.288 Y-17.458 E0.30320
G1 X-19.496 Y-17.567 E0.06182
G1 X-16.927 Y-14.998 E0.28066
G1 X-16.340 Y-15.313 E0.05142
G1 X-18.703 Y-17.675 E0.25811
G1 X-17.910 Y-17.784 E0.06182
G1 X-15.754 Y-15.627 E0.23557
G1 X-13.898 Y-13.771 F15000.000
G1 X-9.299 Y-9.173 E0.50240 F960.000
G1 X-9.765 Y-8.738 F15000.000
G1 X-11.501 Y-10.474 E0.18971 F960.000
G1 X-11.962 Y-10.033 E0.04924
G1 X-10.059 Y-8.130 E0.20791
G1 X-10.352 Y-7.522 E0.05213
G1 X-12.422 Y-9.592 E0.22612
G1 X-12.882 Y-9.151 E0.04924
G1 X-10.646 Y-6.915 E0.24433
G1 X-10.939 Y-6.307 E0.05213
G1 X-13.342 Y-8.710 E0.26254
G1 X-13.802 Y-8.269 E0.04924
G1 X-11.233 Y-5.699 E0.28074
G1 X-11.526 Y-5.092 E0.05213
G1 X-14.262 Y-7.828 E0.29895
G1 X-14.723 Y-7.387 E0.04924
G1 X-11.822 Y-4.486 E0.31691
G1 X-12.959 Y-2.920 F15000.000
G1 X-15.962 Y-5.923 E0.32811 F960.000
G1 X-15.580 Y-6.442 E0.04979
G1 X-12.550 Y-3.412 E0.33109
G1 X-12.176 Y-3.939 E0.04994
G1 X-15.178 Y-6.942 E0.32806
G1 X-16.310 Y-5.370 F15000.000
G1 X-15.788 Y-4.848 E0.05707 F960.000
G1 X-7.730 Y-8.505 F15000.000
G1 X-17.117 Y-17.892 E1.02563 F960.000
G1 X-16.324 Y-18.000 E0.06182
G1 X-6.269 Y-7.945 E1.09867
G1 X-5.031 Y-7.608 E0.09909
G1 X-16.016 Y-18.594 E1.20026
G1 X-16.104 Y-19.582 E0.07669
G1 X-3.861 Y-7.339 E1.33765
G1 X-3.316 Y-6.794 F15000.000
G1 X-0.463 Y-3.941 E0.31168 F960.000
G1 X-0.661 Y-5.040 E0.08630
G1 X-16.192 Y-20.571 E1.69687
G1 X-16.220 Y-21.501 E0.07186
G1 X-0.859 Y-6.140 E1.67834
G1 X-0.963 Y-7.144 E0.07802
G1 X-16.197 Y-22.379 E1.66450
G1 X-16.124 Y-23.206 E0.06420
G1 X-0.230 Y-7.313 E1.73655
G1 X0.503 Y-7.481 E0.05809
G1 X-16.050 Y-24.034 E1.80861
G1 X-16.891 Y-27.579 F15000.000
G1 X2.633 Y-8.055 E2.13320 F960.000
G1 X3.284 Y-8.304 E0.05391
G1 X-15.306 Y-26.894 E2.03113
G1 X-14.968 Y-27.458 E0.05075
G1 X3.916 Y-8.573 E2.06329
G1 X4.548 Y-8.842 E0.05307
G1 X-3.876 Y-17.267 E0.92045
G1 X-2.687 Y-16.979 E0.09448
G1 X10.474 Y-3.818 E1.43803
G1 X10.996 Y-4.197 E0.04984
G1 X-1.799 Y-16.993 E1.39804
G1 X-1.039 Y-17.133 E0.05974
G1 X11.513 Y-4.581 E1.37145
G1 X11.981 Y-5.015 E0.04926
G1 X-0.359 Y-17.355 E1.34824
G1 X0.202 Y-17.695 E0.05069
G1 X7.280 Y-10.616 E0.77336
G1 X7.700 Y-11.098 E0.04935
G1 X0.722 Y-18.076 E0.76239
G1 X1.171 Y-18.528 E0.04923
G1 X8.119 Y-11.580 E0.75913
G1 X8.539 Y-12.061 E0.04935
G1 X1.556 Y-19.044 E0.76295
G1 X1.889 Y-19.612 E0.05086
G1 X8.958 Y-12.544 E0.77226
G1 X9.337 Y-13.065 E0.04984
G1 X2.112 Y-20.290 E0.78935
G1 X2.254 Y-21.049 E0.05966
G1 X9.711 Y-13.593 E0.81468
G1 X10.048 Y-14.156 E0.05075
G1 X2.281 Y-21.923 E0.84862
G1 X1.998 Y-23.108 E0.09413
G1 X10.386 Y-14.719 E0.91653
G1 X10.724 Y-15.283 E0.05075
G1 X-8.161 Y-34.167 E2.06329
G1 X-7.528 Y-34.436 E0.05307
G1 X11.062 Y-15.846 E2.03114
G1 X12.647 Y-15.162 F15000.000
