; generated by Slic3r 1.2.9 on 2019-07-23 at 15:13:40

; external perimeters extrusion width = 0.40mm
; perimeters extrusion width = 0.40mm
; infill extrusion width = 0.40mm
; solid infill extrusion width = 0.40mm
; top infill extrusion width = 0.40mm

M107
M83
T0
M116
G21 ; set units to millimeters
G90 ; use absolute coordinates
M83 ; use relative distances for extrusion
G1 E-3.50000 F1500.00000
G1 Z0.400 F15000.000
G1 X24.183 Y2.422 F15000.000
G1 Z0.300 F15000.000
G1 E3.50000 F1500.00000
G1 X22.665 Y17.581 E1.17410 F960.000
G1 X22.538 Y18.708 E0.08738
G1 X22.357 Y19.501 E0.06274
G1 X21.998 Y20.526 E0.08369
G1 X21.645 Y21.260 E0.06274
G1 X21.067 Y22.180 E0.08369
G1 X20.559 Y22.816 E0.06274
G1 X19.792 Y23.584 E0.08369
G1 X6.903 Y35.626 E1.35930
G1 X6.356 Y36.047 E0.05325
G1 X5.436 Y36.625 E0.08369
G1 X4.703 Y36.978 E0.06274
G1 X3.678 Y37.337 E0.08369
G1 X2.884 Y37.518 E0.06274
G1 X1.582 Y37.658 E0.10094
G1 X-14.860 Y38.504 E1.26877
G1 X-21.935 Y38.508 E0.54524
G1 X-23.582 Y38.114 E0.13052
G1 X-24.506 Y37.444 E0.08795
G1 X-24.618 Y37.331 E0.01222
G1 X-25.504 Y35.888 E0.13052
G1 X-25.683 Y34.761 E0.08796
G1 X-25.683 Y27.852 E0.53245
G1 X-25.580 Y10.003 E1.37556
G1 X-25.115 Y-7.315 E1.33506
G1 X-24.518 Y-24.847 E1.35193
G1 X-24.193 Y-27.633 E0.21614
G1 X-24.104 Y-28.100 E0.03666
G1 X-23.771 Y-29.393 E0.10288
G1 X-23.570 Y-29.969 E0.04705
G1 X-23.025 Y-31.188 E0.10288
G1 X-22.730 Y-31.723 E0.04705
G1 X-21.989 Y-32.833 E0.10288
G1 X-21.609 Y-33.311 E0.04705
G1 X-20.693 Y-34.281 E0.10288
G1 X-20.238 Y-34.689 E0.04705
G1 X-19.172 Y-35.492 E0.10288
G1 X-18.655 Y-35.818 E0.04705
G1 X-17.470 Y-36.432 E0.10288
G1 X-16.906 Y-36.666 E0.04705
G1 X-15.635 Y-37.073 E0.10288
G1 X-15.040 Y-37.210 E0.04705
G1 X-11.820 Y-37.656 E0.25053
G1 X0.961 Y-38.501 E0.98711
G1 X1.480 Y-38.505 E0.03997
G1 X1.832 Y-38.482 E0.02722 F960.000
G1 X2.884 Y-38.364 E0.08159
G1 X3.678 Y-38.183 E0.06274
G1 X4.703 Y-37.824 E0.08369
G1 X5.436 Y-37.471 E0.06274
G1 X6.356 Y-36.893 E0.08369
G1 X6.992 Y-36.385 E0.06274
G1 X22.018 Y-21.314 E1.64006
G1 X23.160 Y-20.073 E0.12998
G1 X23.625 Y-19.443 E0.06035
G1 X24.488 Y-17.964 E0.13202
G1 X24.800 Y-17.271 E0.05857
G1 X25.320 Y-15.695 E0.12789
G1 X25.483 Y-14.941 E0.05941
G1 X25.662 Y-13.264 E0.13001
G1 X25.668 Y-12.552 E0.05489
G1 X25.536 Y-11.095 E0.11273
G1 X24.189 Y2.362 E1.04223
G1 E-3.50000 F1500.00000
G1 Z0.700 F15000.000
G1 X3.238 Y25.469 F15000.000
G1 Z0.300 F15000.000
G1 E3.50000 F1500.00000
G1 X3.646 Y25.989 E0.05096 F600.000
G1 X3.918 Y26.593 E0.05096
G1 X4.037 Y27.243 E0.05096
G1 X3.997 Y27.903 E0.05096
G1 X3.800 Y28.535 E0.05097
G1 X3.458 Y29.100 E0.05097
G1 X2.990 Y29.568 E0.05096
G1 X2.424 Y29.910 E0.05097
G1 X1.793 Y30.107 E0.05096
G1 X1.133 Y30.147 E0.05096
G1 X0.483 Y30.028 E0.05097
G1 X-0.121 Y29.756 E0.05097
G1 X-0.641 Y29.348 E0.05096
G1 X-1.049 Y28.828 E0.05096
G1 X-1.320 Y28.225 E0.05097
G1 X-1.440 Y27.574 E0.05097
G1 X-1.400 Y26.914 E0.05096
G1 X-1.203 Y26.283 E0.05096
G1 X-0.861 Y25.717 E0.05097
G1 X-0.393 Y25.249 E0.05096
G1 X0.177 Y24.905 E0.05135
G1 X0.827 Y24.709 E0.05234
G1 X1.464 Y24.670 E0.04916 F600.000
G1 X2.115 Y24.790 E0.05097
G1 X2.718 Y25.061 E0.05096
G1 X3.191 Y25.432 E0.04634
G1 X2.786 Y25.922 F15000.000
G1 X3.098 Y26.321 E0.03907 F600.000
G1 X3.306 Y26.783 E0.03907
G1 X3.398 Y27.282 E0.03907
G1 X3.367 Y27.788 E0.03907
G1 X3.216 Y28.272 E0.03907
G1 X2.954 Y28.706 E0.03907
G1 X2.596 Y29.064 E0.03907
G1 X2.162 Y29.326 E0.03907
G1 X1.678 Y29.477 E0.03907
G1 X1.172 Y29.508 E0.03907
G1 X0.673 Y29.416 E0.03907
G1 X0.211 Y29.208 E0.03907
G1 X-0.188 Y28.896 E0.03907
G1 X-0.501 Y28.497 E0.03907
G1 X-0.709 Y28.034 E0.03907
G1 X-0.800 Y27.536 E0.03907
G1 X-0.770 Y27.030 E0.03907
G1 X-0.619 Y26.546 E0.03907
G1 X-0.357 Y26.112 E0.03907
G1 X0.002 Y25.753 E0.03907
G1 X0.437 Y25.490 E0.03921
G1 X0.940 Y25.339 E0.04045
G1 X1.426 Y25.310 E0.03752 F600.000
G1 X1.924 Y25.401 E0.03907
G1 X2.387 Y25.609 E0.03907
G1 X2.738 Y25.885 E0.03445
G1 X3.176 Y25.834 F15000.000
G1 X1.133 Y-26.422 F15000.000
G1 X0.483 Y-26.541 E0.05097 F600.000
G1 X-0.121 Y-26.812 E0.05096
G1 X-0.645 Y-27.223 E0.05135
G1 X-1.059 Y-27.762 E0.05234
G1 X-1.320 Y-28.344 E0.04917
G1 X-1.440 Y-28.994 E0.05096
G1 X-1.400 Y-29.654 E0.05096
G1 X-1.203 Y-30.286 E0.05096
G1 X-0.861 Y-30.852 E0.05097
G1 X-0.393 Y-31.319 E0.05096
G1 X0.173 Y-31.661 E0.05096
G1 X0.319 Y-31.707 E0.01179
G1 X0.319 Y-32.108 E0.03091 F600.000
G1 X2.115 Y-31.779 E0.14071
G1 X2.718 Y-31.507 E0.05096
G1 X3.238 Y-31.100 E0.05097
G1 X3.646 Y-30.579 E0.05096
G1 X3.918 Y-29.976 E0.05096
G1 X4.037 Y-29.326 E0.05096
G1 X3.997 Y-28.665 E0.05097
G1 X3.800 Y-28.034 E0.05096
G1 X3.458 Y-27.468 E0.05096
G1 X2.987 Y-26.997 E0.05135
G1 X2.402 Y-26.651 E0.05234
G1 X1.793 Y-26.462 E0.04916
G1 X1.193 Y-26.425 E0.04634
G1 X1.172 Y-27.061 F15000.000
G1 X0.673 Y-27.152 E0.03907 F600.000
G1 X0.211 Y-27.360 E0.03907
G1 X-0.190 Y-27.674 E0.03921
G1 X-0.509 Y-28.090 E0.04045
G1 X-0.709 Y-28.534 E0.03752
G1 X-0.800 Y-29.033 E0.03907
G1 X-0.770 Y-29.539 E0.03907
G1 X-0.619 Y-30.023 E0.03907
G1 X-0.357 Y-30.457 E0.03907
G1 X0.002 Y-30.815 E0.03907
G1 X0.436 Y-31.078 E0.03907
G1 X0.954 Y-31.239 E0.04189
G1 X0.954 Y-31.345 E0.00817 F600.000
G1 X1.924 Y-31.168 E0.07598
G1 X2.387 Y-30.960 E0.03907
G1 X2.786 Y-30.647 E0.03907
G1 X3.098 Y-30.248 E0.03907
G1 X3.306 Y-29.786 E0.03907
G1 X3.398 Y-29.287 E0.03907
G1 X3.367 Y-28.781 E0.03907
G1 X3.216 Y-28.297 E0.03907
G1 X2.954 Y-27.863 E0.03907
G1 X2.594 Y-27.503 E0.03921
G1 X2.142 Y-27.236 E0.04045
G1 X1.678 Y-27.091 E0.03752
G1 X1.232 Y-27.064 E0.03445
G1 X0.938 Y-26.736 F15000.000
G1 X5.262 Y-4.386 F15000.000
G1 X5.262 Y29.119 E2.58211 F720.000
G1 X5.159 Y30.036 E0.07109
G1 X4.874 Y30.851 E0.06658
G1 X4.414 Y31.582 E0.06658
G1 X3.803 Y32.193 E0.06658
G1 X3.072 Y32.653 E0.06658
G1 X2.256 Y32.938 E0.06658
G1 X1.340 Y33.042 E0.07109
G1 X0.339 Y32.938 E0.07750
G1 X-0.476 Y32.653 E0.06658
G1 X-1.207 Y32.193 E0.06657
G1 X-1.818 Y31.583 E0.06658
G1 X-2.278 Y30.851 E0.06658
G1 X-2.563 Y30.036 E0.06658
G1 X-2.667 Y29.119 E0.07109
G1 X-2.667 Y-29.965 E4.55331
G1 X-2.563 Y-30.881 E0.07109
G1 X-2.278 Y-31.697 E0.06658
G1 X-1.818 Y-32.428 E0.06658
G1 X-1.207 Y-33.039 E0.06657
G1 X-0.476 Y-33.499 E0.06658
G1 X0.339 Y-33.784 E0.06658
G1 X1.249 Y-33.886 E0.07051
G1 X1.362 Y-33.885 E0.00876
G1 X2.256 Y-33.784 E0.06934 F720.000
G1 X3.072 Y-33.499 E0.06658
G1 X3.803 Y-33.039 E0.06658
G1 X4.414 Y-32.428 E0.06658
G1 X4.874 Y-31.697 E0.06657
G1 X5.159 Y-30.881 E0.06657
G1 X5.262 Y-29.965 E0.07109
G1 X5.262 Y-4.446 E1.96658
G1 X5.898 Y-4.446 F15000.000
G1 X5.898 Y29.155 E2.58948 F720.000
G1 X5.783 Y30.178 E0.07936
G1 X5.450 Y31.129 E0.07761
G1 X4.914 Y31.981 E0.07761
G1 X4.202 Y32.693 E0.07761
G1 X3.349 Y33.229 E0.07761
G1 X2.399 Y33.562 E0.07761
G1 X1.375 Y33.677 E0.07936
G1 X1.220 Y33.677 E0.01195
G1 X0.197 Y33.562 E0.07936
G1 X-0.754 Y33.229 E0.07761
G1 X-1.606 Y32.693 E0.07761
G1 X-2.318 Y31.981 E0.07761
G1 X-2.854 Y31.129 E0.07761
G1 X-3.187 Y30.178 E0.07761
G1 X-3.302 Y29.155 E0.07936
G1 X-3.302 Y-30.000 E4.55882
G1 X-3.187 Y-31.024 E0.07936
G1 X-2.854 Y-31.974 E0.07761
G1 X-2.318 Y-32.827 E0.07761
G1 X-1.606 Y-33.539 E0.07761
G1 X-0.754 Y-34.075 E0.07761
G1 X0.197 Y-34.408 E0.07761
G1 X1.218 Y-34.523 E0.07915
G1 X1.403 Y-34.520 E0.01426
G1 X2.399 Y-34.408 E0.07724 F720.000
G1 X3.349 Y-34.075 E0.07761
G1 X4.202 Y-33.539 E0.07761
G1 X4.914 Y-32.827 E0.07761
G1 X5.450 Y-31.974 E0.07761
G1 X5.783 Y-31.024 E0.07761
G1 X5.898 Y-30.000 E0.07936
G1 X5.898 Y-4.506 E1.96471
G1 X5.551 Y-4.246 F15000.000
G1 X0.584 Y-26.104 F15000.000
G1 X4.877 Y-21.810 E0.47261 F960.000
G1 X4.877 Y-22.718 E0.07068
G1 X1.528 Y-26.067 E0.36867
G1 X2.263 Y-26.240 E0.05879
G1 X4.877 Y-23.626 E0.28772
G1 X4.877 Y-24.534 E0.07068
G1 X2.872 Y-26.539 E0.22071
G1 X3.388 Y-26.932 E0.05044
G1 X4.877 Y-25.442 E0.16394
G1 X4.877 Y-26.350 E0.07068
G1 X3.816 Y-27.412 E0.11684
G1 X4.563 Y-27.572 E0.05953
G1 X4.877 Y-27.258 E0.03452
G1 E-3.50000 F1500.00000
G1 Z0.700 F15000.000
G1 X-1.836 Y-27.615 F15000.000
G1 Z0.300 F15000.000
G1 E3.50000 F1500.00000
G1 X4.877 Y-20.903 E0.73896 F960.000
G1 X4.877 Y-19.995 E0.07068
G1 X-2.281 Y-27.152 E0.78799
G1 X-2.281 Y-26.244 E0.07068
G1 X4.877 Y-19.087 E0.78799
G1 X4.877 Y-18.179 E0.07068
G1 X-2.281 Y-25.337 E0.78799
G1 X-2.281 Y-24.429 E0.07068
G1 X4.877 Y-17.271 E0.78799
G1 X4.877 Y-16.363 E0.07068
G1 X-2.281 Y-23.521 E0.78799
G1 X-2.281 Y-22.613 E0.07068
G1 X4.877 Y-15.455 E0.78799
G1 X4.877 Y-14.547 E0.07068
G1 X-2.281 Y-21.705 E0.78799
G1 X-2.281 Y-20.797 E0.07068
G1 X4.877 Y-13.639 E0.78799
G1 X4.877 Y-12.731 E0.07068
G1 X-2.281 Y-19.889 E0.78799
G1 X-2.281 Y-18.981 E0.07068
G1 X4.877 Y-11.823 E0.78799
G1 X4.877 Y-10.915 E0.07068
G1 X-2.281 Y-18.073 E0.78799
G1 X-2.281 Y-17.165 E0.07068
G1 X4.877 Y-10.007 E0.78799
G1 X4.877 Y-9.099 E0.07068
G1 X-2.281 Y-16.257 E0.78799
G1 X-2.281 Y-15.349 E0.07068
G1 X4.877 Y-8.191 E0.78799
G1 X4.877 Y-7.283 E0.07068
G1 X-2.281 Y-14.441 E0.78799
G1 X-2.281 Y-13.533 E0.07068
G1 X4.877 Y-6.375 E0.78799
G1 X4.877 Y-5.467 E0.07068
G1 X-2.281 Y-12.625 E0.78799
G1 X-2.281 Y-11.717 E0.07068
G1 X4.877 Y-4.559 E0.78799
G1 X4.877 Y-3.651 E0.07068
G1 X-2.281 Y-10.809 E0.78799
G1 X-2.281 Y-9.901 E0.07068
G1 X4.877 Y-2.743 E0.78799
G1 X4.877 Y-1.835 E0.07068
G1 X-2.281 Y-8.993 E0.78799
G1 X-2.281 Y-8.085 E0.07068
G1 X4.877 Y-0.927 E0.78799
G1 X4.877 Y-0.019 E0.07068
G1 X-2.281 Y-7.177 E0.78799
G1 X-2.281 Y-6.269 E0.07068
G1 X4.877 Y0.889 E0.78799
G1 X4.877 Y1.797 E0.07068
G1 X-2.281 Y-5.361 E0.78799
G1 X-2.281 Y-4.453 E0.07068
G1 X4.877 Y2.705 E0.78799
G1 X4.877 Y3.613 E0.07068
G1 X-2.281 Y-3.545 E0.78799
G1 X-2.281 Y-2.637 E0.07068
G1 X4.877 Y4.521 E0.78799
G1 X4.877 Y5.429 E0.07068
G1 X-2.281 Y-1.729 E0.78799
G1 X-2.281 Y-0.821 E0.07068
G1 X4.877 Y6.336 E0.78799
G1 X4.877 Y7.244 E0.07068
G1 X-2.281 Y0.087 E0.78799
G1 X-2.281 Y0.995 E0.07068
G1 X4.877 Y8.152 E0.78799
G1 X4.877 Y9.060 E0.07068
G1 X-2.281 Y1.902 E0.78799
G1 X-2.281 Y2.810 E0.07068
G1 X4.877 Y9.968 E0.78799
G1 X4.877 Y10.876 E0.07068
G1 X-2.281 Y3.718 E0.78799
G1 X-2.281 Y4.626 E0.07068
G1 X4.877 Y11.784 E0.78799
G1 X4.877 Y12.692 E0.07068
G1 X-2.281 Y5.534 E0.78799
G1 X-2.281 Y6.442 E0.07068
G1 X4.877 Y13.600 E0.78799
G1 X4.877 Y14.508 E0.07068
G1 X-2.281 Y7.350 E0.78799
G1 X-2.281 Y8.258 E0.07068
G1 X4.877 Y15.416 E0.78799
G1 X4.877 Y16.324 E0.07068
G1 X-2.281 Y9.166 E0.78799
G1 X-2.281 Y10.074 E0.07068
G1 X4.877 Y17.232 E0.78799
G1 X4.877 Y18.140 E0.07068
G1 X-2.281 Y10.982 E0.78799
G1 X-2.281 Y11.890 E0.07068
G1 X4.877 Y19.048 E0.78799
G1 X4.877 Y19.956 E0.07068
G1 X-2.281 Y12.798 E0.78799
G1 X-2.281 Y13.706 E0.07068
G1 X4.877 Y20.864 E0.78799
G1 X4.877 Y21.772 E0.07068
G1 X-2.281 Y14.614 E0.78799
G1 X-2.281 Y15.522 E0.07068
G1 X4.877 Y22.680 E0.78799
G1 X4.877 Y23.588 E0.07068
G1 X-2.281 Y16.430 E0.78799
G1 X-2.281 Y17.338 E0.07068
G1 X4.877 Y24.496 E0.78799
G1 X4.877 Y25.404 E0.07068
G1 X-2.281 Y18.246 E0.78799
G1 X-2.281 Y19.154 E0.07068
G1 X4.426 Y25.861 E0.73835
G1 X2.008 Y24.351 F15000.000
G1 X-2.281 Y20.062 E0.47222 F960.000
G1 X-2.281 Y20.970 E0.07068
G1 X1.065 Y24.316 E0.36841
G1 X0.331 Y24.490 E0.05872
G1 X-2.281 Y21.878 E0.28760
G1 X-2.281 Y22.786 E0.07068
G1 X-0.278 Y24.788 E0.22046
G1 X-0.792 Y25.182 E0.05041
G1 X-2.281 Y23.694 E0.16388
G1 X-2.281 Y24.602 E0.07068
G1 X-1.220 Y25.663 E0.11683
G1 X-1.968 Y25.823 E0.05953
G1 X-2.281 Y25.510 E0.03451
G1 X-1.945 Y26.238 F15000.000
G1 X-2.031 Y26.837 E0.09798 F960.000
G1 X-2.054 Y27.576 E0.11964
G1 X-1.965 Y28.594 E0.16552
G1 X-1.856 Y28.959 F15000.000
G1 X1.796 Y32.611 E0.40333 F960.000
G1 X0.868 Y32.594 E0.07252
G1 X-2.219 Y29.507 E0.34091
G1 X-1.592 Y31.045 F15000.000
G1 X-0.670 Y31.967 E0.10177 F960.000
G1 X0.556 Y30.460 F15000.000
G1 X2.559 Y32.463 E0.22124 F960.000
G1 X3.190 Y32.184 E0.05392
G1 X1.509 Y30.502 E0.18567
G1 X2.250 Y30.333 E0.05937
G1 X3.710 Y31.792 E0.16121
G1 X4.165 Y31.337 E0.05030
G1 X2.864 Y30.036 E0.14368
G1 X3.382 Y29.643 E0.05076
G1 X4.522 Y30.783 E0.12589
G1 X4.763 Y30.113 E0.05559
G1 X3.812 Y29.162 E0.10497
G1 X4.556 Y28.995 E0.05952
G1 X4.868 Y29.307 E0.03441
G1 X4.541 Y28.581 F15000.000
G1 X4.628 Y27.980 E0.09830 F960.000
G1 X4.650 Y27.241 E0.11964
G1 X4.562 Y26.224 E0.16541
G1 X4.541 Y-27.987 F15000.000
G1 X4.628 Y-28.589 E0.09841 F960.000
G1 X4.648 Y-29.398 E0.13116
G1 X4.569 Y-30.135 E0.11993
G1 X4.382 Y-30.838 E0.11788
G1 X4.057 Y-31.117 F15000.000
G1 X1.735 Y-33.439 E0.25470 F960.000
G1 X2.061 Y-32.207 F15000.000
G1 X0.806 Y-33.463 E0.13770 F960.000
G1 X0.051 Y-33.314 E0.05972
G1 X0.954 Y-32.410 E0.09907
G1 X-0.067 Y-32.526 E0.07964
G1 X-0.579 Y-33.039 E0.05623
G1 X-1.099 Y-32.654 E0.05015
G1 X-0.245 Y-31.800 E0.09358
G1 X-0.764 Y-31.414 E0.05014
G1 X-1.551 Y-32.201 E0.08629
G1 X-1.909 Y-31.655 E0.05067
G1 X-1.599 Y-31.345 E0.03401
G1 X3.266 Y-32.812 F15000.000
G1 X4.187 Y-31.891 E0.10108 F960.000
G1 X-1.789 Y-30.960 F15000.000
G1 X-2.006 Y-29.928 E0.17079 F960.000
G1 X-2.031 Y-29.731 E0.03205
G1 X-2.051 Y-28.921 E0.13119
G1 X-1.966 Y-27.979 E0.15331
G1 E-3.50000 F1500.00000
G1 Z0.700 F15000.000
G1 X10.979 Y-18.278 F15000.000
G1 Z0.300 F15000.000
G1 E3.50000 F1500.00000
G1 X17.215 Y-18.278 E0.48053 F600.000
G1 X19.083 Y-15.042 E0.28800
G1 X20.332 Y-12.878 E0.19254
G1 X17.215 Y-7.478 E0.48053
G1 X10.979 Y-7.478 E0.48053
G1 X7.862 Y-12.878 E0.48053
G1 X10.949 Y-18.227 E0.47591
G1 X11.049 Y-18.672 F15000.000
G1 X8.712 Y-17.225 F15000.000
G1 X9.267 Y-17.887 E0.06661 F600.000
G1 X9.987 Y-18.448 E0.07035
G1 X10.224 Y-18.241 E0.02420
G1 X7.498 Y-13.519 E0.42021 F600.000
G1 X7.209 Y-13.606 E0.02327
G1 X7.234 Y-14.027 E0.03248
G1 X7.631 Y-15.449 E0.11380
G1 X8.319 Y-16.755 E0.11377
G1 X8.673 Y-17.179 E0.04254
G1 E-3.50000 F1500.00000
G1 Z0.700 F15000.000
G1 X16.826 Y-19.237 F15000.000
G1 Z0.300 F15000.000
G1 E3.50000 F1500.00000
G1 X16.867 Y-19.219 E0.00346 F600.000
G1 X16.805 Y-18.914 E0.02401
G1 X11.367 Y-18.914 E0.41912
G1 X11.299 Y-19.211 E0.02344
G1 X11.762 Y-19.434 E0.03962
G1 X13.196 Y-19.778 E0.11366
G1 X14.699 Y-19.809 E0.11581
G1 X16.123 Y-19.536 E0.11179
G1 X16.771 Y-19.260 E0.05423 F600.000
G1 X19.605 Y-17.111 F15000.000
G1 X19.687 Y-17.022 E0.00931 F600.000
G1 X20.444 Y-15.724 E0.11581
G1 X20.899 Y-14.347 E0.11180
G1 X20.974 Y-13.643 E0.05450
G1 X20.680 Y-13.548 E0.02382
G1 X17.964 Y-18.252 E0.41861
G1 X18.191 Y-18.458 E0.02363
G1 X18.688 Y-18.107 E0.04695
G1 X19.565 Y-17.155 E0.09971 F600.000
G1 E-3.50000 F1500.00000
G1 Z0.700 F15000.000
G1 X19.569 Y-10.285 F15000.000
G1 Z0.300 F15000.000
G1 E3.50000 F1500.00000
G1 X20.699 Y-12.243 E0.17426 F600.000
G1 X20.992 Y-12.150 E0.02362
G1 X20.945 Y-11.634 E0.03995 F600.000
G1 X20.612 Y-10.429 E0.09633
G1 X20.082 Y-9.327 E0.09427
G1 X19.351 Y-8.314 E0.09629
G1 X18.135 Y-7.145 E0.12997
G1 X17.874 Y-7.349 E0.02552
G1 X19.539 Y-10.233 E0.25658
G1 X14.434 Y14.349 F15000.000
G1 X15.088 Y14.510 E0.05189 F600.000
G1 X15.684 Y14.823 E0.05189
G1 X16.188 Y15.269 E0.05189
G1 X16.570 Y15.823 E0.05189
G1 X16.809 Y16.453 E0.05189
G1 X16.890 Y17.122 E0.05189
G1 X16.809 Y17.790 E0.05189
G1 X16.570 Y18.420 E0.05189
G1 X16.188 Y18.974 E0.05189
G1 X15.684 Y19.420 E0.05189
G1 X15.088 Y19.733 E0.05189
G1 X14.429 Y19.896 E0.05228
G1 X13.737 Y19.889 E0.05330
G1 X13.107 Y19.733 E0.05007
G1 X12.510 Y19.420 E0.05189
G1 X12.006 Y18.974 E0.05189
G1 X11.621 Y18.416 E0.05228
G1 X11.382 Y17.766 E0.05330
G1 X11.304 Y17.122 E0.05007
G1 X11.385 Y16.453 E0.05189
G1 X11.624 Y15.823 E0.05189
G1 X12.006 Y15.269 E0.05189
G1 X12.510 Y14.823 E0.05189
G1 X13.107 Y14.510 E0.05189
G1 X13.760 Y14.349 E0.05189
G1 X14.374 Y14.349 E0.04727 F600.000
G1 X14.357 Y14.984 F15000.000
G1 X14.861 Y15.108 E0.04000 F600.000
G1 X15.320 Y15.350 E0.04000
G1 X15.709 Y15.694 E0.04000
G1 X16.003 Y16.121 E0.04000
G1 X16.187 Y16.606 E0.04000
G1 X16.250 Y17.122 E0.04000
G1 X16.187 Y17.637 E0.04000
G1 X16.003 Y18.122 E0.04000
G1 X15.709 Y18.549 E0.04000
G1 X15.320 Y18.893 E0.04000
G1 X14.861 Y19.135 E0.04000
G1 X14.355 Y19.259 E0.04013
G1 X13.818 Y19.254 E0.04140
G1 X13.334 Y19.135 E0.03842
G1 X12.874 Y18.893 E0.04000
G1 X12.486 Y18.549 E0.04000
G1 X12.190 Y18.121 E0.04013
