; generated by Slic3r 1.2.9 on 2019-07-24 at 12:22:03

; external perimeters extrusion width = 0.40mm
; perimeters extrusion width = 0.40mm
; infill extrusion width = 0.40mm
; solid infill extrusion width = 0.40mm
; top infill extrusion width = 0.40mm

M107
M83
T0
M116
G21 ; set units to millimeters
G90 ; use absolute coordinates
M83 ; use relative distances for extrusion
G1 E-3.50000 F1500.00000
G1 Z0.400 F15000.000
G1 X-9.560 Y0.000 F15000.000
G1 Z0.300 F15000.000
G1 E3.50000 F1500.00000
G1 X-9.560 Y-56.994 E4.39230 F960.000
G1 X-9.539 Y-57.255 E0.02016
G1 X-9.273 Y-58.901 E0.12849
G1 X-9.183 Y-59.232 E0.02644
G1 X-8.580 Y-60.787 E0.12849
G1 X-8.423 Y-61.092 E0.02644
G1 X-7.508 Y-62.486 E0.12849
G1 X-6.094 Y-64.236 E0.17342
G1 X-1.223 Y-69.107 E0.53084
G1 X-0.066 Y-69.586 E0.09647
G1 X0.092 Y-69.586 E0.01222
G1 X1.249 Y-69.107 E0.09647
G1 X6.120 Y-64.236 E0.53084 F960.000
G1 X7.463 Y-62.578 E0.16446
G1 X8.352 Y-61.272 E0.12175
G1 X8.507 Y-60.986 E0.02505
G1 X9.119 Y-59.530 E0.12176
G1 X9.215 Y-59.219 E0.02505
G1 X9.527 Y-57.670 E0.12176
G1 X9.560 Y-57.347 E0.02505
G1 X9.560 Y57.370 E8.84072
G1 X9.526 Y57.700 E0.02558
G1 X9.200 Y59.281 E0.12438
G1 X9.106 Y59.585 E0.02452
G1 X8.507 Y61.009 E0.11908
G1 X8.352 Y61.295 E0.02505
G1 X7.375 Y62.720 E0.13313
G1 X6.120 Y64.236 E0.15169
G1 X1.249 Y69.107 E0.53084
G1 X0.092 Y69.586 E0.09647
G1 X-0.066 Y69.586 E0.01222
G1 X-1.223 Y69.107 E0.09647
G1 X-6.220 Y64.094 E0.54546
G1 X-7.939 Y61.920 E0.21360
G1 X-8.115 Y61.647 E0.02504
G1 X-8.870 Y60.160 E0.12849
G1 X-8.992 Y59.840 E0.02644
G1 X-9.421 Y58.229 E0.12849
G1 X-9.474 Y57.890 E0.02644
G1 X-9.560 Y56.143 E0.13479
G1 X-9.560 Y0.060 E4.32204
G1 E-3.50000 F1500.00000
G1 Z0.700 F15000.000
G1 X-0.427 Y61.903 F15000.000
G1 Z0.300 F15000.000
G1 E3.50000 F1500.00000
G1 X-0.051 Y61.856 E0.02924 F600.000
G1 X0.449 Y61.901 E0.03868
G1 X0.869 Y62.064 E0.03473
G1 X1.232 Y62.322 E0.03426
G1 X1.520 Y62.660 E0.03426
G1 X1.717 Y63.059 E0.03426
G1 X1.810 Y63.495 E0.03439
G1 X1.789 Y63.953 E0.03537
G1 X1.670 Y64.364 E0.03298
G1 X1.445 Y64.747 E0.03423
G1 X1.139 Y65.060 E0.03374
G1 X0.766 Y65.290 E0.03371
G1 X0.350 Y65.423 E0.03371
G1 X-0.087 Y65.451 E0.03371
G1 X-0.517 Y65.374 E0.03371
G1 X-0.917 Y65.196 E0.03371
G1 X-1.248 Y64.936 E0.03245
G1 X-1.378 Y64.795 E0.01479
G1 X-1.641 Y64.368 E0.03864
G1 X-1.767 Y63.937 E0.03457
G1 X-1.782 Y63.493 E0.03426
G1 X-1.689 Y63.059 E0.03426
G1 X-1.492 Y62.660 E0.03426
G1 X-1.204 Y62.322 E0.03426
G1 X-0.842 Y62.064 E0.03426
G1 X-0.483 Y61.925 E0.02963
G1 X-0.309 Y61.543 F15000.000
G1 E-3.50000 F1500.00000
G1 Z0.700 F15000.000
G1 X-0.467 Y66.156 F15000.000
G1 Z0.300 F15000.000
G1 E3.50000 F1500.00000
G1 X-0.506 Y66.116 E0.00432 F600.000
G1 X0.606 Y66.043 E0.08587
G1 X0.013 Y66.635 E0.06459
G1 X-0.424 Y66.198 E0.04765 F600.000
G1 E-3.50000 F1500.00000
G1 Z0.700 F15000.000
G1 X-0.222 Y60.476 F15000.000
G1 Z0.300 F15000.000
G1 E3.50000 F1500.00000
G1 X-1.147 Y60.306 E0.07251 F600.000
G1 X-2.005 Y59.920 E0.07251
G1 X-2.746 Y59.340 E0.07251
G1 X-3.326 Y58.599 E0.07251
G1 X-3.712 Y57.741 E0.07251
G1 X-3.882 Y56.816 E0.07251
G1 X-3.825 Y55.877 E0.07251
G1 X-3.545 Y54.978 E0.07251
G1 X-3.059 Y54.173 E0.07251
G1 X-2.393 Y53.508 E0.07251
G1 X-1.588 Y53.021 E0.07251
G1 X-0.690 Y52.741 E0.07251
G1 X-0.578 Y52.734 E0.00862
G1 X0.249 Y52.684 E0.06389 F600.000
G1 X1.175 Y52.854 E0.07251
G1 X2.033 Y53.240 E0.07251
G1 X2.774 Y53.820 E0.07251
G1 X3.354 Y54.561 E0.07251
G1 X3.740 Y55.419 E0.07251
G1 X3.910 Y56.345 E0.07251
G1 X3.853 Y57.284 E0.07251
G1 X3.573 Y58.182 E0.07251
G1 X3.086 Y58.987 E0.07251
G1 X2.421 Y59.653 E0.07251
G1 X1.616 Y60.139 E0.07251
G1 X0.717 Y60.419 E0.07251
G1 X-0.162 Y60.472 E0.06789
G1 X-0.456 Y60.801 F15000.000
G1 E-3.50000 F1500.00000
G1 Z0.700 F15000.000
G1 X-0.150 Y51.304 F15000.000
G1 Z0.300 F15000.000
G1 E3.50000 F1500.00000
G1 X-0.557 Y51.219 E0.03209 F600.000
G1 X-0.934 Y51.042 E0.03209
G1 X-1.262 Y50.783 E0.03216
G1 X-1.527 Y50.445 E0.03318
G1 X-1.706 Y50.052 E0.03324
G1 X-1.785 Y49.628 E0.03324
G1 X-1.762 Y49.197 E0.03325
G1 X-1.637 Y48.784 E0.03324
G1 X-1.418 Y48.414 E0.03316
G1 X-1.131 Y48.116 E0.03187
G1 X-0.783 Y47.892 E0.03191
G1 X-0.381 Y47.752 E0.03281
G1 X0.014 Y47.707 E0.03060 F600.000
G1 X0.423 Y47.754 E0.03178
G1 X0.812 Y47.893 E0.03178
G1 X1.158 Y48.116 E0.03178
G1 X1.445 Y48.413 E0.03180
G1 X1.658 Y48.771 E0.03208
G1 X1.784 Y49.168 E0.03209
G1 X1.815 Y49.583 E0.03209
G1 X1.750 Y49.996 E0.03222
G1 X1.583 Y50.392 E0.03314
G1 X1.350 Y50.719 E0.03090
G1 X1.037 Y50.993 E0.03209
G1 X0.669 Y51.188 E0.03210
G1 X0.267 Y51.294 E0.03209
G1 X-0.090 Y51.303 E0.02747
G1 X-0.393 Y51.622 F15000.000
G1 E-3.50000 F1500.00000
G1 Z0.700 F15000.000
G1 X-0.087 Y-47.686 F15000.000
G1 Z0.300 F15000.000
G1 E3.50000 F1500.00000
G1 X-0.517 Y-47.763 E0.03371 F600.000
G1 X-0.917 Y-47.941 E0.03371
G1 X-1.248 Y-48.201 E0.03245
G1 X-1.378 Y-48.342 E0.01479
G1 X-1.641 Y-48.769 E0.03864
G1 X-1.766 Y-49.200 E0.03457
G1 X-1.782 Y-49.644 E0.03426
G1 X-1.689 Y-50.079 E0.03426
G1 X-1.492 Y-50.477 E0.03426
G1 X-1.204 Y-50.815 E0.03426
G1 X-0.842 Y-51.073 E0.03426
G1 X-0.427 Y-51.234 E0.03426
G1 X-0.003 Y-51.287 E0.03298 F600.000
G1 X0.453 Y-51.235 E0.03537
G1 X0.869 Y-51.073 E0.03439
G1 X1.232 Y-50.815 E0.03426
G1 X1.520 Y-50.477 E0.03426
G1 X1.717 Y-50.079 E0.03426
G1 X1.810 Y-49.644 E0.03426
G1 X1.794 Y-49.200 E0.03426
G1 X1.670 Y-48.773 E0.03426
G1 X1.445 Y-48.390 E0.03423
G1 X1.139 Y-48.077 E0.03374
G1 X0.766 Y-47.847 E0.03371
G1 X0.350 Y-47.714 E0.03371
G1 X-0.027 Y-47.690 E0.02909
G1 X-0.319 Y-47.360 F15000.000
G1 E-3.50000 F1500.00000
G1 Z0.700 F15000.000
G1 X-0.222 Y-52.661 F15000.000
G1 Z0.300 F15000.000
G1 E3.50000 F1500.00000
G1 X-1.366 Y-52.871 E0.08964 F600.000
G1 X-1.366 Y-52.716 E0.01193
G1 X-2.746 Y-53.797 E0.13510
G1 X-3.326 Y-54.538 E0.07251
G1 X-3.712 Y-55.396 E0.07251
G1 X-3.882 Y-56.321 E0.07251
G1 X-3.825 Y-57.260 E0.07251
G1 X-3.545 Y-58.159 E0.07251
G1 X-3.059 Y-58.964 E0.07251
G1 X-2.393 Y-59.629 E0.07251
G1 X-1.588 Y-60.116 E0.07251
G1 X-0.690 Y-60.396 E0.07251 F600.000
G1 X0.249 Y-60.453 E0.07251
G1 X1.175 Y-60.283 E0.07251
G1 X2.033 Y-59.897 E0.07251
G1 X2.774 Y-59.317 E0.07251
G1 X3.354 Y-58.576 E0.07251
G1 X3.740 Y-57.718 E0.07251
G1 X3.910 Y-56.793 E0.07251
G1 X3.853 Y-55.853 E0.07251
G1 X3.573 Y-54.955 E0.07251
G1 X3.086 Y-54.150 E0.07251
G1 X2.421 Y-53.485 E0.07251
G1 X1.616 Y-52.998 E0.07251
G1 X0.717 Y-52.718 E0.07251
G1 X-0.162 Y-52.665 E0.06789
G1 X-0.456 Y-52.336 F15000.000
G1 E-3.50000 F1500.00000
G1 Z0.700 F15000.000
G1 X-0.150 Y-61.833 F15000.000
G1 Z0.300 F15000.000
G1 E3.50000 F1500.00000
G1 X-0.557 Y-61.918 E0.03209 F600.000
G1 X-0.934 Y-62.095 E0.03209
G1 X-1.262 Y-62.354 E0.03216
G1 X-1.527 Y-62.692 E0.03318
G1 X-1.706 Y-63.085 E0.03324
G1 X-1.786 Y-63.511 E0.03337
G1 X-1.757 Y-63.955 E0.03432
G1 X-1.637 Y-64.353 E0.03201
G1 X-1.418 Y-64.723 E0.03316
G1 X-1.131 Y-65.021 E0.03186
G1 X-0.783 Y-65.245 E0.03191
G1 X-0.381 Y-65.385 E0.03282
G1 X0.014 Y-65.431 E0.03060 F600.000
G1 X0.423 Y-65.383 E0.03178
G1 X0.812 Y-65.244 E0.03178
G1 X1.158 Y-65.021 E0.03178
G1 X1.445 Y-64.724 E0.03180
G1 X1.658 Y-64.367 E0.03208
G1 X1.784 Y-63.969 E0.03209
G1 X1.815 Y-63.554 E0.03209
G1 X1.750 Y-63.143 E0.03209
G1 X1.592 Y-62.757 E0.03209
G1 X1.350 Y-62.418 E0.03209
G1 X1.037 Y-62.144 E0.03209
G1 X0.669 Y-61.949 E0.03209
G1 X0.267 Y-61.843 E0.03209
G1 X-0.090 Y-61.834 E0.02747
G1 X-0.393 Y-61.515 F15000.000
G1 E-3.50000 F1500.00000
G1 Z0.700 F15000.000
G1 X-0.160 Y-66.462 F15000.000
G1 Z0.300 F15000.000
G1 E3.50000 F1500.00000
G1 X0.013 Y-66.635 E0.01890 F600.000
G1 X0.360 Y-66.288 E0.03786
G1 X0.243 Y-66.044 E0.02088 F600.000
G1 X0.014 Y-66.070 E0.01775
G1 X-0.217 Y-66.044 E0.01788
G1 X-0.335 Y-66.288 E0.02088
G1 X-0.203 Y-66.420 E0.01436
G1 E-3.50000 F1500.00000
G1 Z0.700 F15000.000
G1 X0.014 Y-9.502 F15000.000
G1 Z0.300 F15000.000
G1 E3.50000 F1500.00000
G1 X0.569 Y-9.438 E0.04306 F720.000
G1 X1.095 Y-9.250 E0.04306
G1 X1.564 Y-8.946 E0.04306
G1 X1.953 Y-8.544 E0.04311
G1 X2.242 Y-8.060 E0.04344
G1 X2.413 Y-7.518 E0.04384
G1 X2.451 Y-6.941 E0.04453
G1 X2.366 Y-6.402 E0.04206
G1 X2.153 Y-5.880 E0.04349
G1 X1.825 Y-5.421 E0.04349
G1 X1.401 Y-5.049 E0.04348
G1 X0.902 Y-4.784 E0.04349
G1 X0.745 Y-4.743 E0.01249
G1 X0.757 Y-4.437 E0.02357
G1 X1.365 Y-4.326 E0.04767
G1 X2.364 Y-3.876 E0.08441
G1 X3.226 Y-3.201 E0.08441
G1 X3.902 Y-2.339 E0.08441
G1 X4.351 Y-1.340 E0.08441
G1 X4.549 Y-0.263 E0.08441
G1 X4.483 Y0.831 E0.08441
G1 X4.157 Y1.876 E0.08441
G1 X3.590 Y2.814 E0.08441
G1 X2.816 Y3.588 E0.08441
G1 X1.878 Y4.155 E0.08441
G1 X0.769 Y4.500 E0.08957
G1 X0.759 Y4.771 E0.02086
G1 X1.173 Y4.932 E0.03420
G1 X1.668 Y5.284 E0.04680
G1 X2.064 Y5.757 E0.04754
G1 X2.321 Y6.279 E0.04491
G1 X2.449 Y6.873 E0.04680
G1 X2.421 Y7.489 E0.04754
G1 X2.258 Y8.049 E0.04491
G1 X1.954 Y8.568 E0.04635
G1 X1.538 Y8.992 E0.04576
G1 X1.034 Y9.303 E0.04568
G1 X0.469 Y9.483 E0.04568
G1 X-0.122 Y9.522 E0.04568
G1 X-0.706 Y9.418 E0.04568
G1 X-1.247 Y9.176 E0.04568
G1 X-1.681 Y8.836 E0.04249
G1 X-1.887 Y8.611 E0.02348
G1 X-2.228 Y8.060 E0.04993
G1 X-2.399 Y7.471 E0.04731
G1 X-2.420 Y6.868 E0.04643
G1 X-2.294 Y6.279 E0.04643
G1 X-2.036 Y5.757 E0.04491
G1 X-1.641 Y5.284 E0.04754
G1 X-1.146 Y4.932 E0.04680
G1 X-0.682 Y4.751 E0.03834
G1 X-0.709 Y4.464 E0.02222
G1 X-1.338 Y4.349 E0.04925
G1 X-2.337 Y3.900 E0.08440
G1 X-3.199 Y3.224 E0.08441
G1 X-3.874 Y2.362 E0.08441
G1 X-4.324 Y1.363 E0.08441
G1 X-4.521 Y0.286 E0.08441
G1 X-4.455 Y-0.807 E0.08441
G1 X-4.129 Y-1.853 E0.08441
G1 X-3.563 Y-2.790 E0.08441
G1 X-2.788 Y-3.565 E0.08441
G1 X-1.851 Y-4.131 E0.08441
G1 X-0.412 Y-4.580 E0.11613
G1 X-1.271 Y-4.982 E0.07309
G1 X-1.715 Y-5.334 E0.04365
G1 X-2.075 Y-5.792 E0.04488
G1 X-2.316 Y-6.324 E0.04505
G1 X-2.425 Y-6.903 E0.04542
G1 X-2.387 Y-7.501 E0.04613
G1 X-2.223 Y-8.042 E0.04358
G1 X-1.927 Y-8.543 E0.04484
G1 X-1.537 Y-8.946 E0.04327
G1 X-1.064 Y-9.252 E0.04341
G1 X-0.523 Y-9.440 E0.04410
G1 X-0.046 Y-9.495 E0.03703 F720.000
G1 E-3.50000 F1500.00000
G1 Z0.700 F15000.000
G1 X-0.003 Y5.282 F15000.000
G1 Z0.300 F15000.000
G1 E3.50000 F1500.00000
G1 X0.453 Y5.334 E0.03537 F600.000
G1 X0.869 Y5.496 E0.03439
G1 X1.233 Y5.754 E0.03439
G1 X1.527 Y6.106 E0.03537
G1 X1.717 Y6.490 E0.03298
G1 X1.810 Y6.926 E0.03439
G1 X1.789 Y7.385 E0.03537
G1 X1.670 Y7.796 E0.03298
G1 X1.445 Y8.179 E0.03423
G1 X1.139 Y8.492 E0.03374
G1 X0.766 Y8.721 E0.03371
G1 X0.350 Y8.854 E0.03371
G1 X-0.087 Y8.883 E0.03371
G1 X-0.517 Y8.806 E0.03371
G1 X-0.917 Y8.627 E0.03371
G1 X-1.248 Y8.368 E0.03245
G1 X-1.378 Y8.226 E0.01479
G1 X-1.641 Y7.800 E0.03864
G1 X-1.766 Y7.369 E0.03457
G1 X-1.782 Y6.925 E0.03426
G1 X-1.689 Y6.490 E0.03426
G1 X-1.500 Y6.106 E0.03298
G1 X-1.205 Y5.754 E0.03537
G1 X-0.842 Y5.496 E0.03439
G1 X-0.427 Y5.334 E0.03426
G1 X-0.062 Y5.289 E0.02836 F600.000
G1 X0.209 Y4.942 F15000.000
G1 X-0.146 Y3.903 F15000.000
G1 X-0.222 Y3.908 E0.00585 F600.000
G1 X-1.147 Y3.738 E0.07251
G1 X-2.005 Y3.352 E0.07251
G1 X-2.746 Y2.771 E0.07251
G1 X-3.326 Y2.031 E0.07251
G1 X-3.712 Y1.173 E0.07251
G1 X-3.882 Y0.247 E0.07251
G1 X-3.825 Y-0.692 E0.07251
G1 X-3.545 Y-1.590 E0.07251
G1 X-3.059 Y-2.395 E0.07251
G1 X-2.393 Y-3.061 E0.07251
G1 X-1.588 Y-3.547 E0.07251
G1 X-0.690 Y-3.827 E0.07251
G1 X-0.578 Y-3.834 E0.00862
G1 X0.249 Y-3.884 E0.06389 F600.000
G1 X1.175 Y-3.715 E0.07251
G1 X2.033 Y-3.328 E0.07251
G1 X2.774 Y-2.748 E0.07251
G1 X3.354 Y-2.007 E0.07251
G1 X3.740 Y-1.149 E0.07251
G1 X3.910 Y-0.224 E0.07251
G1 X3.853 Y0.715 E0.07251
G1 X3.573 Y1.614 E0.07251
G1 X3.086 Y2.419 E0.07251
G1 X2.421 Y3.084 E0.07251
G1 X1.616 Y3.571 E0.07251
G1 X0.717 Y3.851 E0.07251
G1 X-0.086 Y3.899 E0.06203
G1 X-0.180 Y3.971 F15000.000
G1 E-3.50000 F1500.00000
G1 Z0.700 F15000.000
G1 X-0.150 Y-5.264 F15000.000
G1 Z0.300 F15000.000
G1 E3.50000 F1500.00000
G1 X-0.557 Y-5.350 E0.03209 F600.000
G1 X-0.934 Y-5.526 E0.03209
G1 X-1.262 Y-5.785 E0.03216
G1 X-1.527 Y-6.124 E0.03318
G1 X-1.706 Y-6.517 E0.03324
G1 X-1.786 Y-6.942 E0.03337
G1 X-1.757 Y-7.387 E0.03432
G1 X-1.637 Y-7.784 E0.03201
G1 X-1.418 Y-8.155 E0.03316
G1 X-1.131 Y-8.452 E0.03186
G1 X-0.783 Y-8.677 E0.03191
G1 X-0.381 Y-8.817 E0.03282
G1 X0.014 Y-8.862 E0.03060 F600.000
G1 X0.423 Y-8.815 E0.03178
G1 X0.812 Y-8.676 E0.03178
G1 X1.158 Y-8.452 E0.03178
G1 X1.445 Y-8.155 E0.03180
G1 X1.658 Y-7.798 E0.03208
G1 X1.784 Y-7.399 E0.03222
G1 X1.812 Y-6.970 E0.03314
G1 X1.750 Y-6.574 E0.03090
G1 X1.592 Y-6.189 E0.03209
G1 X1.350 Y-5.850 E0.03209
G1 X1.037 Y-5.575 E0.03209
G1 X0.669 Y-5.380 E0.03209
G1 X0.267 Y-5.274 E0.03209
G1 X-0.090 Y-5.266 E0.02747
G1 X-0.393 Y-4.946 F15000.000
G1 E-3.50000 F1500.00000
G1 Z0.700 F15000.000
G1 X5.850 Y3.743 F15000.000
G1 Z0.300 F15000.000
G1 E3.50000 F1500.00000
G1 X5.351 Y4.477 E0.06843 F720.000
G1 X3.977 Y5.822 E0.14812
G1 X3.977 Y50.770 E3.46398
G1 X5.351 Y52.114 E0.14812
G1 X6.128 Y53.256 E0.10642
G1 X6.671 Y54.565 E0.10921
G1 X6.939 Y55.889 E0.10407
G1 X6.939 Y57.270 E0.10642
G1 X6.652 Y58.658 E0.10921
G1 X6.129 Y59.902 E0.10407
G1 X5.351 Y61.046 E0.10659
G1 X3.977 Y62.390 E0.14812
G1 X3.977 Y62.671 E0.02164
G1 X2.413 Y64.236 E0.17052
G1 X2.449 Y63.442 E0.06124
G1 X2.321 Y62.848 E0.04680
G1 X2.055 Y62.308 E0.04642
G1 X1.664 Y61.849 E0.04643
G1 X1.173 Y61.500 E0.04643
G1 X0.759 Y61.339 E0.03420
G1 X0.769 Y61.069 E0.02086
G1 X1.878 Y60.723 E0.08957
G1 X2.816 Y60.157 E0.08441
G1 X3.590 Y59.382 E0.08441
G1 X4.157 Y58.445 E0.08441
G1 X4.483 Y57.399 E0.08441
G1 X4.549 Y56.306 E0.08441
G1 X4.351 Y55.229 E0.08441
G1 X3.902 Y54.230 E0.08441
G1 X3.226 Y53.368 E0.08441
G1 X2.364 Y52.692 E0.08441
G1 X1.365 Y52.243 E0.08441
G1 X0.757 Y52.131 E0.04767
G1 X0.745 Y51.826 E0.02357
G1 X0.902 Y51.784 E0.01248
G1 X1.401 Y51.520 E0.04349
G1 X1.825 Y51.148 E0.04349
G1 X2.142 Y50.704 E0.04206
G1 X2.366 Y50.171 E0.04453
G1 X2.454 Y49.609 E0.04384
G1 X2.412 Y49.046 E0.04348
G1 X2.242 Y48.508 E0.04349
G1 X1.953 Y48.024 E0.04344
G1 X1.564 Y47.622 E0.04311
G1 X1.095 Y47.319 E0.04306
G1 X0.569 Y47.131 E0.04306
G1 X0.014 Y47.067 E0.04306
G1 X-0.523 Y47.129 E0.04166
G1 X-1.064 Y47.317 E0.04409
G1 X-1.537 Y47.622 E0.04341
G1 X-1.927 Y48.026 E0.04328
G1 X-2.223 Y48.527 E0.04484
G1 X-2.393 Y49.086 E0.04505
G1 X-2.424 Y49.670 E0.04505
G1 X-2.316 Y50.244 E0.04505
G1 X-2.075 Y50.777 E0.04505
G1 X-1.715 Y51.235 E0.04488
G1 X-1.271 Y51.587 E0.04365
G1 X-0.412 Y51.989 E0.07309
G1 X-1.851 Y52.437 E0.11613
G1 X-2.788 Y53.004 E0.08441
G1 X-3.563 Y53.778 E0.08441
G1 X-4.129 Y54.716 E0.08441
G1 X-4.455 Y55.761 E0.08441
G1 X-4.521 Y56.855 E0.08441
G1 X-4.324 Y57.932 E0.08440
G1 X-3.874 Y58.931 E0.08441
G1 X-3.199 Y59.793 E0.08441
G1 X-2.337 Y60.468 E0.08441
G1 X-1.338 Y60.918 E0.08441
G1 X-0.709 Y61.033 E0.04926
G1 X-0.682 Y61.320 E0.02222
G1 X-1.146 Y61.500 E0.03834
G1 X-1.637 Y61.849 E0.04643
G1 X-2.027 Y62.308 E0.04643
G1 X-2.294 Y62.848 E0.04643
G1 X-2.420 Y63.437 E0.04643
G1 X-2.392 Y64.230 E0.06118
G1 X-3.951 Y62.671 E0.16995
G1 X-3.951 Y62.360 E0.02396
G1 X-4.890 Y61.521 E0.09701
G1 X-5.825 Y60.366 E0.11451
G1 X-6.486 Y59.065 E0.11247
G1 X-6.861 Y57.655 E0.11247
G1 X-6.934 Y56.197 E0.11247
G1 X-6.702 Y54.756 E0.11247
G1 X-6.174 Y53.396 E0.11247
G1 X-5.373 Y52.175 E0.11247
G1 X-3.951 Y50.768 E0.15419
G1 X-3.951 Y5.792 E3.46612
G1 X-4.890 Y4.953 E0.09701
G1 X-5.825 Y3.798 E0.11452
G1 X-6.486 Y2.497 E0.11247
G1 X-6.861 Y1.086 E0.11247
G1 X-6.934 Y-0.371 E0.11247
G1 X-6.702 Y-1.812 E0.11247
G1 X-6.174 Y-3.173 E0.11247
G1 X-5.373 Y-4.393 E0.11247
G1 X-3.951 Y-5.801 E0.15419
G1 X-3.951 Y-50.777 E3.46612
G1 X-4.890 Y-51.616 E0.09701
G1 X-5.825 Y-52.771 E0.11451
G1 X-6.486 Y-54.072 E0.11247
G1 X-6.861 Y-55.482 E0.11247
G1 X-6.934 Y-56.940 E0.11247
G1 X-6.702 Y-58.381 E0.11247
G1 X-6.174 Y-59.741 E0.11247
G1 X-5.373 Y-60.962 E0.11247
G1 X-3.951 Y-62.369 E0.15419
G1 X-3.951 Y-62.671 E0.02326
G1 X-2.376 Y-64.247 E0.17174
G1 X-2.425 Y-63.472 E0.05985
G1 X-2.316 Y-62.893 E0.04542
G1 X-2.075 Y-62.360 E0.04505
G1 X-1.715 Y-61.902 E0.04488
G1 X-1.271 Y-61.551 E0.04365
G1 X-0.412 Y-61.148 E0.07309
G1 X-1.851 Y-60.700 E0.11614
G1 X-2.788 Y-60.133 E0.08441
G1 X-3.563 Y-59.359 E0.08440
G1 X-4.129 Y-58.421 E0.08441
