; pcb2gcode 2.0.0 
; Software-independent Gcode 

G94 ; Millimeters per minute feed rate. 
G21 ; Units == Millimeters. 

G90 ; Absolute coordinates. 
;G1 F3000 S10000 ; RPM spindle speed. 
G1 F300 F600.00000 ; Feedrate. 


G1 F3000 Z3.00000 ;Retract to tool change height
;T0
;M5      ;Spindle stop.
;G04 P1.00000 ;Wait for spindle to stop
;MSG, Change tool bit to mill diameter 0.12000mm
;M6      ;Tool change.
;M0      ;Temporary machine stop.
;M3 ; Spindle on clockwise. 
;G04 P1.00000 ;Wait for spindle to get up to speed
;G04 P0 ; dwell for no time -- G64 should not smooth over this point 
G1 F3000 Z3.00000 ; retract 

G1 F3000 X-0.30999 Y8.01997 ; rapid move to begin. 
G1 F300 F300.00000
G1 F300 Z-0.07000
;G04 P0 ; dwell for no time -- G64 should not smooth over this point 
G1 F300 F600.00000
G1 F300 X-0.30999 Y8.01997
G1 F300 X-0.31030 Y43.37588
G1 F300 X-0.32218 Y43.48497
G1 F300 X-0.35515 Y43.58962
G1 F300 X-0.40788 Y43.68583
G1 F300 X-0.47402 Y43.76597
G1 F300 X-2.95337 Y46.24491
G1 F300 X-3.12535 Y46.35982
G1 F300 X-3.24156 Y46.39507
G1 F300 X-3.45123 Y46.40465
G1 F300 X-3.55520 Y46.39373
G1 F300 X-3.66307 Y46.36005
G1 F300 X-3.93498 Y46.63195
G1 F300 X-3.93615 Y48.65669
G1 F300 X-3.95255 Y48.68742
G1 F300 X-3.98329 Y48.70383
G1 F300 X-4.29500 Y48.70500
G1 F300 X-4.33741 Y48.68742
G1 F300 X-4.35499 Y48.64498
G1 F300 X-4.35179 Y46.50983
G1 F300 X-4.29741 Y46.40084
G1 F300 X-3.95855 Y46.06155
G1 F300 X-4.00092 Y45.90970
G1 F300 X-4.00224 Y45.79271
G1 F300 X-3.97920 Y45.67798
G1 F300 X-3.93279 Y45.57056
G1 F300 X-3.86508 Y45.47514
G1 F300 X-3.77902 Y45.39589
G1 F300 X-3.60201 Y45.31006
G1 F300 X-1.43000 Y43.13803
G1 F300 X-1.43000 Y8.57996
G1 F300 X-4.47000 Y8.57996
G1 F300 X-4.58496 Y8.56777
G1 F300 X-4.77605 Y8.48860
G1 F300 X-4.86596 Y8.41593
G1 F300 X-9.87695 Y3.40496
G1 F300 X-15.91301 Y3.40496
G1 F300 X-20.38496 Y7.87694
G1 F300 X-20.38496 Y11.93281
G1 F300 X-20.21274 Y12.10522
G1 F300 X-20.11140 Y12.28071
G1 F300 X-20.05389 Y12.46199
G1 F300 X-20.03533 Y12.63873
G1 F300 X-20.05389 Y12.82798
G1 F300 X-20.11366 Y13.01513
G1 F300 X-20.20535 Y13.17462
G1 F300 X-20.34096 Y13.32521
G1 F300 X-20.49557 Y13.43593
G1 F300 X-20.66377 Y13.51045
G1 F300 X-20.84988 Y13.55000
G1 F300 X-21.03383 Y13.55033
G1 F300 X-21.22621 Y13.51045
G1 F300 X-21.39440 Y13.43593
G1 F300 X-21.55834 Y13.31681
G1 F300 X-21.68462 Y13.17462
G1 F300 X-21.77632 Y13.01513
G1 F300 X-21.83347 Y12.84025
G1 F300 X-21.85465 Y12.65125
G1 F300 X-21.83608 Y12.46199
G1 F300 X-21.77632 Y12.27485
G1 F300 X-21.67723 Y12.10522
G1 F300 X-21.50497 Y11.93276
G1 F300 X-21.50467 Y7.63909
G1 F300 X-21.49278 Y7.53000
G1 F300 X-21.45981 Y7.42535
G1 F300 X-21.40708 Y7.32914
G1 F300 X-21.34094 Y7.24900
G1 F300 X-16.54095 Y2.44901
G1 F300 X-16.46081 Y2.38287
G1 F300 X-16.36459 Y2.33014
G1 F300 X-16.25995 Y2.29717
G1 F300 X-16.14499 Y2.28498
G1 F300 X-9.64500 Y2.28498
G1 F300 X-9.54157 Y2.29488
G1 F300 X-9.43624 Y2.32562
G1 F300 X-9.33893 Y2.37634
G1 F300 X-9.24901 Y2.44901
G1 F300 X-4.23802 Y7.45995
G1 F300 X-0.76658 Y7.46985
G1 F300 X-0.65038 Y7.50511
G1 F300 X-0.55416 Y7.55784
G1 F300 X-0.47006 Y7.62835
G1 F300 X-0.40135 Y7.71390
G1 F300 X-0.35063 Y7.81120
G1 F300 X-0.31990 Y7.91654
G1 F300 X-0.30999 Y8.01997
;G04 P0 ; dwell for no time -- G64 should not smooth over this point 
G1 F3000 Z3.00000 ; retract 

G1 F3000 X-1.81799 Y9.15499 ; rapid move to begin. 
G1 F300 F300.00000
G1 F300 Z-0.07000
;G04 P0 ; dwell for no time -- G64 should not smooth over this point 
G1 F300 F600.00000
G1 F300 X-1.81799 Y9.15499
G1 F300 X-1.81799 Y40.65716
G1 F300 X-1.83778 Y40.73908
G1 F300 X-1.90359 Y40.81421
G1 F300 X-1.99912 Y40.84385
G1 F300 X-2.07656 Y40.82991
G1 F300 X-2.15698 Y40.76577
G1 F300 X-2.32025 Y40.52193
G1 F300 X-2.52192 Y40.32023
G1 F300 X-2.75908 Y40.16179
G1 F300 X-3.02261 Y40.05262
G1 F300 X-3.30234 Y39.99699
G1 F300 X-3.58761 Y39.99699
G1 F300 X-3.86734 Y40.05262
G1 F300 X-4.13086 Y40.16176
G1 F300 X-4.36802 Y40.32023
G1 F300 X-4.56970 Y40.52191
G1 F300 X-4.72817 Y40.75907
G1 F300 X-4.83731 Y41.02262
G1 F300 X-4.89296 Y41.30237
G1 F300 X-4.89296 Y41.58759
G1 F300 X-4.83731 Y41.86737
G1 F300 X-4.72817 Y42.13084
G1 F300 X-4.53465 Y42.41182
G1 F300 X-4.51229 Y42.46475
G1 F300 X-4.51140 Y42.54387
G1 F300 X-4.53018 Y42.59775
G1 F300 X-4.62261 Y42.71535
G1 F300 X-4.71085 Y42.88042
G1 F300 X-4.76505 Y43.05914
G1 F300 X-4.78227 Y43.28883
G1 F300 X-4.80399 Y43.36005
G1 F300 X-5.11532 Y43.68177
G1 F300 X-5.19936 Y43.71751
G1 F300 X-5.27198 Y43.71494
G1 F300 X-5.37973 Y43.66513
G1 F300 X-5.55913 Y43.61070
G1 F300 X-5.69845 Y43.59698
G1 F300 X-6.27483 Y43.59698
G1 F300 X-6.35677 Y43.57720
G1 F300 X-6.40706 Y43.54220
G1 F300 X-7.25019 Y42.69907
G1 F300 X-7.29072 Y42.63841
G1 F300 X-7.30497 Y42.56684
G1 F300 X-7.27647 Y42.46800
G1 F300 X-7.19989 Y42.39963
G1 F300 X-6.92288 Y42.33745
G1 F300 X-6.65910 Y42.22818
G1 F300 X-6.42194 Y42.06971
G1 F300 X-6.22024 Y41.86801
G1 F300 X-6.06177 Y41.63085
G1 F300 X-5.95263 Y41.36735
G1 F300 X-5.89697 Y41.08759
G1 F300 X-5.89423 Y40.88447
G1 F300 X-5.86548 Y40.81126
G1 F300 X-4.67160 Y39.61881
G1 F300 X-4.55291 Y39.47418
G1 F300 X-4.46490 Y39.30951
G1 F300 X-4.41069 Y39.13080
G1 F300 X-4.39236 Y38.94464
G1 F300 X-4.39698 Y32.34928
G1 F300 X-4.37099 Y32.25576
G1 F300 X-4.23902 Y32.05611
G1 F300 X-4.14493 Y31.82904
G1 F300 X-4.09698 Y31.58791
G1 F300 X-4.09698 Y31.34204
G1 F300 X-4.14493 Y31.10095
G1 F300 X-4.23902 Y30.87379
G1 F300 X-4.37559 Y30.66942
G1 F300 X-4.54940 Y30.49559
G1 F300 X-4.75385 Y30.35899
G1 F300 X-4.98095 Y30.26493
G1 F300 X-5.22205 Y30.21697
G1 F300 X-5.46792 Y30.21697
G1 F300 X-5.70901 Y30.26493
G1 F300 X-5.93609 Y30.35899
G1 F300 X-6.14051 Y30.49559
G1 F300 X-6.31437 Y30.66942
G1 F300 X-6.45092 Y30.87379
G1 F300 X-6.54500 Y31.10095
G1 F300 X-6.59296 Y31.34204
G1 F300 X-6.59296 Y31.58791
G1 F300 X-6.54500 Y31.82901
G1 F300 X-6.45092 Y32.05611
G1 F300 X-6.30972 Y32.27239
G1 F300 X-6.29296 Y32.34928
G1 F300 X-6.29657 Y38.51132
G1 F300 X-6.34782 Y38.60715
G1 F300 X-7.20883 Y39.46382
G1 F300 X-7.30340 Y39.49582
G1 F300 X-7.48760 Y39.49699
G1 F300 X-7.76733 Y39.55262
G1 F300 X-8.03085 Y39.66179
G1 F300 X-8.26801 Y39.82023
G1 F300 X-8.46972 Y40.02193
G1 F300 X-8.62816 Y40.25909
G1 F300 X-8.73743 Y40.52287
G1 F300 X-8.79080 Y40.77880
G1 F300 X-8.81307 Y40.82427
G1 F300 X-8.86296 Y40.87344
G1 F300 X-8.96098 Y40.90466
G1 F300 X-9.03842 Y40.89071
G1 F300 X-9.09908 Y40.85018
G1 F300 X-10.23707 Y39.71221
G1 F300 X-10.27761 Y39.65155
G1 F300 X-10.29178 Y39.58292
G1 F300 X-10.26191 Y39.47858
G1 F300 X-10.18678 Y39.41277
G1 F300 X-9.82262 Y39.33733
G1 F300 X-9.55910 Y39.22816
G1 F300 X-9.32194 Y39.06971
G1 F300 X-9.12026 Y38.86804
G1 F300 X-8.96179 Y38.63085
G1 F300 X-8.85262 Y38.36735
G1 F300 X-8.79699 Y38.08757
G1 F300 X-8.79699 Y37.80235
G1 F300 X-8.85262 Y37.52260
G1 F300 X-8.96179 Y37.25910
G1 F300 X-9.12046 Y37.02161
G1 F300 X-9.26400 Y36.87373
G1 F300 X-9.29699 Y36.76774
G1 F300 X-9.29699 Y32.04014
G1 F300 X-9.22493 Y31.82899
G1 F300 X-9.17698 Y31.58789
G1 F300 X-9.17698 Y31.34207
G1 F300 X-9.22493 Y31.10095
G1 F300 X-9.31899 Y30.87382
G1 F300 X-9.45559 Y30.66942
G1 F300 X-9.62943 Y30.49559
G1 F300 X-9.83385 Y30.35899
G1 F300 X-10.06095 Y30.26493
G1 F300 X-10.30205 Y30.21697
G1 F300 X-10.54792 Y30.21697
G1 F300 X-10.78901 Y30.26493
G1 F300 X-11.01612 Y30.35901
G1 F300 X-11.22051 Y30.49559
G1 F300 X-11.39437 Y30.66942
G1 F300 X-11.53092 Y30.87382
G1 F300 X-11.62500 Y31.10095
G1 F300 X-11.67296 Y31.34207
G1 F300 X-11.67296 Y31.58789
G1 F300 X-11.62500 Y31.82901
G1 F300 X-11.53092 Y32.05611
G1 F300 X-11.39420 Y32.26081
G1 F300 X-11.22602 Y32.43330
G1 F300 X-11.19298 Y32.53937
G1 F300 X-11.19298 Y36.76774
G1 F300 X-11.22429 Y36.87129
G1 F300 X-11.36948 Y37.02161
G1 F300 X-11.52851 Y37.25961
G1 F300 X-11.58833 Y37.39009
G1 F300 X-11.64456 Y37.44104
G1 F300 X-11.71642 Y37.46542
G1 F300 X-11.81634 Y37.45018
G1 F300 X-11.88558 Y37.39613
G1 F300 X-11.96488 Y37.18041
G1 F300 X-12.05294 Y37.01574
G1 F300 X-12.17161 Y36.87111
G1 F300 X-16.75116 Y32.29160
G1 F300 X-16.89573 Y32.17293
G1 F300 X-17.06043 Y32.08489
G1 F300 X-17.23912 Y32.03069
G1 F300 X-17.42532 Y32.01235
G1 F300 X-20.01638 Y32.01336
G1 F300 X-20.08216 Y31.98649
G1 F300 X-20.30520 Y31.82695
G1 F300 X-20.34549 Y31.76653
G1 F300 X-20.35973 Y31.69495
G1 F300 X-20.34297 Y31.61806
G1 F300 X-20.28569 Y31.54694
G1 F300 X-20.07871 Y31.40148
G1 F300 X-19.97988 Y31.37298
G1 F300 X-15.42533 Y31.37760
G1 F300 X-15.23915 Y31.35926
G1 F300 X-15.06043 Y31.30506
G1 F300 X-14.89574 Y31.21702
G1 F300 X-14.75114 Y31.09833
G1 F300 X-10.77370 Y27.12148
G1 F300 X-10.67487 Y27.09298
G1 F300 X-9.14533 Y27.09760
G1 F300 X-8.95912 Y27.07926
G1 F300 X-8.78043 Y27.02506
G1 F300 X-8.61574 Y26.93702
G1 F300 X-8.47114 Y26.81835
G1 F300 X-6.77124 Y25.11853
G1 F300 X-6.67173 Y25.00093
G1 F300 X-6.59964 Y24.95892
G1 F300 X-6.51549 Y24.95407
G1 F300 X-6.45811 Y24.97248
G1 F300 X-6.31727 Y25.06088
G1 F300 X-6.13579 Y25.09603
G1 F300 X-4.45712 Y25.08650
G1 F300 X-4.29487 Y25.01927
G1 F300 X-4.22708 Y24.96364
G1 F300 X-4.12738 Y24.83941
G1 F300 X-4.06993 Y24.80497
G1 F300 X-4.00404 Y24.79296
G1 F300 X-3.54527 Y24.79760
G1 F300 X-3.35913 Y24.77927
G1 F300 X-3.18044 Y24.72506
G1 F300 X-3.01573 Y24.63700
G1 F300 X-2.87112 Y24.51833
G1 F300 X-2.57161 Y24.21882
G1 F300 X-2.45294 Y24.07421
G1 F300 X-2.36493 Y23.90952
G1 F300 X-2.31070 Y23.73081
G1 F300 X-2.29236 Y23.54462
G1 F300 X-2.29236 Y13.32531
G1 F300 X-2.31070 Y13.13911
G1 F300 X-2.36490 Y12.96042
G1 F300 X-2.45291 Y12.79575
G1 F300 X-2.57161 Y12.65115
G1 F300 X-2.77115 Y12.45158
G1 F300 X-2.91573 Y12.33294
G1 F300 X-3.08045 Y12.24490
G1 F300 X-3.25911 Y12.19070
G1 F300 X-3.44529 Y12.17236
G1 F300 X-3.90404 Y12.17698
G1 F300 X-3.96734 Y12.16588
G1 F300 X-4.04305 Y12.11404
G1 F300 X-4.12634 Y12.00705
G1 F300 X-4.25055 Y11.90733
G1 F300 X-4.28499 Y11.84990
G1 F300 X-4.29698 Y11.78404
G1 F300 X-4.29236 Y10.54531
G1 F300 X-4.31069 Y10.35915
G1 F300 X-4.36490 Y10.18041
G1 F300 X-4.45293 Y10.01577
G1 F300 X-4.57160 Y9.87112
G1 F300 X-9.03116 Y5.41159
G1 F300 X-9.17576 Y5.29292
G1 F300 X-9.34048 Y5.20488
G1 F300 X-9.51912 Y5.15068
G1 F300 X-9.70532 Y5.13237
G1 F300 X-14.18464 Y5.13237
G1 F300 X-14.37085 Y5.15071
G1 F300 X-14.54951 Y5.20488
G1 F300 X-14.71420 Y5.29294
G1 F300 X-14.85858 Y5.41141
G1 F300 X-14.97702 Y5.55573
G1 F300 X-15.06505 Y5.72045
G1 F300 X-15.11926 Y5.89914
G1 F300 X-15.13760 Y6.08532
G1 F300 X-15.13328 Y8.08575
G1 F300 X-15.16345 Y8.18217
G1 F300 X-15.33523 Y8.43015
G1 F300 X-15.43310 Y8.66637
G1 F300 X-15.48296 Y8.91714
G1 F300 X-15.48296 Y9.17282
G1 F300 X-15.43310 Y9.42357
G1 F300 X-15.33523 Y9.65981
G1 F300 X-15.19320 Y9.87239
G1 F300 X-15.01243 Y10.05321
G1 F300 X-14.79980 Y10.19525
G1 F300 X-14.56358 Y10.29309
G1 F300 X-14.31281 Y10.34297
G1 F300 X-14.05713 Y10.34297
G1 F300 X-13.80636 Y10.29309
G1 F300 X-13.57014 Y10.19525
G1 F300 X-13.35723 Y10.05301
G1 F300 X-13.21108 Y9.91163
G1 F300 X-13.09302 Y9.88029
G1 F300 X-13.03059 Y9.89591
G1 F300 X-12.96856 Y9.94064
G1 F300 X-12.86927 Y10.14506
G1 F300 X-12.81329 Y10.21328
G1 F300 X-12.66727 Y10.31089
G1 F300 X-12.48571 Y10.34607
G1 F300 X-11.69600 Y10.35831
G1 F300 X-11.62958 Y10.40106
G1 F300 X-11.30146 Y10.73627
G1 F300 X-11.27296 Y10.83522
G1 F300 X-11.27657 Y12.27723
G1 F300 X-11.30448 Y12.34459
G1 F300 X-11.43092 Y12.53380
G1 F300 X-11.52501 Y12.76095
G1 F300 X-11.57296 Y13.00205
G1 F300 X-11.57296 Y13.24789
G1 F300 X-11.52501 Y13.48899
G1 F300 X-11.43092 Y13.71612
G1 F300 X-11.29437 Y13.92051
G1 F300 X-11.12051 Y14.09435
G1 F300 X-10.91612 Y14.23093
G1 F300 X-10.68833 Y14.32529
G1 F300 X-10.60088 Y14.34563
G1 F300 X-10.54561 Y14.37959
G1 F300 X-10.03334 Y15.02323
G1 F300 X-10.00085 Y15.08762
G1 F300 X-9.99760 Y19.04463
G1 F300 X-9.96204 Y19.30661
G1 F300 X-9.99054 Y19.41659
G1 F300 X-10.07751 Y19.48972
G1 F300 X-10.17865 Y19.50130
G1 F300 X-10.26809 Y19.47684
G1 F300 X-10.44045 Y19.38489
G1 F300 X-10.61914 Y19.33069
G1 F300 X-10.80532 Y19.31235
G1 F300 X-20.01635 Y19.31336
G1 F300 X-20.08216 Y19.28649
G1 F300 X-20.31147 Y19.12319
G1 F300 X-20.35631 Y19.05291
G1 F300 X-20.36375 Y18.95357
G1 F300 X-20.30454 Y18.84989
G1 F300 X-20.17551 Y18.76927
G1 F300 X-19.98625 Y18.59866
G1 F300 X-19.83423 Y18.39485
G1 F300 X-19.70474 Y18.10115
G1 F300 X-19.73759 Y18.03897
G1 F300 X-20.09507 Y18.03897
G1 F300 X-20.21274 Y18.26475
G1 F300 X-20.33609 Y18.40125
G1 F300 X-20.48473 Y18.50966
G1 F300 X-20.66984 Y18.59208
G1 F300 X-20.84988 Y18.63000
G1 F300 X-21.04010 Y18.63000
G1 F300 X-21.22621 Y18.59045
G1 F300 X-21.39999 Y18.51306
G1 F300 X-21.54901 Y18.40521
G1 F300 X-21.67723 Y18.26475
G1 F300 X-21.77855 Y18.08926
G1 F300 X-21.83608 Y17.90798
G1 F300 X-21.85465 Y17.71873
G1 F300 X-21.83347 Y17.52973
G1 F300 X-21.77632 Y17.35485
G1 F300 X-21.68462 Y17.19536
G1 F300 X-21.55834 Y17.05317
G1 F300 X-21.39440 Y16.93404
G1 F300 X-21.22621 Y16.85952
G1 F300 X-21.04632 Y16.82096
G1 F300 X-20.84366 Y16.82096
G1 F300 X-20.66377 Y16.85952
G1 F300 X-20.48999 Y16.93691
G1 F300 X-20.34096 Y17.04476
G1 F300 X-20.21274 Y17.18522
G1 F300 X-20.09509 Y17.41095
G1 F300 X-19.73756 Y17.41095
G1 F300 X-19.70474 Y17.34880
G1 F300 X-19.83426 Y17.05510
G1 F300 X-19.98625 Y16.85129
G1 F300 X-20.17551 Y16.68068
G1 F300 X-20.31066 Y16.59414
G1 F300 X-20.35280 Y16.53234
G1 F300 X-20.36697 Y16.47105
G1 F300 X-20.35631 Y16.39704
G1 F300 X-20.31744 Y16.33313
G1 F300 X-20.11777 Y16.19343
G1 F300 X-19.93675 Y16.01241
G1 F300 X-19.79471 Y15.79981
G1 F300 X-19.69687 Y15.56359
G1 F300 X-19.64699 Y15.31281
G1 F300 X-19.64699 Y15.05714
G1 F300 X-19.69687 Y14.80636
G1 F300 X-19.79471 Y14.57014
G1 F300 X-19.93675 Y14.35757
G1 F300 X-20.11777 Y14.17652
G1 F300 X-20.30520 Y14.04695
G1 F300 X-20.34549 Y13.98653
G1 F300 X-20.35973 Y13.91495
G1 F300 X-20.34549 Y13.84340
G1 F300 X-20.30518 Y13.78295
G1 F300 X-20.11777 Y13.65343
G1 F300 X-19.93675 Y13.47238
G1 F300 X-19.79471 Y13.25981
G1 F300 X-19.69687 Y13.02359
G1 F300 X-19.64699 Y12.77281
G1 F300 X-19.64699 Y12.51714
G1 F300 X-19.69687 Y12.26636
G1 F300 X-19.79471 Y12.03014
G1 F300 X-19.96654 Y11.78209
G1 F300 X-19.99667 Y11.68574
G1 F300 X-19.99697 Y8.11511
G1 F300 X-19.98272 Y8.04354
G1 F300 X-19.94218 Y7.98288
G1 F300 X-15.80706 Y3.84776
G1 F300 X-15.74641 Y3.80722
G1 F300 X-15.67486 Y3.79297
G1 F300 X-10.11513 Y3.79297
G1 F300 X-10.04355 Y3.80722
G1 F300 X-9.98290 Y3.84776
G1 F300 X-5.14381 Y8.69334
G1 F300 X-4.99921 Y8.81201
G1 F300 X-4.83452 Y8.90005
G1 F300 X-4.65583 Y8.95425
G1 F300 X-4.46967 Y8.97259
G1 F300 X-1.97232 Y8.97107
G1 F300 X-1.87339 Y9.02283
G1 F300 X-1.82939 Y9.09134
G1 F300 X-1.81799 Y9.15499
;G04 P0 ; dwell for no time -- G64 should not smooth over this point 
G1 F3000 Z3.00000 ; retract 

G1 F3000 X-2.68497 Y13.32498 ; rapid move to begin. 
G1 F300 F300.00000
G1 F300 Z-0.07000
;G04 P0 ; dwell for no time -- G64 should not smooth over this point 
G1 F300 F600.00000
G1 F300 X-2.68497 Y13.32498
G1 F300 X-2.69487 Y13.22155
G1 F300 X-2.72561 Y13.11620
G1 F300 X-2.78286 Y13.00911
G1 F300 X-3.05337 Y12.72504
G1 F300 X-3.22535 Y12.61013
G1 F300 X-3.33000 Y12.57716
G1 F300 X-3.44499 Y12.56496
G1 F300 X-4.38499 Y12.56496
G1 F300 X-4.38499 Y12.32499
G1 F300 X-4.40257 Y12.28257
G1 F300 X-4.44498 Y12.26499
G1 F300 X-4.68496 Y12.26499
G1 F300 X-4.68496 Y10.54498
G1 F300 X-4.69487 Y10.44155
G1 F300 X-4.72560 Y10.33622
G1 F300 X-4.78285 Y10.22910
G1 F300 X-9.30901 Y5.68901
G1 F300 X-9.39892 Y5.61634
G1 F300 X-9.59001 Y5.53717
G1 F300 X-9.70499 Y5.52497
G1 F300 X-14.18499 Y5.52497
G1 F300 X-14.29996 Y5.53717
G1 F300 X-14.49104 Y5.61634
G1 F300 X-14.57659 Y5.68504
G1 F300 X-14.65362 Y5.77892
G1 F300 X-14.73280 Y5.97001
G1 F300 X-14.74499 Y6.08497
G1 F300 X-14.74499 Y8.33279
G1 F300 X-14.91725 Y8.50523
G1 F300 X-15.01631 Y8.67485
G1 F300 X-15.07511 Y8.85578
G1 F300 X-15.09467 Y9.03871
G1 F300 X-15.07511 Y9.23419
G1 F300 X-15.01631 Y9.41511
G1 F300 X-14.91725 Y9.58476
G1 F300 X-14.78901 Y9.72519
G1 F300 X-14.63998 Y9.83307
G1 F300 X-14.47207 Y9.90820
G1 F300 X-14.28632 Y9.94902
G1 F300 X-14.08987 Y9.95001
G1 F300 X-13.90984 Y9.91206
G1 F300 X-13.73559 Y9.83591
G1 F300 X-13.57608 Y9.72126
G1 F300 X-13.44537 Y9.57460
G1 F300 X-13.35142 Y9.40924
G1 F300 X-13.29488 Y9.23419
G1 F300 X-13.27532 Y9.05126
G1 F300 X-13.29488 Y8.85578
G1 F300 X-13.35365 Y8.67485
G1 F300 X-13.44537 Y8.51537
G1 F300 X-13.62498 Y8.33279
G1 F300 X-13.62498 Y6.64499
G1 F300 X-9.93695 Y6.64499
G1 F300 X-5.80498 Y10.77693
G1 F300 X-5.80498 Y12.26499
G1 F300 X-6.05669 Y12.26613
G1 F300 X-6.08742 Y12.28257
G1 F300 X-6.10498 Y12.32499
G1 F300 X-6.10498 Y13.92498
G1 F300 X-6.08742 Y13.96743
G1 F300 X-6.04498 Y13.98498
G1 F300 X-4.43327 Y13.98383
G1 F300 X-4.40257 Y13.96743
G1 F300 X-4.38613 Y13.93669
G1 F300 X-4.38499 Y13.68498
G1 F300 X-3.80498 Y13.68498
G1 F300 X-3.80498 Y23.28496
G1 F300 X-4.48499 Y23.28496
G1 F300 X-4.48613 Y23.03327
G1 F300 X-4.50257 Y23.00256
G1 F300 X-4.53327 Y22.98613
G1 F300 X-6.17833 Y22.99509
G1 F300 X-6.20498 Y23.04498
G1 F300 X-6.20498 Y24.64498
G1 F300 X-6.19487 Y24.67833
G1 F300 X-6.16794 Y24.70042
G1 F300 X-4.53327 Y24.70383
G1 F300 X-4.50257 Y24.68742
G1 F300 X-4.48613 Y24.65669
G1 F300 X-4.48499 Y24.40497
G1 F300 X-3.54496 Y24.40497
G1 F300 X-3.43000 Y24.39278
G1 F300 X-3.32535 Y24.35981
G1 F300 X-3.15337 Y24.24490
G1 F300 X-2.84900 Y23.94094
G1 F300 X-2.77633 Y23.85102
G1 F300 X-2.72561 Y23.75372
G1 F300 X-2.69487 Y23.64838
G1 F300 X-2.68497 Y23.54498
G1 F300 X-2.68497 Y13.32498
;G04 P0 ; dwell for no time -- G64 should not smooth over this point 
G1 F3000 Z3.00000 ; retract 

G1 F3000 X-4.38532 Y20.73871 ; rapid move to begin. 
G1 F300 F300.00000
G1 F300 Z-0.07000
;G04 P0 ; dwell for no time -- G64 should not smooth over this point 
G1 F300 F600.00000
G1 F300 X-4.38532 Y20.73871
G1 F300 X-4.40541 Y20.56012
G1 F300 X-4.46218 Y20.38959
G1 F300 X-4.54582 Y20.24476
G1 F300 X-4.66955 Y20.10589
G1 F300 X-4.82057 Y19.99736
G1 F300 X-4.97922 Y19.92708
G1 F300 X-5.14889 Y19.89068
G1 F300 X-5.33487 Y19.88969
G1 F300 X-5.51661 Y19.92934
G1 F300 X-5.68026 Y20.00363
G1 F300 X-5.81557 Y20.10193
G1 F300 X-5.94417 Y20.24476
G1 F300 X-6.03289 Y20.40107
G1 F300 X-6.08620 Y20.56619
G1 F300 X-6.09880 Y20.80686
G1 F300 X-6.58011 Y21.28814
G1 F300 X-6.76459 Y21.33012
G1 F300 X-6.93657 Y21.44503
G1 F300 X-7.84094 Y22.34899
G1 F300 X-7.91361 Y22.43891
G1 F300 X-7.99278 Y22.62999
G1 F300 X-8.00497 Y22.74498
G1 F300 X-8.00497 Y24.21300
G1 F300 X-9.37695 Y25.58498
G1 F300 X-11.14500 Y25.58498
G1 F300 X-11.24840 Y25.59489
G1 F300 X-11.35373 Y25.62562
G1 F300 X-11.46082 Y25.68287
G1 F300 X-15.65695 Y29.86496
G1 F300 X-20.23098 Y29.86496
G1 F300 X-20.34096 Y29.74476
G1 F300 X-20.48473 Y29.64032
G1 F300 X-20.65793 Y29.56178
G1 F300 X-20.84988 Y29.51997
G1 F300 X-21.04632 Y29.52096
G1 F300 X-21.22621 Y29.55952
G1 F300 X-21.39440 Y29.63404
G1 F300 X-21.54901 Y29.74476
G1 F300 X-21.67723 Y29.88522
G1 F300 X-21.77632 Y30.05485
G1 F300 X-21.83608 Y30.24199
G1 F300 X-21.85465 Y30.43125
G1 F300 X-21.83347 Y30.62025
G1 F300 X-21.77632 Y30.79513
G1 F300 X-21.68462 Y30.95462
G1 F300 X-21.54901 Y31.10521
G1 F300 X-21.39440 Y31.21593
G1 F300 X-21.22013 Y31.29208
G1 F300 X-21.04010 Y31.33000
G1 F300 X-20.85613 Y31.33033
G1 F300 X-20.66377 Y31.29045
G1 F300 X-20.49557 Y31.21593
G1 F300 X-20.33609 Y31.10125
G1 F300 X-20.23093 Y30.98497
G1 F300 X-15.42497 Y30.98497
G1 F300 X-15.31001 Y30.97278
G1 F300 X-15.11893 Y30.89360
G1 F300 X-15.02901 Y30.82094
G1 F300 X-10.91302 Y26.70499
G1 F300 X-9.13911 Y26.70469
G1 F300 X-9.03001 Y26.69278
G1 F300 X-8.92537 Y26.65981
G1 F300 X-8.82915 Y26.60708
G1 F300 X-8.74901 Y26.54096
G1 F300 X-7.04899 Y24.84094
G1 F300 X-6.98285 Y24.76080
G1 F300 X-6.93012 Y24.66459
G1 F300 X-6.89715 Y24.55994
G1 F300 X-6.88496 Y24.44498
G1 F300 X-6.88496 Y22.97693
G1 F300 X-6.30983 Y22.40180
G1 F300 X-6.12535 Y22.35981
G1 F300 X-5.95336 Y22.24490
G1 F300 X-5.30792 Y21.59987
G1 F300 X-5.15524 Y21.60030
G1 F300 X-4.97922 Y21.56289
G1 F300 X-4.80973 Y21.48636
G1 F300 X-4.66955 Y21.38410
G1 F300 X-4.54582 Y21.24521
G1 F300 X-4.45710 Y21.08893
G1 F300 X-4.40378 Y20.92380
G1 F300 X-4.38532 Y20.73871
;G04 P0 ; dwell for no time -- G64 should not smooth over this point 
G1 F3000 Z3.00000 ; retract 

G1 F3000 X-7.74315 Y19.78685 ; rapid move to begin. 
G1 F300 F300.00000
G1 F300 Z-0.07000
;G04 P0 ; dwell for no time -- G64 should not smooth over this point 
G1 F300 F600.00000
G1 F300 X-7.74315 Y19.78685
G1 F300 X-7.75305 Y19.68337
G1 F300 X-7.78379 Y19.57801
G1 F300 X-7.84104 Y19.47092
G1 F300 X-8.48498 Y18.81301
G1 F300 X-8.49217 Y14.65678
G1 F300 X-8.51785 Y14.55655
G1 F300 X-8.60558 Y14.39780
G1 F300 X-9.48394 Y13.28612
G1 F300 X-9.46499 Y13.12542
G1 F300 X-9.48279 Y12.95239
G1 F300 X-9.53710 Y12.78107
G1 F300 X-9.63319 Y12.61462
G1 F300 X-9.76496 Y12.47426
G1 F300 X-9.76496 Y10.36499
G1 F300 X-9.77487 Y10.26157
G1 F300 X-9.80560 Y10.15623
G1 F300 X-9.85633 Y10.05892
G1 F300 X-9.92900 Y9.96901
G1 F300 X-10.73499 Y9.16302
G1 F300 X-10.73499 Y8.19500
G1 F300 X-10.76166 Y8.14511
G1 F300 X-10.79498 Y8.13498
G1 F300 X-12.51794 Y8.13955
G1 F300 X-12.54487 Y8.16165
G1 F300 X-12.55498 Y8.19500
G1 F300 X-12.54487 Y9.92832
G1 F300 X-12.49498 Y9.95499
G1 F300 X-11.52694 Y9.95499
G1 F300 X-10.88498 Y10.59695
G1 F300 X-10.88498 Y12.47424
G1 F300 X-11.01680 Y12.61462
G1 F300 X-11.11289 Y12.78107
G1 F300 X-11.16620 Y12.94619
G1 F300 X-11.18467 Y13.11871
G1 F300 X-11.16620 Y13.30380
G1 F300 X-11.10778 Y13.48038
G1 F300 X-11.01680 Y13.63537
G1 F300 X-10.90489 Y13.75965
G1 F300 X-10.76026 Y13.86636
G1 F300 X-10.59661 Y13.94065
G1 F300 X-10.36262 Y13.98061
G1 F300 X-9.60499 Y14.93951
G1 F300 X-9.59509 Y19.14839
G1 F300 X-9.55983 Y19.26460
G1 F300 X-9.44492 Y19.43660
G1 F300 X-8.86400 Y20.01791
G1 F300 X-8.90489 Y21.31295
G1 F300 X-9.33141 Y21.75347
G1 F300 X-9.38866 Y21.86055
G1 F300 X-9.41940 Y21.96589
G1 F300 X-9.42930 Y23.18869
G1 F300 X-9.52557 Y23.28496
G1 F300 X-9.77789 Y23.28496
G1 F300 X-9.84954 Y23.20589
G1 F300 X-9.98973 Y23.10363
G1 F300 X-10.15338 Y23.02933
G1 F300 X-10.33509 Y22.98971
G1 F300 X-10.52110 Y22.99067
G1 F300 X-10.69074 Y23.02707
G1 F300 X-10.84939 Y23.09735
G1 F300 X-10.99557 Y23.20193
G1 F300 X-11.12417 Y23.34475
G1 F300 X-11.21289 Y23.50106
G1 F300 X-11.26620 Y23.66619
G1 F300 X-11.28467 Y23.83870
G1 F300 X-11.26458 Y24.02986
G1 F300 X-11.20778 Y24.20037
G1 F300 X-11.11680 Y24.35537
G1 F300 X-11.00044 Y24.48409
G1 F300 X-10.86026 Y24.58635
G1 F300 X-10.68467 Y24.66451
G1 F300 X-10.51487 Y24.70027
G1 F300 X-10.33509 Y24.70027
G1 F300 X-10.15922 Y24.66288
G1 F300 X-10.00057 Y24.59263
G1 F300 X-9.84954 Y24.48409
G1 F300 X-9.77784 Y24.40497
G1 F300 X-9.28772 Y24.40467
G1 F300 X-9.08485 Y24.36433
G1 F300 X-8.98755 Y24.31361
G1 F300 X-8.89763 Y24.24094
G1 F300 X-8.47332 Y23.81663
G1 F300 X-8.40065 Y23.72672
G1 F300 X-8.32148 Y23.53563
G1 F300 X-8.30959 Y23.42654
G1 F300 X-8.30929 Y22.30127
G1 F300 X-7.88285 Y21.86081
G1 F300 X-7.82560 Y21.75372
G1 F300 X-7.79486 Y21.64839
G1 F300 X-7.74315 Y19.78685
;G04 P0 ; dwell for no time -- G64 should not smooth over this point 
G1 F3000 Z3.00000 ; retract 

G1 F3000 X-9.46532 Y20.73871 ; rapid move to begin. 
G1 F300 F300.00000
G1 F300 Z-0.07000
;G04 P0 ; dwell for no time -- G64 should not smooth over this point 
G1 F300 F600.00000
G1 F300 X-9.46532 Y20.73871
G1 F300 X-9.48379 Y20.56619
G1 F300 X-9.54218 Y20.38959
G1 F300 X-9.63319 Y20.23462
G1 F300 X-9.75442 Y20.10193
G1 F300 X-9.90057 Y19.99736
G1 F300 X-10.05922 Y19.92708
G1 F300 X-10.23524 Y19.88969
G1 F300 X-10.38787 Y19.89010
G1 F300 X-10.48914 Y19.80285
G1 F300 X-10.58536 Y19.75012
G1 F300 X-10.69001 Y19.71715
G1 F300 X-10.80499 Y19.70496
G1 F300 X-20.23098 Y19.70496
G1 F300 X-20.34096 Y19.58476
G1 F300 X-20.48473 Y19.48032
G1 F300 X-20.65793 Y19.40178
G1 F300 X-20.84988 Y19.35997
G1 F300 X-21.03383 Y19.35964
G1 F300 X-21.22621 Y19.39952
G1 F300 X-21.39440 Y19.47404
G1 F300 X-21.55834 Y19.59317
G1 F300 X-21.68462 Y19.73536
G1 F300 X-21.77632 Y19.89485
G1 F300 X-21.83608 Y20.08199
G1 F300 X-21.85498 Y20.26497
G1 F300 X-21.83608 Y20.44798
G1 F300 X-21.77632 Y20.63513
G1 F300 X-21.68462 Y20.79462
G1 F300 X-21.55834 Y20.93680
G1 F300 X-21.39440 Y21.05593
G1 F300 X-21.22621 Y21.13045
G1 F300 X-21.04010 Y21.17000
G1 F300 X-20.84988 Y21.17000
G1 F300 X-20.65793 Y21.12819
G1 F300 X-20.48473 Y21.04966
G1 F300 X-20.33609 Y20.94125
G1 F300 X-20.23093 Y20.82497
G1 F300 X-11.17692 Y20.82497
G1 F300 X-11.16620 Y20.92380
G1 F300 X-11.10778 Y21.10038
G1 F300 X-11.01680 Y21.25537
G1 F300 X-10.90489 Y21.37965
G1 F300 X-10.76026 Y21.48636
G1 F300 X-10.59661 Y21.56065
G1 F300 X-10.40860 Y21.60061
G1 F300 X-10.23509 Y21.60028
G1 F300 X-10.05922 Y21.56289
G1 F300 X-9.88973 Y21.48636
G1 F300 X-9.74955 Y21.38410
G1 F300 X-9.62582 Y21.24521
G1 F300 X-9.53710 Y21.08893
G1 F300 X-9.48379 Y20.92380
G1 F300 X-9.46532 Y20.73871
;G04 P0 ; dwell for no time -- G64 should not smooth over this point 
G1 F3000 Z3.00000 ; retract 

G1 F3000 X-9.81729 Y22.14432 ; rapid move to begin. 
G1 F300 F300.00000
G1 F300 Z-0.07000
;G04 P0 ; dwell for no time -- G64 should not smooth over this point 
G1 F300 F600.00000
G1 F300 X-9.81729 Y22.14432
G1 F300 X-9.82003 Y22.49675
G1 F300 X-9.84901 Y22.57018
G1 F300 X-9.89847 Y22.62011
G1 F300 X-10.00489 Y22.65301
G1 F300 X-10.30187 Y22.59697
G1 F300 X-10.54792 Y22.59697
G1 F300 X-10.78901 Y22.64493
G1 F300 X-11.01612 Y22.73901
G1 F300 X-11.22054 Y22.87559
G1 F300 X-11.39437 Y23.04942
G1 F300 X-11.53092 Y23.25382
G1 F300 X-11.62500 Y23.48095
G1 F300 X-11.67296 Y23.72207
G1 F300 X-11.67296 Y23.96789
G1 F300 X-11.62500 Y24.20901
G1 F300 X-11.53092 Y24.43611
G1 F300 X-11.39437 Y24.64056
G1 F300 X-11.09595 Y24.91945
G1 F300 X-11.06991 Y25.02923
G1 F300 X-11.11182 Y25.13398
G1 F300 X-11.20281 Y25.19463
G1 F300 X-11.33021 Y25.21051
G1 F300 X-11.50951 Y25.26489
G1 F300 X-11.67418 Y25.35293
G1 F300 X-11.81881 Y25.47162
G1 F300 X-15.76289 Y29.42218
G1 F300 X-15.82355 Y29.46272
G1 F300 X-15.89515 Y29.47697
G1 F300 X-20.01635 Y29.47336
G1 F300 X-20.08216 Y29.44649
G1 F300 X-20.31147 Y29.28319
G1 F300 X-20.35631 Y29.21291
G1 F300 X-20.36375 Y29.11357
G1 F300 X-20.30454 Y29.00989
G1 F300 X-20.17551 Y28.92927
G1 F300 X-19.98628 Y28.75868
G1 F300 X-19.83423 Y28.55485
G1 F300 X-19.70474 Y28.26115
G1 F300 X-19.73759 Y28.19897
G1 F300 X-20.09507 Y28.19897
G1 F300 X-20.20535 Y28.41462
G1 F300 X-20.34096 Y28.56521
G1 F300 X-20.49557 Y28.67593
G1 F300 X-20.65793 Y28.74819
G1 F300 X-20.85613 Y28.79033
G1 F300 X-21.04010 Y28.79000
G1 F300 X-21.22013 Y28.75208
G1 F300 X-21.39999 Y28.67306
G1 F300 X-21.54901 Y28.56521
G1 F300 X-21.67723 Y28.42475
G1 F300 X-21.79491 Y28.19897
G1 F300 X-22.15237 Y28.19897
G1 F300 X-22.18518 Y28.26115
G1 F300 X-22.05572 Y28.55485
G1 F300 X-21.90370 Y28.75868
G1 F300 X-21.71439 Y28.92927
G1 F300 X-21.56220 Y29.03483
G1 F300 X-21.52267 Y29.15099
G1 F300 X-21.53809 Y29.22414
G1 F300 X-21.57251 Y29.27682
G1 F300 X-21.77215 Y29.41652
G1 F300 X-21.95320 Y29.59757
G1 F300 X-22.09524 Y29.81014
G1 F300 X-22.19308 Y30.04636
G1 F300 X-22.24297 Y30.29714
G1 F300 X-22.24297 Y30.55281
G1 F300 X-22.19308 Y30.80359
G1 F300 X-22.09524 Y31.03981
G1 F300 X-21.95320 Y31.25238
G1 F300 X-21.77215 Y31.43343
G1 F300 X-21.58478 Y31.56297
G1 F300 X-21.54447 Y31.62340
G1 F300 X-21.53022 Y31.69495
G1 F300 X-21.54447 Y31.76650
G1 F300 X-21.58475 Y31.82695
G1 F300 X-21.77215 Y31.95652
G1 F300 X-21.95320 Y32.13757
G1 F300 X-22.09524 Y32.35014
G1 F300 X-22.19308 Y32.58636
G1 F300 X-22.24297 Y32.83714
G1 F300 X-22.24297 Y33.09281
G1 F300 X-22.19308 Y33.34359
G1 F300 X-22.09524 Y33.57981
G1 F300 X-21.95320 Y33.79238
G1 F300 X-21.77215 Y33.97343
G1 F300 X-21.58478 Y34.10297
G1 F300 X-21.54447 Y34.16340
G1 F300 X-21.53022 Y34.23495
G1 F300 X-21.54447 Y34.30650
G1 F300 X-21.58475 Y34.36695
G1 F300 X-21.83326 Y34.54023
G1 F300 X-21.91010 Y34.55697
G1 F300 X-22.21485 Y34.55697
G1 F300 X-22.28640 Y34.54272
G1 F300 X-22.34706 Y34.50221
G1 F300 X-22.64220 Y34.20709
G1 F300 X-22.68274 Y34.14641
G1 F300 X-22.69699 Y34.07485
G1 F300 X-22.69699 Y27.11513
G1 F300 X-22.68617 Y27.05480
G1 F300 X-22.64220 Y26.98289
G1 F300 X-22.02463 Y26.36534
G1 F300 X-21.93923 Y26.31736
G1 F300 X-21.87921 Y26.31185
G1 F300 X-21.80906 Y26.33100
G1 F300 X-21.57866 Y26.48655
G1 F300 X-21.53365 Y26.55704
G1 F300 X-21.52620 Y26.65638
G1 F300 X-21.58541 Y26.76003
G1 F300 X-21.71439 Y26.84065
G1 F300 X-21.90370 Y27.01127
G1 F300 X-22.05572 Y27.21510
G1 F300 X-22.18518 Y27.50880
G1 F300 X-22.15237 Y27.57095
G1 F300 X-21.79489 Y27.57095
G1 F300 X-21.68462 Y27.35536
G1 F300 X-21.54901 Y27.20476
G1 F300 X-21.39440 Y27.09404
G1 F300 X-21.23205 Y27.02178
G1 F300 X-21.03383 Y26.97964
G1 F300 X-20.84988 Y26.97997
G1 F300 X-20.66984 Y27.01790
G1 F300 X-20.48999 Y27.09691
G1 F300 X-20.34096 Y27.20476
G1 F300 X-20.21274 Y27.34522
G1 F300 X-20.09509 Y27.57095
G1 F300 X-19.73756 Y27.57095
G1 F300 X-19.70474 Y27.50880
G1 F300 X-19.83423 Y27.21510
G1 F300 X-19.98625 Y27.01127
G1 F300 X-20.17551 Y26.84068
G1 F300 X-20.30454 Y26.76003
G1 F300 X-20.36375 Y26.65638
G1 F300 X-20.35631 Y26.55704
G1 F300 X-20.31744 Y26.49313
G1 F300 X-20.11777 Y26.35343
G1 F300 X-19.93675 Y26.17238
G1 F300 X-19.79471 Y25.95981
G1 F300 X-19.69687 Y25.72359
G1 F300 X-19.64699 Y25.47281
G1 F300 X-19.64699 Y25.21714
G1 F300 X-19.69687 Y24.96636
G1 F300 X-19.79471 Y24.73014
G1 F300 X-19.93675 Y24.51754
G1 F300 X-20.11777 Y24.33652
G1 F300 X-20.29641 Y24.21427
G1 F300 X-20.32979 Y24.17637
G1 F300 X-20.35613 Y24.11142
G1 F300 X-20.35664 Y24.04137
G1 F300 X-20.30518 Y23.94295
G1 F300 X-20.08216 Y23.78346
G1 F300 X-20.00469 Y23.75542
G1 F300 X-17.15517 Y23.75298
G1 F300 X-17.08354 Y23.76723
G1 F300 X-17.02278 Y23.80784
G1 F300 X-16.22446 Y24.61125
G1 F300 X-16.19571 Y24.68442
G1 F300 X-16.19297 Y24.88757
G1 F300 X-16.13731 Y25.16735
G1 F300 X-16.02817 Y25.43085
G1 F300 X-15.86970 Y25.66799
G1 F300 X-15.66800 Y25.86969
G1 F300 X-15.43086 Y26.02816
G1 F300 X-15.16734 Y26.13733
G1 F300 X-14.88758 Y26.19298
G1 F300 X-14.60237 Y26.19298
G1 F300 X-14.32261 Y26.13733
G1 F300 X-14.05909 Y26.02816
G1 F300 X-13.82193 Y25.86969
G1 F300 X-13.62023 Y25.66799
G1 F300 X-13.46178 Y25.43085
G1 F300 X-13.35264 Y25.16735
G1 F300 X-13.29699 Y24.88757
G1 F300 X-13.29699 Y24.60238
G1 F300 X-13.35264 Y24.32260
G1 F300 X-13.46178 Y24.05907
G1 F300 X-13.62023 Y23.82194
G1 F300 X-13.82193 Y23.62024
G1 F300 X-14.05909 Y23.46177
G1 F300 X-14.32261 Y23.35262
G1 F300 X-14.60237 Y23.29697
G1 F300 X-14.80549 Y23.29423
G1 F300 X-14.87869 Y23.26548
G1 F300 X-16.01115 Y22.13160
G1 F300 X-16.15576 Y22.01293
G1 F300 X-16.32042 Y21.92489
G1 F300 X-16.49911 Y21.87069
G1 F300 X-16.68532 Y21.85235
G1 F300 X-20.01638 Y21.85336
G1 F300 X-20.08216 Y21.82649
G1 F300 X-20.29641 Y21.67427
G1 F300 X-20.33995 Y21.61689
G1 F300 X-20.35857 Y21.52324
G1 F300 X-20.34549 Y21.46340
G1 F300 X-20.30518 Y21.40295
G1 F300 X-20.07871 Y21.24148
G1 F300 X-19.97988 Y21.21298
G1 F300 X-11.60692 Y21.21298
G1 F300 X-11.53539 Y21.22720
G1 F300 X-11.47690 Y21.26566
G1 F300 X-11.29437 Y21.54051
G1 F300 X-11.12054 Y21.71435
G1 F300 X-10.91612 Y21.85093
G1 F300 X-10.68899 Y21.94501
G1 F300 X-10.44789 Y21.99296
G1 F300 X-10.20205 Y21.99296
G1 F300 X-9.97510 Y21.96015
G1 F300 X-9.92044 Y21.97742
G1 F300 X-9.86280 Y22.02207
G1 F300 X-9.83121 Y22.07412
G1 F300 X-9.81729 Y22.14432
;G04 P0 ; dwell for no time -- G64 should not smooth over this point 
G1 F3000 Z3.00000 ; retract 

G1 F3000 X-13.68500 Y24.74498 ; rapid move to begin. 
G1 F300 F300.00000
G1 F300 Z-0.07000
;G04 P0 ; dwell for no time -- G64 should not smooth over this point 
G1 F300 F600.00000
G1 F300 X-13.68500 Y24.74498
G1 F300 X-13.70717 Y24.53080
G1 F300 X-13.77664 Y24.31384
G1 F300 X-13.88400 Y24.12720
G1 F300 X-14.03572 Y23.95725
G1 F300 X-14.22058 Y23.82415
G1 F300 X-14.42350 Y23.73525
G1 F300 X-14.64047 Y23.69047
G1 F300 X-14.85578 Y23.69080
G1 F300 X-14.98093 Y23.71706
G1 F300 X-16.28900 Y22.40899
G1 F300 X-16.37892 Y22.33632
G1 F300 X-16.57000 Y22.25715
G1 F300 X-16.68499 Y22.24496
G1 F300 X-20.23098 Y22.24496
G1 F300 X-20.34096 Y22.12476
G1 F300 X-20.48473 Y22.02032
G1 F300 X-20.65793 Y21.94178
G1 F300 X-20.84988 Y21.89997
G1 F300 X-21.04010 Y21.89997
G1 F300 X-21.22621 Y21.93952
G1 F300 X-21.39440 Y22.01404
G1 F300 X-21.55389 Y22.12873
G1 F300 X-21.68462 Y22.27536
G1 F300 X-21.77632 Y22.43485
G1 F300 X-21.83347 Y22.60973
G1 F300 X-21.85498 Y22.80497
G1 F300 X-21.83608 Y22.98798
G1 F300 X-21.77632 Y23.17513
G1 F300 X-21.68462 Y23.33462
G1 F300 X-21.55834 Y23.47680
G1 F300 X-21.39999 Y23.59306
G1 F300 X-21.22621 Y23.67045
G1 F300 X-21.04010 Y23.71000
G1 F300 X-20.84988 Y23.71000
G1 F300 X-20.65793 Y23.66819
G1 F300 X-20.48473 Y23.58966
G1 F300 X-20.33609 Y23.48125
G1 F300 X-20.23093 Y23.36497
G1 F300 X-16.91694 Y23.36497
G1 F300 X-15.77608 Y24.50584
G1 F300 X-15.80465 Y24.75125
G1 F300 X-15.78019 Y24.97144
G1 F300 X-15.71049 Y25.18173
G1 F300 X-15.59858 Y25.37291
G1 F300 X-15.45426 Y25.53273
G1 F300 X-15.26940 Y25.66580
G1 F300 X-15.06648 Y25.75473
G1 F300 X-14.84951 Y25.79948
G1 F300 X-14.63419 Y25.79918
G1 F300 X-14.42350 Y25.75473
G1 F300 X-14.22058 Y25.66580
G1 F300 X-14.04060 Y25.53667
G1 F300 X-13.89137 Y25.37291
G1 F300 X-13.77664 Y25.17612
G1 F300 X-13.70717 Y24.95917
G1 F300 X-13.68500 Y24.74498
;G04 P0 ; dwell for no time -- G64 should not smooth over this point 
G1 F3000 Z3.00000 ; retract 

G1 F3000 X-4.48532 Y31.45870 ; rapid move to begin. 
G1 F300 F300.00000
G1 F300 Z-0.07000
;G04 P0 ; dwell for no time -- G64 should not smooth over this point 
G1 F300 F600.00000
G1 F300 X-4.48532 Y31.45870
G1 F300 X-4.50378 Y31.28619
G1 F300 X-4.56218 Y31.10961
G1 F300 X-4.64582 Y30.96475
G1 F300 X-4.76510 Y30.83033
G1 F300 X-4.92057 Y30.71735
G1 F300 X-5.07922 Y30.64707
G1 F300 X-5.25509 Y30.60971
G1 F300 X-5.43487 Y30.60971
G1 F300 X-5.60467 Y30.64545
G1 F300 X-5.78026 Y30.72363
G1 F300 X-5.92044 Y30.82589
G1 F300 X-6.04417 Y30.96475
G1 F300 X-6.13289 Y31.12106
G1 F300 X-6.18458 Y31.28012
G1 F300 X-6.20467 Y31.47125
G1 F300 X-6.18620 Y31.64379
G1 F300 X-6.13289 Y31.80892
G1 F300 X-6.03680 Y31.97537
G1 F300 X-5.90498 Y32.11573
G1 F300 X-5.90498 Y38.71302
G1 F300 X-7.10901 Y39.91706
G1 F300 X-7.23418 Y39.89079
G1 F300 X-7.45580 Y39.89079
G1 F300 X-7.67254 Y39.93687
G1 F300 X-7.86939 Y40.02414
G1 F300 X-8.05872 Y40.16168
G1 F300 X-8.20596 Y40.32719
G1 F300 X-8.31048 Y40.50824
G1 F300 X-8.38021 Y40.71853
G1 F300 X-8.40500 Y40.94499
G1 F300 X-8.38021 Y41.17144
G1 F300 X-8.31335 Y41.37613
G1 F300 X-8.20596 Y41.56277
G1 F300 X-8.05427 Y41.73272
G1 F300 X-7.88026 Y41.85955
G1 F300 X-7.67254 Y41.95310
G1 F300 X-7.45580 Y41.99917
G1 F300 X-7.22799 Y41.99821
G1 F300 X-7.01742 Y41.95310
G1 F300 X-6.82059 Y41.86582
G1 F300 X-6.63571 Y41.73272
G1 F300 X-6.48402 Y41.56277
G1 F300 X-6.37663 Y41.37613
G1 F300 X-6.30978 Y41.17144
G1 F300 X-6.28499 Y40.94499
G1 F300 X-6.31389 Y40.70588
G1 F300 X-4.94900 Y39.34096
G1 F300 X-4.87633 Y39.25104
G1 F300 X-4.82560 Y39.15374
G1 F300 X-4.79487 Y39.04840
G1 F300 X-4.78496 Y38.94500
G1 F300 X-4.78496 Y32.11570
G1 F300 X-4.65319 Y31.97537
G1 F300 X-4.56218 Y31.82037
G1 F300 X-4.50378 Y31.64379
G1 F300 X-4.48532 Y31.45870
;G04 P0 ; dwell for no time -- G64 should not smooth over this point 
G1 F3000 Z3.00000 ; retract 

G1 F3000 X-9.18498 Y37.94498 ; rapid move to begin. 
G1 F300 F300.00000
G1 F300 Z-0.07000
;G04 P0 ; dwell for no time -- G64 should not smooth over this point 
G1 F300 F600.00000
G1 F300 X-9.18498 Y37.94498
G1 F300 X-9.20977 Y37.71853
G1 F300 X-9.27949 Y37.50825
G1 F300 X-9.39138 Y37.31706
G1 F300 X-9.53570 Y37.15724
G1 F300 X-9.68498 Y37.04841
G1 F300 X-9.68498 Y31.89449
G1 F300 X-9.63710 Y31.80892
G1 F300 X-9.58378 Y31.64379
G1 F300 X-9.56532 Y31.47125
G1 F300 X-9.58378 Y31.28619
G1 F300 X-9.63710 Y31.12106
G1 F300 X-9.72582 Y30.96475
G1 F300 X-9.84954 Y30.82589
G1 F300 X-9.98973 Y30.72363
G1 F300 X-10.16529 Y30.64545
G1 F300 X-10.33509 Y30.60971
G1 F300 X-10.52110 Y30.61067
G1 F300 X-10.69074 Y30.64707
G1 F300 X-10.86026 Y30.72363
G1 F300 X-11.00044 Y30.82589
G1 F300 X-11.11680 Y30.95462
G1 F300 X-11.21289 Y31.12106
G1 F300 X-11.26620 Y31.28619
G1 F300 X-11.28467 Y31.45870
G1 F300 X-11.26458 Y31.64986
G1 F300 X-11.21289 Y31.80892
G1 F300 X-11.12417 Y31.96521
G1 F300 X-11.00044 Y32.10409
G1 F300 X-10.80499 Y32.23239
G1 F300 X-10.80499 Y37.04838
G1 F300 X-10.95427 Y37.15724
G1 F300 X-11.09859 Y37.31706
G1 F300 X-11.21335 Y37.51384
G1 F300 X-11.28282 Y37.73080
G1 F300 X-11.30499 Y37.94498
G1 F300 X-11.28282 Y38.15917
G1 F300 X-11.21050 Y38.38173
G1 F300 X-11.09859 Y38.57291
G1 F300 X-10.94939 Y38.73667
G1 F300 X-10.76938 Y38.86583
G1 F300 X-10.57256 Y38.95310
G1 F300 X-10.35579 Y38.99918
G1 F300 X-10.13418 Y38.99918
G1 F300 X-9.91744 Y38.95310
G1 F300 X-9.72059 Y38.86583
G1 F300 X-9.53126 Y38.72829
G1 F300 X-9.38401 Y38.56278
G1 F300 X-9.27662 Y38.37614
G1 F300 X-9.20977 Y38.17144
G1 F300 X-9.18498 Y37.94498
;G04 P0 ; dwell for no time -- G64 should not smooth over this point 
G1 F3000 Z3.00000 ; retract 

G1 F3000 X-12.90410 Y39.79252 ; rapid move to begin. 
G1 F300 F300.00000
G1 F300 Z-0.07000
;G04 P0 ; dwell for no time -- G64 should not smooth over this point 
G1 F300 F600.00000
G1 F300 X-12.90410 Y39.79252
G1 F300 X-12.91601 Y39.73697
G1 F300 X-12.95533 Y39.67535
G1 F300 X-13.51835 Y39.11881
G1 F300 X-13.63702 Y38.97421
G1 F300 X-13.72505 Y38.80951
G1 F300 X-13.77926 Y38.63080
G1 F300 X-13.79759 Y38.44464
G1 F300 X-13.79414 Y38.00342
G1 F300 X-13.80722 Y37.94355
G1 F300 X-13.84776 Y37.88290
G1 F300 X-17.77198 Y33.96030
G1 F300 X-17.87026 Y33.91542
G1 F300 X-19.97980 Y33.91298
G1 F300 X-20.05674 Y33.92974
G1 F300 X-20.31241 Y34.11181
G1 F300 X-20.34891 Y34.17465
G1 F300 X-20.35973 Y34.23495
G1 F300 X-20.34891 Y34.29525
G1 F300 X-20.28572 Y34.38298
G1 F300 X-20.11755 Y34.49675
G1 F300 X-19.93675 Y34.67754
G1 F300 X-19.79471 Y34.89014
G1 F300 X-19.69687 Y35.12636
G1 F300 X-19.64699 Y35.37714
G1 F300 X-19.64699 Y35.63281
G1 F300 X-19.69687 Y35.88359
G1 F300 X-19.79471 Y36.11981
G1 F300 X-19.93675 Y36.33241
G1 F300 X-20.11777 Y36.51343
G1 F300 X-20.31744 Y36.65313
G1 F300 X-20.35631 Y36.71704
G1 F300 X-20.36697 Y36.79105
G1 F300 X-20.35280 Y36.85234
G1 F300 X-20.31066 Y36.91414
G1 F300 X-20.17551 Y37.00068
G1 F300 X-19.98625 Y37.17129
G1 F300 X-19.83423 Y37.37510
G1 F300 X-19.70474 Y37.66880
G1 F300 X-19.73756 Y37.73095
G1 F300 X-20.09509 Y37.73095
G1 F300 X-20.20535 Y37.51536
G1 F300 X-20.34096 Y37.36476
G1 F300 X-20.48999 Y37.25691
G1 F300 X-20.65793 Y37.18178
G1 F300 X-20.85613 Y37.13964
G1 F300 X-21.04010 Y37.13997
G1 F300 X-21.22013 Y37.17790
G1 F300 X-21.40525 Y37.26032
G1 F300 X-21.55389 Y37.36873
G1 F300 X-21.67723 Y37.50522
G1 F300 X-21.79489 Y37.73095
G1 F300 X-22.15237 Y37.73095
G1 F300 X-22.18518 Y37.66878
G1 F300 X-22.05572 Y37.37510
G1 F300 X-21.90370 Y37.17129
G1 F300 X-21.71480 Y37.00103
G1 F300 X-21.58818 Y36.92224
G1 F300 X-21.54218 Y36.86332
G1 F300 X-21.52267 Y36.77896
G1 F300 X-21.54985 Y36.68313
G1 F300 X-21.60070 Y36.62829
G1 F300 X-21.84134 Y36.46614
G1 F300 X-21.91010 Y36.45298
G1 F300 X-22.24652 Y36.45415
G1 F300 X-22.30642 Y36.46723
G1 F300 X-22.36707 Y36.50777
G1 F300 X-22.64220 Y36.78290
G1 F300 X-22.68617 Y36.85481
G1 F300 X-22.69699 Y36.91513
G1 F300 X-22.69699 Y44.52998
G1 F300 X-22.68274 Y44.60153
G1 F300 X-22.63786 Y44.66615
G1 F300 X-22.54647 Y44.71336
G1 F300 X-21.87363 Y44.71336
G1 F300 X-21.80784 Y44.68654
G1 F300 X-21.58475 Y44.52695
G1 F300 X-21.54447 Y44.46650
G1 F300 X-21.53022 Y44.39495
G1 F300 X-21.54447 Y44.32340
G1 F300 X-21.58478 Y44.26297
G1 F300 X-21.77215 Y44.13343
G1 F300 X-21.95320 Y43.95238
G1 F300 X-22.09524 Y43.73981
G1 F300 X-22.19308 Y43.50359
G1 F300 X-22.24297 Y43.25281
G1 F300 X-22.24297 Y42.99714
G1 F300 X-22.19308 Y42.74636
G1 F300 X-22.09524 Y42.51014
G1 F300 X-21.95320 Y42.29757
G1 F300 X-21.77215 Y42.11652
G1 F300 X-21.58475 Y41.98695
G1 F300 X-21.54447 Y41.92650
G1 F300 X-21.53022 Y41.85495
G1 F300 X-21.54447 Y41.78340
G1 F300 X-21.58478 Y41.72297
G1 F300 X-21.77215 Y41.59343
G1 F300 X-21.95320 Y41.41238
G1 F300 X-22.09524 Y41.19981
G1 F300 X-22.19308 Y40.96359
G1 F300 X-22.24297 Y40.71281
G1 F300 X-22.24297 Y40.45714
G1 F300 X-22.19308 Y40.20636
G1 F300 X-22.09524 Y39.97014
G1 F300 X-21.95320 Y39.75757
G1 F300 X-21.77215 Y39.57652
G1 F300 X-21.57251 Y39.43682
G1 F300 X-21.53809 Y39.38414
G1 F300 X-21.52267 Y39.31099
G1 F300 X-21.56220 Y39.19483
G1 F300 X-21.71442 Y39.08927
G1 F300 X-21.90370 Y38.91868
G1 F300 X-22.05572 Y38.71485
G1 F300 X-22.18518 Y38.42115
G1 F300 X-22.15237 Y38.35897
G1 F300 X-21.79491 Y38.35897
G1 F300 X-21.68462 Y38.57462
G1 F300 X-21.54901 Y38.72521
G1 F300 X-21.39999 Y38.83306
G1 F300 X-21.23205 Y38.90819
G1 F300 X-21.03383 Y38.95033
G1 F300 X-20.84988 Y38.95000
G1 F300 X-20.66984 Y38.91208
G1 F300 X-20.48473 Y38.82966
G1 F300 X-20.33609 Y38.72125
G1 F300 X-20.21274 Y38.58475
G1 F300 X-20.09507 Y38.35897
G1 F300 X-19.73759 Y38.35897
G1 F300 X-19.70474 Y38.42115
G1 F300 X-19.83423 Y38.71485
G1 F300 X-19.98625 Y38.91866
G1 F300 X-20.17553 Y39.08927
G1 F300 X-20.30454 Y39.16989
G1 F300 X-20.36375 Y39.27357
G1 F300 X-20.35631 Y39.37291
G1 F300 X-20.31147 Y39.44319
G1 F300 X-20.08216 Y39.60649
G1 F300 X-20.01635 Y39.63336
G1 F300 X-14.40531 Y39.63235
G1 F300 X-14.21913 Y39.65069
G1 F300 X-14.04042 Y39.70489
G1 F300 X-13.72401 Y39.89161
G1 F300 X-13.50262 Y39.89694
G1 F300 X-13.08736 Y39.99214
G1 F300 X-13.03046 Y39.98167
G1 F300 X-12.94768 Y39.92663
G1 F300 X-12.91149 Y39.86029
G1 F300 X-12.90410 Y39.79252
;G04 P0 ; dwell for no time -- G64 should not smooth over this point 
G1 F3000 Z3.00000 ; retract 

G1 F3000 X-12.58500 Y41.34499 ; rapid move to begin. 
G1 F300 F300.00000
G1 F300 Z-0.07000
;G04 P0 ; dwell for no time -- G64 should not smooth over this point 
G1 F300 F600.00000
G1 F300 X-12.58500 Y41.34499
G1 F300 X-12.60717 Y41.55917
G1 F300 X-12.67664 Y41.77613
G1 F300 X-12.79137 Y41.97293
G1 F300 X-12.93572 Y42.13272
G1 F300 X-13.10971 Y42.25955
G1 F300 X-13.31743 Y42.35312
G1 F300 X-13.53420 Y42.39917
G1 F300 X-13.75579 Y42.39917
G1 F300 X-13.97255 Y42.35312
G1 F300 X-14.16940 Y42.26582
G1 F300 X-14.35426 Y42.13272
G1 F300 X-14.49858 Y41.97293
G1 F300 X-14.61334 Y41.77613
G1 F300 X-14.68019 Y41.57143
G1 F300 X-14.70498 Y41.34499
G1 F300 X-14.68428 Y41.14497
G1 F300 X-20.23093 Y41.14497
G1 F300 X-20.33609 Y41.26125
G1 F300 X-20.48473 Y41.36966
G1 F300 X-20.65793 Y41.44819
G1 F300 X-20.84988 Y41.49000
G1 F300 X-21.04010 Y41.49000
G1 F300 X-21.22621 Y41.45045
G1 F300 X-21.39999 Y41.37306
G1 F300 X-21.54901 Y41.26521
G1 F300 X-21.67723 Y41.12475
G1 F300 X-21.77855 Y40.94926
G1 F300 X-21.83608 Y40.76798
G1 F300 X-21.85465 Y40.57873
G1 F300 X-21.83347 Y40.38973
G1 F300 X-21.77632 Y40.21485
G1 F300 X-21.68462 Y40.05536
G1 F300 X-21.55834 Y39.91317
G1 F300 X-21.39440 Y39.79404
G1 F300 X-21.22621 Y39.71952
G1 F300 X-21.04010 Y39.67997
G1 F300 X-20.84988 Y39.67997
G1 F300 X-20.65793 Y39.72178
G1 F300 X-20.48473 Y39.80032
G1 F300 X-20.34096 Y39.90476
G1 F300 X-20.23098 Y40.02496
G1 F300 X-14.39909 Y40.02526
G1 F300 X-14.19620 Y40.06560
G1 F300 X-14.09889 Y40.11632
G1 F300 X-13.88093 Y40.31706
G1 F300 X-13.75579 Y40.29079
G1 F300 X-13.54047 Y40.29046
G1 F300 X-13.32350 Y40.33524
G1 F300 X-13.12058 Y40.42414
G1 F300 X-12.94060 Y40.55330
G1 F300 X-12.79137 Y40.71705
G1 F300 X-12.67664 Y40.91385
G1 F300 X-12.60717 Y41.13080
G1 F300 X-12.58500 Y41.34499
;G04 P0 ; dwell for no time -- G64 should not smooth over this point 
G1 F3000 Z3.00000 ; retract 

G1 F3000 X-13.78550 Y45.81227 ; rapid move to begin. 
G1 F300 F300.00000
G1 F300 Z-0.07000
;G04 P0 ; dwell for no time -- G64 should not smooth over this point 
G1 F300 F600.00000
G1 F300 X-13.78550 Y45.81227
G1 F300 X-13.79320 Y45.87717
G1 F300 X-13.82073 Y45.93201
G1 F300 X-13.88164 Y45.98659
G1 F300 X-14.16734 Y46.05263
G1 F300 X-14.43087 Y46.16177
G1 F300 X-14.66800 Y46.32024
G1 F300 X-14.86970 Y46.52195
G1 F300 X-15.02843 Y46.75949
G1 F300 X-15.09642 Y46.91422
G1 F300 X-15.14776 Y46.96545
G1 F300 X-15.21514 Y46.99337
G1 F300 X-17.84463 Y46.99235
G1 F300 X-18.03081 Y47.01069
G1 F300 X-18.20952 Y47.06490
G1 F300 X-18.37422 Y47.15293
G1 F300 X-18.51879 Y47.27160
G1 F300 X-19.46311 Y48.22080
G1 F300 X-19.54577 Y48.26088
G1 F300 X-19.63098 Y48.26464
G1 F300 X-19.70510 Y48.24661
G1 F300 X-19.76583 Y48.20045
G1 F300 X-19.79898 Y48.14549
G1 F300 X-19.80373 Y48.02367
G1 F300 X-19.70464 Y47.82918
G1 F300 X-19.83423 Y47.53510
G1 F300 X-19.89570 Y47.45270
G1 F300 X-20.17353 Y47.73050
G1 F300 X-20.11366 Y47.83485
G1 F300 X-20.05651 Y48.00973
G1 F300 X-20.03533 Y48.19873
G1 F300 X-20.05389 Y48.38798
G1 F300 X-20.11366 Y48.57513
G1 F300 X-20.20535 Y48.73462
G1 F300 X-20.33609 Y48.88125
G1 F300 X-20.49557 Y48.99593
G1 F300 X-20.66377 Y49.07045
G1 F300 X-20.84988 Y49.11000
G1 F300 X-21.03383 Y49.11033
G1 F300 X-21.22621 Y49.07045
G1 F300 X-21.39999 Y48.99306
G1 F300 X-21.55834 Y48.87680
G1 F300 X-21.68462 Y48.73462
G1 F300 X-21.79491 Y48.51897
G1 F300 X-22.15237 Y48.51897
G1 F300 X-22.18518 Y48.58115
G1 F300 X-22.05572 Y48.87485
G1 F300 X-21.90334 Y49.07912
G1 F300 X-21.81051 Y49.16672
G1 F300 X-21.77195 Y49.26817
G1 F300 X-21.78277 Y49.34442
G1 F300 X-21.84109 Y49.42654
G1 F300 X-22.04508 Y49.52069
G1 F300 X-22.11330 Y49.57668
G1 F300 X-22.21086 Y49.72270
G1 F300 X-22.23649 Y49.80716
G1 F300 X-22.24604 Y51.58574
G1 F300 X-22.23649 Y51.68277
G1 F300 X-22.16928 Y51.84505
G1 F300 X-22.11330 Y51.91325
G1 F300 X-21.96717 Y52.01086
G1 F300 X-21.78574 Y52.04604
G1 F300 X-20.00716 Y52.03646
G1 F300 X-19.84488 Y51.96926
G1 F300 X-19.77665 Y51.91325
G1 F300 X-19.65445 Y51.74312
G1 F300 X-19.59314 Y51.70497
G1 F300 X-19.52730 Y51.69298
G1 F300 X-19.09532 Y51.69760
G1 F300 X-18.90914 Y51.67921
G1 F300 X-18.73043 Y51.62506
G1 F300 X-18.56576 Y51.53702
G1 F300 X-18.42111 Y51.41828
G1 F300 X-18.21392 Y51.21261
G1 F300 X-18.13076 Y51.18630
G1 F300 X-18.02959 Y51.20779
G1 F300 X-17.96279 Y51.26794
G1 F300 X-17.93048 Y51.37261
G1 F300 X-17.93048 Y53.88883
G1 F300 X-17.99926 Y54.14169
G1 F300 X-18.01760 Y54.32782
G1 F300 X-18.01722 Y55.76605
G1 F300 X-18.05941 Y55.85060
G1 F300 X-18.23327 Y55.97664
G1 F300 X-18.33975 Y56.13031
G1 F300 X-18.40708 Y56.18030
G1 F300 X-18.48270 Y56.19698
G1 F300 X-22.09961 Y56.19455
G1 F300 X-22.19793 Y56.14966
G1 F300 X-22.64220 Y55.70709
G1 F300 X-22.68274 Y55.64641
G1 F300 X-22.69699 Y55.57486
G1 F300 X-22.69699 Y46.80000
G1 F300 X-22.68274 Y46.72842
G1 F300 X-22.64421 Y46.66990
G1 F300 X-22.53476 Y46.61542
G1 F300 X-21.87363 Y46.61659
G1 F300 X-21.80784 Y46.64341
G1 F300 X-21.60555 Y46.78468
G1 F300 X-21.53809 Y46.86581
G1 F300 X-21.52620 Y46.97638
G1 F300 X-21.56220 Y47.05512
G1 F300 X-21.71480 Y47.16101
G1 F300 X-21.90370 Y47.33127
G1 F300 X-22.05572 Y47.53510
G1 F300 X-22.18518 Y47.82878
G1 F300 X-22.15237 Y47.89095
G1 F300 X-21.79489 Y47.89095
G1 F300 X-21.68462 Y47.67536
G1 F300 X-21.55389 Y47.52873
G1 F300 X-21.39440 Y47.41404
G1 F300 X-21.22621 Y47.33952
G1 F300 X-21.04010 Y47.29997
G1 F300 X-20.84988 Y47.29997
G1 F300 X-20.66377 Y47.33952
G1 F300 X-20.46885 Y47.43185
G1 F300 X-20.18948 Y47.15248
G1 F300 X-20.30175 Y47.08227
G1 F300 X-20.34777 Y47.02332
G1 F300 X-20.36697 Y46.95105
G1 F300 X-20.35186 Y46.86581
G1 F300 X-20.30896 Y46.80455
G1 F300 X-20.11755 Y46.67320
G1 F300 X-19.93675 Y46.49241
G1 F300 X-19.79471 Y46.27981
G1 F300 X-19.69687 Y46.04359
G1 F300 X-19.64699 Y45.79281
G1 F300 X-19.64699 Y45.53714
G1 F300 X-19.69687 Y45.28636
G1 F300 X-19.79471 Y45.05014
G1 F300 X-19.93675 Y44.83754
G1 F300 X-20.11777 Y44.65652
G1 F300 X-20.30307 Y44.52899
G1 F300 X-20.35613 Y44.43142
G1 F300 X-20.35471 Y44.35276
G1 F300 X-20.30518 Y44.26295
G1 F300 X-20.08216 Y44.10346
G1 F300 X-20.00464 Y44.07542
G1 F300 X-15.49863 Y44.07659
G1 F300 X-15.40290 Y44.12777
G1 F300 X-13.83976 Y45.69088
G1 F300 X-13.79996 Y45.75034
G1 F300 X-13.78550 Y45.81227
;G04 P0 ; dwell for no time -- G64 should not smooth over this point 
G1 F3000 Z3.00000 ; retract 

G1 F3000 X-12.68500 Y47.44498 ; rapid move to begin. 
G1 F300 F300.00000
G1 F300 Z-0.07000
;G04 P0 ; dwell for no time -- G64 should not smooth over this point 
G1 F300 F600.00000
G1 F300 X-12.68500 Y47.44498
G1 F300 X-12.70717 Y47.23081
G1 F300 X-12.77664 Y47.01384
G1 F300 X-12.88401 Y46.82720
G1 F300 X-13.03128 Y46.66170
G1 F300 X-13.20971 Y46.53043
G1 F300 X-13.41156 Y46.43912
G1 F300 X-13.64047 Y46.39048
G1 F300 X-13.85579 Y46.39081
G1 F300 X-14.07255 Y46.43686
G1 F300 X-14.26940 Y46.52416
G1 F300 X-14.45426 Y46.65725
G1 F300 X-14.60597 Y46.82720
G1 F300 X-14.71334 Y47.01384
G1 F300 X-14.78019 Y47.21854
G1 F300 X-14.79901 Y47.38496
G1 F300 X-17.84496 Y47.38496
G1 F300 X-17.95994 Y47.39715
G1 F300 X-18.06459 Y47.43012
G1 F300 X-18.16081 Y47.48285
G1 F300 X-18.24094 Y47.54899
G1 F300 X-19.14094 Y48.44899
G1 F300 X-19.20708 Y48.52913
G1 F300 X-19.25981 Y48.62534
G1 F300 X-19.29278 Y48.72999
G1 F300 X-19.30497 Y48.84495
G1 F300 X-19.30497 Y50.16301
G1 F300 X-19.32692 Y50.18496
G1 F300 X-20.03500 Y50.18496
G1 F300 X-20.03614 Y49.88328
G1 F300 X-20.05257 Y49.85257
G1 F300 X-20.08328 Y49.83614
G1 F300 X-21.79496 Y49.83499
G1 F300 X-21.83738 Y49.85257
G1 F300 X-21.85498 Y49.89499
G1 F300 X-21.85041 Y51.61795
G1 F300 X-21.82831 Y51.64485
G1 F300 X-21.79496 Y51.65498
G1 F300 X-20.08328 Y51.65384
G1 F300 X-20.05257 Y51.63740
G1 F300 X-20.03614 Y51.60667
G1 F300 X-20.03500 Y51.30494
G1 F300 X-19.08910 Y51.30466
G1 F300 X-18.88623 Y51.26433
G1 F300 X-18.77914 Y51.20705
G1 F300 X-18.34506 Y50.78661
G1 F300 X-18.27633 Y50.70106
G1 F300 X-18.19715 Y50.50995
G1 F300 X-18.18496 Y50.39499
G1 F300 X-18.18496 Y49.07693
G1 F300 X-17.61300 Y48.50497
G1 F300 X-14.24499 Y48.50497
G1 F300 X-14.13000 Y48.49278
G1 F300 X-14.03117 Y48.46223
G1 F300 X-13.84951 Y48.49951
G1 F300 X-13.64047 Y48.49951
G1 F300 X-13.42350 Y48.45473
G1 F300 X-13.20971 Y48.35956
G1 F300 X-13.03572 Y48.23271
G1 F300 X-12.89137 Y48.07292
G1 F300 X-12.77438 Y47.87025
G1 F300 X-12.70717 Y47.65918
G1 F300 X-12.68500 Y47.44498
;G04 P0 ; dwell for no time -- G64 should not smooth over this point 
G1 F3000 Z3.00000 ; retract 

G1 F3000 X-8.45897 Y52.92968 ; rapid move to begin. 
G1 F300 F300.00000
G1 F300 Z-0.07000
;G04 P0 ; dwell for no time -- G64 should not smooth over this point 
G1 F300 F600.00000
G1 F300 X-8.45897 Y52.92968
G1 F300 X-8.45897 Y53.26874
G1 F300 X-8.50876 Y53.31853
G1 F300 X-8.93281 Y53.31149
G1 F300 X-9.09506 Y53.24428
G1 F300 X-9.21927 Y53.12008
G1 F300 X-9.28650 Y52.95777
G1 F300 X-9.29415 Y52.74685
G1 F300 X-9.24375 Y52.69648
G1 F300 X-8.89539 Y52.69648
G1 F300 X-8.85028 Y52.79971
G1 F300 X-8.74571 Y52.89341
G1 F300 X-8.63682 Y52.92762
G1 F300 X-8.45897 Y52.92968
;G04 P0 ; dwell for no time -- G64 should not smooth over this point 
G1 F3000 Z3.00000 ; retract 

G1 F3000 X-6.99403 Y52.86219 ; rapid move to begin. 
G1 F300 F300.00000
G1 F300 Z-0.07000
;G04 P0 ; dwell for no time -- G64 should not smooth over this point 
G1 F300 F600.00000
G1 F300 X-6.99403 Y52.86219
G1 F300 X-6.99578 Y52.74685
G1 F300 X-7.04617 Y52.69648
G1 F300 X-7.39458 Y52.69648
G1 F300 X-7.43969 Y52.79971
G1 F300 X-7.54427 Y52.89341
G1 F300 X-7.65313 Y52.92762
G1 F300 X-7.83096 Y52.92968
G1 F300 X-7.83096 Y53.26874
G1 F300 X-7.78117 Y53.31853
G1 F300 X-7.45346 Y53.32099
G1 F300 X-7.27271 Y53.28589
G1 F300 X-7.19489 Y53.24428
G1 F300 X-7.07068 Y53.12008
G1 F300 X-7.00345 Y52.95777
G1 F300 X-6.99403 Y52.86219
;G04 P0 ; dwell for no time -- G64 should not smooth over this point 
G1 F3000 Z3.00000 ; retract 

G1 F3000 X-5.38572 Y50.36796 ; rapid move to begin. 
G1 F300 F300.00000
G1 F300 Z-0.07000
;G04 P0 ; dwell for no time -- G64 should not smooth over this point 
G1 F300 F600.00000
G1 F300 X-5.38572 Y50.36796
G1 F300 X-5.40274 Y50.48374
G1 F300 X-5.44265 Y50.59138
G1 F300 X-5.43500 Y53.04500
G1 F300 X-5.45255 Y53.08741
G1 F300 X-5.49499 Y53.10499
G1 F300 X-5.80670 Y53.10380
G1 F300 X-5.83741 Y53.08741
G1 F300 X-5.85385 Y53.05665
G1 F300 X-5.85496 Y50.89491
G1 F300 X-6.02631 Y50.89872
G1 F300 X-6.15138 Y50.86522
G1 F300 X-6.24996 Y50.81462
G1 F300 X-6.33627 Y50.74515
G1 F300 X-6.49995 Y50.58196
G1 F300 X-7.38498 Y50.58196
G1 F300 X-7.39225 Y50.81620
G1 F300 X-7.43700 Y50.92120
G1 F300 X-7.50325 Y50.99110
G1 F300 X-7.57249 Y51.03187
G1 F300 X-7.65740 Y51.05333
G1 F300 X-8.14498 Y51.06745
G1 F300 X-8.84498 Y51.06745
G1 F300 X-8.95994 Y51.05526
G1 F300 X-9.06458 Y51.02232
G1 F300 X-9.16080 Y50.96956
G1 F300 X-9.43944 Y50.70497
G1 F300 X-16.42248 Y50.71444
G1 F300 X-16.42248 Y54.24499
G1 F300 X-16.43663 Y54.73257
G1 F300 X-16.45756 Y54.81611
G1 F300 X-16.50498 Y54.89346
G1 F300 X-16.50498 Y56.23498
G1 F300 X-16.20328 Y56.23615
G1 F300 X-16.17257 Y56.25256
G1 F300 X-16.15614 Y56.28329
G1 F300 X-16.15499 Y57.99500
G1 F300 X-16.16510 Y58.02832
G1 F300 X-16.20328 Y58.05383
G1 F300 X-16.50498 Y58.05499
G1 F300 X-16.50498 Y59.73497
G1 F300 X-16.20328 Y59.73614
G1 F300 X-16.17257 Y59.75255
G1 F300 X-16.15614 Y59.78329
G1 F300 X-16.15499 Y61.49499
G1 F300 X-16.16510 Y61.52832
G1 F300 X-16.20328 Y61.55384
G1 F300 X-16.50498 Y61.55499
G1 F300 X-16.50498 Y62.99654
G1 F300 X-16.45756 Y63.07386
G1 F300 X-16.43663 Y63.15740
G1 F300 X-16.42327 Y63.66809
G1 F300 X-16.43498 Y64.10123
G1 F300 X-16.44806 Y64.18942
G1 F300 X-16.48969 Y64.27472
G1 F300 X-16.56525 Y64.35028
G1 F300 X-16.65057 Y64.39191
G1 F300 X-16.73874 Y64.40499
G1 F300 X-17.29121 Y64.39773
G1 F300 X-17.41892 Y64.33603
G1 F300 X-17.50742 Y64.21612
G1 F300 X-17.52835 Y64.13260
G1 F300 X-17.52990 Y63.87413
G1 F300 X-17.58435 Y63.77119
G1 F300 X-17.61509 Y63.66588
G1 F300 X-17.62499 Y63.56248
G1 F300 X-17.62499 Y61.55499
G1 F300 X-17.92669 Y61.55384
G1 F300 X-17.95740 Y61.53741
G1 F300 X-17.97384 Y61.50670
G1 F300 X-17.97384 Y59.78329
G1 F300 X-17.95740 Y59.75255
G1 F300 X-17.92669 Y59.73614
G1 F300 X-17.62499 Y59.73497
G1 F300 X-17.62499 Y58.05499
G1 F300 X-17.91498 Y58.05499
G1 F300 X-17.95740 Y58.03742
G1 F300 X-17.97498 Y57.99500
G1 F300 X-17.97498 Y57.70498
G1 F300 X-22.54495 Y57.70498
G1 F300 X-22.65993 Y57.69279
G1 F300 X-22.85102 Y57.61362
G1 F300 X-22.94093 Y57.54095
G1 F300 X-24.04093 Y56.44095
G1 F300 X-24.10710 Y56.36084
G1 F300 X-24.15983 Y56.26460
G1 F300 X-24.19280 Y56.15995
G1 F300 X-24.20499 Y56.04499
G1 F300 X-24.20499 Y36.44498
G1 F300 X-24.19508 Y36.34155
G1 F300 X-24.16435 Y36.23622
G1 F300 X-24.10710 Y36.12913
G1 F300 X-23.48693 Y35.49497
G1 F300 X-24.10710 Y34.86081
G1 F300 X-24.16435 Y34.75372
G1 F300 X-24.20469 Y34.55085
G1 F300 X-24.20499 Y26.64500
G1 F300 X-24.19508 Y26.54154
G1 F300 X-24.16435 Y26.43624
G1 F300 X-24.11363 Y26.33893
G1 F300 X-24.04492 Y26.25338
G1 F300 X-23.08693 Y25.29496
G1 F300 X-23.90710 Y24.46083
G1 F300 X-23.96435 Y24.35371
G1 F300 X-24.00469 Y24.15084
G1 F300 X-24.00496 Y15.94499
G1 F300 X-23.99508 Y15.84157
G1 F300 X-23.96435 Y15.73623
G1 F300 X-23.91360 Y15.63892
G1 F300 X-23.84492 Y15.55338
G1 F300 X-23.08094 Y14.78899
G1 F300 X-23.00080 Y14.72285
G1 F300 X-22.90456 Y14.67012
G1 F300 X-22.79994 Y14.63715
G1 F300 X-22.68498 Y14.62496
G1 F300 X-21.65900 Y14.62496
G1 F300 X-21.55389 Y14.50873
G1 F300 X-21.40525 Y14.40032
G1 F300 X-21.23205 Y14.32178
G1 F300 X-21.04010 Y14.27997
G1 F300 X-20.84988 Y14.27997
G1 F300 X-20.65793 Y14.32178
G1 F300 X-20.48999 Y14.39691
G1 F300 X-20.34096 Y14.50476
G1 F300 X-20.20535 Y14.65536
G1 F300 X-20.11366 Y14.81485
G1 F300 X-20.05651 Y14.98973
G1 F300 X-20.03533 Y15.17873
G1 F300 X-20.05389 Y15.36798
G1 F300 X-20.11650 Y15.56072
G1 F300 X-20.21274 Y15.72475
G1 F300 X-20.33609 Y15.86125
G1 F300 X-20.48473 Y15.96966
G1 F300 X-20.65793 Y16.04819
G1 F300 X-20.85613 Y16.09033
G1 F300 X-21.04010 Y16.09000
G1 F300 X-21.22621 Y16.05045
G1 F300 X-21.40525 Y15.96966
G1 F300 X-21.54901 Y15.86521
G1 F300 X-21.65905 Y15.74497
G1 F300 X-22.45297 Y15.74497
G1 F300 X-22.88498 Y16.17695
G1 F300 X-22.88498 Y23.91300
G1 F300 X-22.01300 Y24.78496
G1 F300 X-21.65900 Y24.78496
G1 F300 X-21.55389 Y24.66873
G1 F300 X-21.39440 Y24.55404
G1 F300 X-21.22621 Y24.47952
G1 F300 X-21.04010 Y24.43997
G1 F300 X-20.84366 Y24.44096
G1 F300 X-20.66377 Y24.47952
G1 F300 X-20.49557 Y24.55404
G1 F300 X-20.34096 Y24.66476
G1 F300 X-20.20535 Y24.81536
G1 F300 X-20.11366 Y24.97485
G1 F300 X-20.05651 Y25.14973
G1 F300 X-20.03533 Y25.35125
G1 F300 X-20.05389 Y25.52798
G1 F300 X-20.11140 Y25.70926
G1 F300 X-20.20535 Y25.87462
G1 F300 X-20.33609 Y26.02125
G1 F300 X-20.49557 Y26.13593
G1 F300 X-20.66377 Y26.21045
G1 F300 X-20.84366 Y26.24901
G1 F300 X-21.04010 Y26.24998
G1 F300 X-21.22621 Y26.21045
G1 F300 X-21.39999 Y26.13306
G1 F300 X-21.54901 Y26.02521
G1 F300 X-21.65905 Y25.90497
G1 F300 X-22.11300 Y25.90497
G1 F300 X-23.08498 Y26.87695
G1 F300 X-23.08498 Y34.31300
G1 F300 X-22.45302 Y34.94496
G1 F300 X-21.65900 Y34.94496
G1 F300 X-21.55389 Y34.82873
G1 F300 X-21.40525 Y34.72032
G1 F300 X-21.22621 Y34.63952
G1 F300 X-21.04010 Y34.59997
G1 F300 X-20.85613 Y34.59964
G1 F300 X-20.65793 Y34.64178
G1 F300 X-20.48999 Y34.71691
G1 F300 X-20.34096 Y34.82476
G1 F300 X-20.20535 Y34.97536
G1 F300 X-20.11366 Y35.13485
G1 F300 X-20.05651 Y35.30973
G1 F300 X-20.03500 Y35.50497
G1 F300 X-20.05651 Y35.70025
G1 F300 X-20.11366 Y35.87513
G1 F300 X-20.20535 Y36.03462
G1 F300 X-20.34096 Y36.18521
G1 F300 X-20.49557 Y36.29593
G1 F300 X-20.66377 Y36.37045
G1 F300 X-20.85613 Y36.41033
G1 F300 X-21.04010 Y36.41000
G1 F300 X-21.22621 Y36.37045
G1 F300 X-21.40525 Y36.28966
G1 F300 X-21.54901 Y36.18521
G1 F300 X-21.65905 Y36.06497
G1 F300 X-22.47299 Y36.06497
G1 F300 X-23.08498 Y36.67693
G1 F300 X-23.08498 Y44.85301
G1 F300 X-22.83301 Y45.10496
G1 F300 X-21.65900 Y45.10496
G1 F300 X-21.55389 Y44.98873
G1 F300 X-21.40525 Y44.88032
G1 F300 X-21.22621 Y44.79952
G1 F300 X-21.03383 Y44.75964
G1 F300 X-20.84988 Y44.75997
G1 F300 X-20.66984 Y44.79790
G1 F300 X-20.48473 Y44.88032
G1 F300 X-20.34096 Y44.98476
G1 F300 X-20.21274 Y45.12522
G1 F300 X-20.11140 Y45.30071
G1 F300 X-20.05389 Y45.48199
G1 F300 X-20.03500 Y45.66497
G1 F300 X-20.05389 Y45.84798
G1 F300 X-20.11140 Y46.02926
G1 F300 X-20.21274 Y46.20475
G1 F300 X-20.33609 Y46.34125
G1 F300 X-20.49557 Y46.45593
G1 F300 X-20.66377 Y46.53045
G1 F300 X-20.84366 Y46.56901
G1 F300 X-21.04010 Y46.57000
G1 F300 X-21.23205 Y46.52819
G1 F300 X-21.40525 Y46.44966
G1 F300 X-21.54901 Y46.34521
G1 F300 X-21.65905 Y46.22497
G1 F300 X-23.08498 Y46.22329
G1 F300 X-23.08498 Y55.81301
G1 F300 X-22.31299 Y56.58497
G1 F300 X-17.97498 Y56.58497
G1 F300 X-17.97498 Y56.29498
G1 F300 X-17.95740 Y56.25256
G1 F300 X-17.91498 Y56.23498
G1 F300 X-17.62499 Y56.23498
G1 F300 X-17.62499 Y54.32747
G1 F300 X-17.61280 Y54.21251
G1 F300 X-17.54249 Y54.03796
G1 F300 X-17.53259 Y50.37906
G1 F300 X-17.49733 Y50.26286
G1 F300 X-17.38242 Y50.09087
G1 F300 X-17.03658 Y49.74503
G1 F300 X-16.95103 Y49.67632
G1 F300 X-16.85372 Y49.62560
G1 F300 X-16.74839 Y49.59486
G1 F300 X-16.64498 Y49.58496
G1 F300 X-9.20748 Y49.58496
G1 F300 X-9.09250 Y49.59715
G1 F300 X-8.90141 Y49.67632
G1 F300 X-8.61300 Y49.94747
G1 F300 X-8.37693 Y49.94747
G1 F300 X-7.97528 Y49.55984
G1 F300 X-7.87906 Y49.50711
G1 F300 X-7.77442 Y49.47414
G1 F300 X-7.65946 Y49.46194
G1 F300 X-6.26213 Y49.46225
G1 F300 X-6.05926 Y49.50258
G1 F300 X-5.95217 Y49.55984
G1 F300 X-5.54899 Y49.94896
G1 F300 X-5.47219 Y50.04538
G1 F300 X-5.42217 Y50.14426
G1 F300 X-5.39317 Y50.25120
G1 F300 X-5.38572 Y50.36796
;G04 P0 ; dwell for no time -- G64 should not smooth over this point 
G1 F3000 Z3.00000 ; retract 

G1 F3000 X-5.43497 Y46.84498 ; rapid move to begin. 
G1 F300 F300.00000
G1 F300 Z-0.07000
;G04 P0 ; dwell for no time -- G64 should not smooth over this point 
G1 F300 F600.00000
G1 F300 X-5.43497 Y46.84498
G1 F300 X-5.43614 Y48.65669
G1 F300 X-5.45255 Y48.68742
G1 F300 X-5.48328 Y48.70383
G1 F300 X-5.80670 Y48.70383
G1 F300 X-5.84488 Y48.67833
G1 F300 X-5.85499 Y48.64498
G1 F300 X-5.85496 Y46.93195
G1 F300 X-6.02687 Y46.76005
G1 F300 X-6.13474 Y46.79373
G1 F300 X-6.24498 Y46.80498
G1 F300 X-11.94499 Y46.80498
G1 F300 X-12.05995 Y46.79279
G1 F300 X-12.25106 Y46.71361
G1 F300 X-12.34095 Y46.64094
G1 F300 X-15.29693 Y43.68497
G1 F300 X-20.23093 Y43.68497
G1 F300 X-20.33609 Y43.80125
G1 F300 X-20.48473 Y43.90966
G1 F300 X-20.65793 Y43.98819
G1 F300 X-20.84988 Y44.03000
G1 F300 X-21.04010 Y44.03000
G1 F300 X-21.22621 Y43.99045
G1 F300 X-21.39999 Y43.91306
G1 F300 X-21.55834 Y43.79680
G1 F300 X-21.68462 Y43.65462
G1 F300 X-21.77632 Y43.49513
G1 F300 X-21.83608 Y43.30798
G1 F300 X-21.85498 Y43.12497
G1 F300 X-21.83347 Y42.92973
G1 F300 X-21.77632 Y42.75485
G1 F300 X-21.68462 Y42.59536
G1 F300 X-21.55389 Y42.44873
G1 F300 X-21.40525 Y42.34032
G1 F300 X-21.23205 Y42.26178
G1 F300 X-21.03383 Y42.21964
G1 F300 X-20.84988 Y42.21997
G1 F300 X-20.65793 Y42.26178
G1 F300 X-20.48473 Y42.34032
G1 F300 X-20.34096 Y42.44476
G1 F300 X-20.23098 Y42.56496
G1 F300 X-15.06495 Y42.56496
G1 F300 X-14.94999 Y42.57715
G1 F300 X-14.75888 Y42.65632
G1 F300 X-14.66899 Y42.72899
G1 F300 X-11.71302 Y45.68496
G1 F300 X-6.24498 Y45.68496
G1 F300 X-6.13474 Y45.69622
G1 F300 X-6.01719 Y45.73338
G1 F300 X-5.91580 Y45.79192
G1 F300 X-5.82880 Y45.87026
G1 F300 X-5.76342 Y45.95972
G1 F300 X-5.71074 Y46.07798
G1 F300 X-5.68770 Y46.19271
G1 F300 X-5.68903 Y46.30970
G1 F300 X-5.73139 Y46.46154
G1 F300 X-5.47386 Y46.72357
G1 F300 X-5.43497 Y46.84498
;G04 P0 ; dwell for no time -- G64 should not smooth over this point 
G1 F3000 Z3.00000 ; retract 

G1 F3000 X-4.93498 Y45.14499 ; rapid move to begin. 
G1 F300 F300.00000
G1 F300 Z-0.07000
;G04 P0 ; dwell for no time -- G64 should not smooth over this point 
G1 F300 F600.00000
G1 F300 X-4.93498 Y45.14499
G1 F300 X-4.93614 Y48.65669
G1 F300 X-4.95255 Y48.68742
G1 F300 X-4.98329 Y48.70383
G1 F300 X-5.30670 Y48.70383
G1 F300 X-5.34488 Y48.67833
G1 F300 X-5.35499 Y48.64498
G1 F300 X-5.35496 Y45.23196
G1 F300 X-5.52687 Y45.06005
G1 F300 X-5.63475 Y45.09373
G1 F300 X-5.74498 Y45.10498
G1 F300 X-6.75085 Y45.10468
G1 F300 X-6.85994 Y45.09279
G1 F300 X-6.96459 Y45.05982
G1 F300 X-7.06080 Y45.00709
G1 F300 X-7.14094 Y44.94095
G1 F300 X-13.24095 Y38.84096
G1 F300 X-13.30709 Y38.76085
G1 F300 X-13.35983 Y38.66461
G1 F300 X-13.39508 Y38.54840
G1 F300 X-13.40499 Y37.77693
G1 F300 X-17.65695 Y33.52497
G1 F300 X-20.23093 Y33.52497
G1 F300 X-20.33609 Y33.64125
G1 F300 X-20.48473 Y33.74966
G1 F300 X-20.66377 Y33.83045
G1 F300 X-20.85613 Y33.87033
G1 F300 X-21.04010 Y33.87000
G1 F300 X-21.22621 Y33.83045
G1 F300 X-21.39999 Y33.75306
G1 F300 X-21.55834 Y33.63680
G1 F300 X-21.68462 Y33.49462
G1 F300 X-21.77632 Y33.33513
G1 F300 X-21.83347 Y33.16025
G1 F300 X-21.85498 Y32.96497
G1 F300 X-21.83608 Y32.78199
G1 F300 X-21.77632 Y32.59485
G1 F300 X-21.67723 Y32.42522
G1 F300 X-21.55389 Y32.28873
G1 F300 X-21.39440 Y32.17404
G1 F300 X-21.22013 Y32.09790
G1 F300 X-21.04010 Y32.05997
G1 F300 X-20.85613 Y32.05964
G1 F300 X-20.66377 Y32.09952
G1 F300 X-20.48999 Y32.17691
G1 F300 X-20.34096 Y32.28476
G1 F300 X-20.23098 Y32.40496
G1 F300 X-17.42499 Y32.40496
G1 F300 X-17.32156 Y32.41486
G1 F300 X-17.21623 Y32.44560
G1 F300 X-17.10914 Y32.50285
G1 F300 X-12.44504 Y37.15336
G1 F300 X-12.33013 Y37.32534
G1 F300 X-12.29488 Y37.44155
G1 F300 X-12.28497 Y38.21302
G1 F300 X-6.51300 Y43.98497
G1 F300 X-5.63475 Y43.99622
G1 F300 X-5.51161 Y44.03625
G1 F300 X-5.41580 Y44.09193
G1 F300 X-5.33325 Y44.16582
G1 F300 X-5.25715 Y44.27057
G1 F300 X-5.21074 Y44.37798
G1 F300 X-5.18903 Y44.48024
G1 F300 X-5.18903 Y44.60971
G1 F300 X-5.23139 Y44.76157
G1 F300 X-4.97386 Y45.02357
G1 F300 X-4.93498 Y45.14499
;G04 P0 ; dwell for no time -- G64 should not smooth over this point 
G1 F3000 Z3.00000 ; retract 

G1 F3000 X-2.38499 Y41.44499 ; rapid move to begin. 
G1 F300 F300.00000
G1 F300 Z-0.07000
;G04 P0 ; dwell for no time -- G64 should not smooth over this point 
G1 F300 F600.00000
G1 F300 X-2.38499 Y41.44499
G1 F300 X-2.40717 Y41.23080
G1 F300 X-2.47438 Y41.01972
G1 F300 X-2.59139 Y40.81705
G1 F300 X-2.73572 Y40.65726
G1 F300 X-2.92058 Y40.52414
G1 F300 X-3.11743 Y40.43687
G1 F300 X-3.32799 Y40.39178
G1 F300 X-3.55578 Y40.39079
G1 F300 X-3.76647 Y40.43524
G1 F300 X-3.98027 Y40.53042
G1 F300 X-4.15426 Y40.65726
G1 F300 X-4.29860 Y40.81705
G1 F300 X-4.41560 Y41.01972
G1 F300 X-4.48280 Y41.23080
G1 F300 X-4.50465 Y41.43872
G1 F300 X-4.48019 Y41.67143
G1 F300 X-4.41334 Y41.87613
G1 F300 X-4.30597 Y42.06277
G1 F300 X-4.15426 Y42.23272
G1 F300 X-4.00498 Y42.34159
G1 F300 X-4.00498 Y42.62721
G1 F300 X-4.23096 Y42.85365
G1 F300 X-4.30358 Y42.94542
G1 F300 X-4.35357 Y43.04428
G1 F300 X-4.38387 Y43.15739
G1 F300 X-4.39002 Y43.26800
G1 F300 X-4.37163 Y43.39018
G1 F300 X-4.34402 Y43.46125
G1 F300 X-4.79347 Y43.91070
G1 F300 X-4.85179 Y44.02406
G1 F300 X-4.85499 Y48.64498
G1 F300 X-4.84488 Y48.67833
G1 F300 X-4.81796 Y48.70043
G1 F300 X-4.48329 Y48.70383
G1 F300 X-4.45255 Y48.68742
G1 F300 X-4.43498 Y48.64498
G1 F300 X-4.43498 Y44.14618
G1 F300 X-4.04702 Y43.75822
G1 F300 X-3.86632 Y43.80356
G1 F300 X-3.74940 Y43.79874
G1 F300 X-3.63008 Y43.76777
G1 F300 X-3.52578 Y43.71464
G1 F300 X-3.43480 Y43.64095
G1 F300 X-2.98286 Y43.17501
G1 F300 X-2.92561 Y43.06793
G1 F300 X-2.89487 Y42.96259
G1 F300 X-2.88497 Y42.34156
G1 F300 X-2.73572 Y42.23272
G1 F300 X-2.59139 Y42.07293
G1 F300 X-2.47948 Y41.88172
G1 F300 X-2.40978 Y41.67143
G1 F300 X-2.38499 Y41.44499
;G04 P0 ; dwell for no time -- G64 should not smooth over this point 
G1 F3000 Z3.00000 ; retract 

G1 F3000 X-0.61797 Y44.91011 ; rapid move to begin. 
G1 F300 F300.00000
G1 F300 Z-0.07000
;G04 P0 ; dwell for no time -- G64 should not smooth over this point 
G1 F300 F600.00000
G1 F300 X-0.61797 Y44.91011
G1 F300 X-0.61797 Y64.48498
G1 F300 X-0.65299 Y64.59359
G1 F300 X-0.73341 Y64.65772
G1 F300 X-0.80499 Y64.67197
G1 F300 X-13.99889 Y64.67197
G1 F300 X-14.11271 Y64.63306
G1 F300 X-14.17768 Y64.53898
G1 F300 X-14.17141 Y64.00878
G1 F300 X-14.22119 Y63.95899
G1 F300 X-14.56031 Y63.95899
G1 F300 X-14.56163 Y64.13263
G1 F300 X-14.58563 Y64.22280
G1 F300 X-14.65332 Y64.31998
G1 F300 X-14.77557 Y64.39191
G1 F300 X-14.86373 Y64.40499
G1 F300 X-15.35124 Y64.40499
G1 F300 X-15.43940 Y64.39191
G1 F300 X-15.52472 Y64.35028
G1 F300 X-15.60684 Y64.26494
G1 F300 X-15.65337 Y64.13248
G1 F300 X-15.65383 Y63.16484
G1 F300 X-15.63241 Y63.07386
G1 F300 X-15.56998 Y62.97833
G1 F300 X-15.51494 Y62.93314
G1 F300 X-15.42149 Y62.89385
G1 F300 X-15.42149 Y62.54617
G1 F300 X-15.47186 Y62.49580
G1 F300 X-15.58723 Y62.49405
G1 F300 X-15.68281 Y62.50345
G1 F300 X-15.90920 Y62.58966
G1 F300 X-15.98532 Y62.58242
G1 F300 X-16.05217 Y62.54528
G1 F300 X-16.09855 Y62.48447
G1 F300 X-16.11397 Y62.43619
G1 F300 X-16.11273 Y62.02392
G1 F300 X-16.07059 Y61.93939
G1 F300 X-15.89665 Y61.81328
G1 F300 X-15.84067 Y61.74505
G1 F300 X-15.74656 Y61.54109
G1 F300 X-15.69193 Y61.49509
G1 F300 X-15.62403 Y61.47292
G1 F300 X-15.55278 Y61.47782
G1 F300 X-15.49840 Y61.50307
G1 F300 X-15.39914 Y61.60332
G1 F300 X-15.19485 Y61.75572
G1 F300 X-14.90115 Y61.88519
G1 F300 X-14.83899 Y61.85237
G1 F300 X-14.83899 Y61.49461
G1 F300 X-14.97974 Y61.43322
G1 F300 X-15.12901 Y61.32519
G1 F300 X-15.25723 Y61.18476
G1 F300 X-15.35632 Y61.01511
G1 F300 X-15.41608 Y60.82799
G1 F300 X-15.43498 Y60.64498
G1 F300 X-15.41608 Y60.46200
G1 F300 X-15.35858 Y60.28072
G1 F300 X-15.25723 Y60.10523
G1 F300 X-15.08499 Y59.93279
G1 F300 X-15.08499 Y59.48191
G1 F300 X-15.19485 Y59.53424
G1 F300 X-15.39868 Y59.68628
G1 F300 X-15.51662 Y59.79825
G1 F300 X-15.62119 Y59.81730
G1 F300 X-15.72147 Y59.77447
G1 F300 X-15.76594 Y59.71953
G1 F300 X-15.84067 Y59.54488
G1 F300 X-15.89668 Y59.47666
G1 F300 X-16.05029 Y59.37023
G1 F300 X-16.10498 Y59.29317
G1 F300 X-16.11697 Y59.22730
G1 F300 X-16.11699 Y58.56266
G1 F300 X-16.10501 Y58.49678
G1 F300 X-16.07056 Y58.43935
G1 F300 X-15.89665 Y58.31329
G1 F300 X-15.84067 Y58.24506
G1 F300 X-15.74656 Y58.04110
G1 F300 X-15.69193 Y57.99510
G1 F300 X-15.63528 Y57.97544
G1 F300 X-15.55278 Y57.97783
G1 F300 X-15.48903 Y58.00874
G1 F300 X-15.39911 Y58.10336
G1 F300 X-15.19485 Y58.25573
G1 F300 X-15.08499 Y58.30805
G1 F300 X-15.08499 Y57.85718
G1 F300 X-15.26119 Y57.67986
G1 F300 X-15.35632 Y57.51512
G1 F300 X-15.41608 Y57.32799
G1 F300 X-15.43465 Y57.13871
G1 F300 X-15.41608 Y56.96198
G1 F300 X-15.35858 Y56.78073
G1 F300 X-15.26462 Y56.61537
G1 F300 X-15.12901 Y56.46478
G1 F300 X-14.97974 Y56.35675
G1 F300 X-14.83899 Y56.29536
G1 F300 X-14.83899 Y55.93757
G1 F300 X-14.90115 Y55.90476
G1 F300 X-15.19485 Y56.03422
G1 F300 X-15.39911 Y56.18662
G1 F300 X-15.48903 Y56.28121
G1 F300 X-15.55278 Y56.31212
G1 F300 X-15.62403 Y56.31702
G1 F300 X-15.69193 Y56.29485
G1 F300 X-15.74656 Y56.24885
G1 F300 X-15.84067 Y56.04489
G1 F300 X-15.89665 Y55.97666
G1 F300 X-16.06873 Y55.85258
G1 F300 X-16.11392 Y55.76102
G1 F300 X-16.11397 Y55.45375
G1 F300 X-16.08565 Y55.38271
G1 F300 X-16.03124 Y55.32896
G1 F300 X-15.95985 Y55.30153
G1 F300 X-15.90917 Y55.30031
G1 F300 X-15.68281 Y55.38649
G1 F300 X-15.58720 Y55.39592
G1 F300 X-15.47186 Y55.39417
G1 F300 X-15.42149 Y55.34377
G1 F300 X-15.42149 Y54.99612
G1 F300 X-15.52472 Y54.95030
G1 F300 X-15.60028 Y54.87471
G1 F300 X-15.63386 Y54.81192
G1 F300 X-15.65499 Y54.70115
G1 F300 X-15.65337 Y53.75747
G1 F300 X-15.62934 Y53.66717
G1 F300 X-15.56998 Y53.57832
G1 F300 X-15.51494 Y53.53316
G1 F300 X-15.42149 Y53.49386
G1 F300 X-15.42149 Y53.14616
G1 F300 X-15.47186 Y53.09580
G1 F300 X-15.58725 Y53.09402
G1 F300 X-15.87727 Y53.14428
G1 F300 X-15.96962 Y53.10121
G1 F300 X-16.02893 Y53.00413
G1 F300 X-16.03450 Y51.27998
G1 F300 X-16.00297 Y51.17606
G1 F300 X-15.94633 Y51.12143
G1 F300 X-15.84753 Y51.09296
G1 F300 X-9.64896 Y51.09544
G1 F300 X-9.55866 Y51.13707
G1 F300 X-9.37380 Y51.29984
G1 F300 X-9.23959 Y51.37563
G1 F300 X-9.19115 Y51.43705
G1 F300 X-9.17228 Y51.50451
G1 F300 X-9.17888 Y51.57139
G1 F300 X-9.26087 Y51.72272
G1 F300 X-9.29590 Y51.90273
G1 F300 X-9.29415 Y52.01807
G1 F300 X-9.24375 Y52.06847
G1 F300 X-8.89611 Y52.06847
G1 F300 X-8.85681 Y51.97502
G1 F300 X-8.81165 Y51.92000
G1 F300 X-8.72280 Y51.86062
G1 F300 X-8.63250 Y51.83662
G1 F300 X-7.68882 Y51.83497
G1 F300 X-7.57805 Y51.85612
G1 F300 X-7.51526 Y51.88968
G1 F300 X-7.43969 Y51.96522
G1 F300 X-7.39385 Y52.06847
G1 F300 X-7.04617 Y52.06847
G1 F300 X-6.99578 Y52.01807
G1 F300 X-7.00345 Y51.80718
G1 F300 X-7.07068 Y51.64485
G1 F300 X-7.23637 Y51.46827
G1 F300 X-7.25760 Y51.39867
G1 F300 X-7.25064 Y51.32623
G1 F300 X-7.05666 Y51.04025
G1 F300 X-7.00896 Y50.99796
G1 F300 X-6.91054 Y50.96992
G1 F300 X-6.69878 Y50.97416
G1 F300 X-6.63629 Y51.00012
G1 F300 X-6.47348 Y51.13746
G1 F300 X-6.31343 Y51.22646
G1 F300 X-6.26957 Y51.27657
G1 F300 X-6.24600 Y51.33923
G1 F300 X-6.24605 Y53.03580
G1 F300 X-6.23650 Y53.13275
G1 F300 X-6.16926 Y53.29508
G1 F300 X-6.04508 Y53.41926
G1 F300 X-5.88278 Y53.48650
G1 F300 X-5.38857 Y53.48685
G1 F300 X-5.15827 Y53.39099
G1 F300 X-5.08816 Y53.39902
G1 F300 X-4.85497 Y53.50557
G1 F300 X-4.85499 Y52.55495
G1 F300 X-4.93500 Y52.55495
G1 F300 X-4.93498 Y53.04500
G1 F300 X-4.95255 Y53.08741
G1 F300 X-4.99500 Y53.10499
G1 F300 X-5.29499 Y53.10499
G1 F300 X-5.32832 Y53.09488
G1 F300 X-5.35385 Y53.05671
G1 F300 X-5.35385 Y51.63329
G1 F300 X-5.32832 Y51.59509
G1 F300 X-5.29499 Y51.58498
G1 F300 X-4.99500 Y51.58498
G1 F300 X-4.95255 Y51.60256
G1 F300 X-4.93498 Y51.64500
G1 F300 X-4.93500 Y52.13496
G1 F300 X-4.85499 Y52.13496
G1 F300 X-4.85497 Y51.34495
G1 F300 X-4.82062 Y51.23014
G1 F300 X-4.97351 Y51.16214
G1 F300 X-5.01844 Y51.11292
G1 F300 X-5.04371 Y51.04845
G1 F300 X-5.04635 Y50.67134
G1 F300 X-5.01069 Y50.53080
G1 F300 X-4.99238 Y50.34498
G1 F300 X-5.01069 Y50.15915
G1 F300 X-5.06490 Y49.98043
G1 F300 X-5.15293 Y49.81574
G1 F300 X-5.24183 Y49.70741
G1 F300 X-5.56490 Y49.37955
G1 F300 X-5.59690 Y49.27409
G1 F300 X-5.57582 Y49.18846
G1 F300 X-5.50627 Y49.11455
G1 F300 X-5.40980 Y49.08686
G1 F300 X-4.00417 Y49.09603
G1 F300 X-3.85497 Y49.07170
G1 F300 X-3.84488 Y47.21166
G1 F300 X-3.79500 Y47.18499
G1 F300 X-3.46165 Y47.19510
G1 F300 X-3.43498 Y47.24498
G1 F300 X-3.43498 Y47.64869
G1 F300 X-3.35692 Y47.63096
G1 F300 X-3.09619 Y47.63096
G1 F300 X-3.04641 Y47.58118
G1 F300 X-3.04405 Y47.26197
G1 F300 X-3.07661 Y47.07864
G1 F300 X-3.13404 Y46.95222
G1 F300 X-3.13577 Y46.88021
G1 F300 X-3.09426 Y46.79032
G1 F300 X-3.04120 Y46.74742
G1 F300 X-2.81575 Y46.63701
G1 F300 X-2.67115 Y46.51834
G1 F300 X-0.92810 Y44.77041
G1 F300 X-0.87654 Y44.73734
G1 F300 X-0.81667 Y44.72426
G1 F300 X-0.73341 Y44.73734
G1 F300 X-0.67275 Y44.77788
G1 F300 X-0.63775 Y44.82817
G1 F300 X-0.61797 Y44.91011
;G04 P0 ; dwell for no time -- G64 should not smooth over this point 
G1 F3000 Z3.00000 ; retract 

G1 F3000 X-3.04405 Y48.62796 ; rapid move to begin. 
G1 F300 F300.00000
G1 F300 Z-0.07000
;G04 P0 ; dwell for no time -- G64 should not smooth over this point 
G1 F300 F600.00000
G1 F300 X-3.04405 Y48.62796
G1 F300 X-3.05215 Y48.72588
G1 F300 X-3.11682 Y48.88920
G1 F300 X-3.23907 Y49.01531
G1 F300 X-3.39528 Y49.08346
G1 F300 X-3.43498 Y49.04376
G1 F300 X-3.43498 Y48.24137
G1 F300 X-3.38217 Y48.25654
G1 F300 X-3.09640 Y48.25877
G1 F300 X-3.04641 Y48.30876
G1 F300 X-3.04405 Y48.62796
;G04 P0 ; dwell for no time -- G64 should not smooth over this point 
G1 F3000 Z3.00000 ; retract 

G1 F3000 X-3.93498 Y51.64500 ; rapid move to begin. 
G1 F300 F300.00000
G1 F300 Z-0.07000
;G04 P0 ; dwell for no time -- G64 should not smooth over this point 
G1 F300 F600.00000
G1 F300 X-3.93498 Y51.64500
G1 F300 X-3.93815 Y54.68012
G1 F300 X-3.99253 Y54.78911
G1 F300 X-4.33139 Y55.12838
G1 F300 X-4.28903 Y55.28025
G1 F300 X-4.28771 Y55.39724
G1 F300 X-4.31237 Y55.51802
G1 F300 X-4.36342 Y55.63023
G1 F300 X-4.42880 Y55.71969
G1 F300 X-4.52108 Y55.80145
G1 F300 X-4.61720 Y55.85657
G1 F300 X-4.72248 Y55.89112
G1 F300 X-4.83871 Y55.90465
G1 F300 X-7.41300 Y55.90499
G1 F300 X-8.54592 Y57.03788
G1 F300 X-8.53499 Y57.14499
G1 F300 X-8.55389 Y57.32799
G1 F300 X-8.61366 Y57.51512
G1 F300 X-8.71274 Y57.68476
G1 F300 X-8.88498 Y57.85718
G1 F300 X-8.88498 Y59.93279
G1 F300 X-8.70878 Y60.11011
G1 F300 X-8.61142 Y60.28072
G1 F300 X-8.55389 Y60.46200
G1 F300 X-8.53532 Y60.63871
G1 F300 X-8.55651 Y60.84026
G1 F300 X-8.61650 Y61.02072
G1 F300 X-8.70535 Y61.17460
G1 F300 X-8.83164 Y61.31681
G1 F300 X-8.98473 Y61.42964
G1 F300 X-9.15793 Y61.50820
G1 F300 X-9.34365 Y61.54902
G1 F300 X-9.53385 Y61.55034
G1 F300 X-9.72620 Y61.51046
G1 F300 X-9.90525 Y61.42964
G1 F300 X-10.05833 Y61.31681
G1 F300 X-10.18119 Y61.17988
G1 F300 X-10.27347 Y61.02072
G1 F300 X-10.33347 Y60.84026
G1 F300 X-10.35465 Y60.65125
G1 F300 X-10.33608 Y60.46200
G1 F300 X-10.27632 Y60.27485
G1 F300 X-10.17723 Y60.10523
G1 F300 X-10.00499 Y59.93279
G1 F300 X-10.00499 Y57.85718
G1 F300 X-10.18119 Y57.67986
G1 F300 X-10.27632 Y57.51512
G1 F300 X-10.33347 Y57.34026
G1 F300 X-10.35465 Y57.15126
G1 F300 X-10.33347 Y56.94971
G1 F300 X-10.27632 Y56.77486
G1 F300 X-10.18462 Y56.61537
G1 F300 X-10.04901 Y56.46478
G1 F300 X-9.89440 Y56.35406
G1 F300 X-9.73204 Y56.28177
G1 F300 X-9.53385 Y56.23966
G1 F300 X-9.33481 Y56.24283
G1 F300 X-8.04094 Y54.94901
G1 F300 X-7.95102 Y54.87634
G1 F300 X-7.85371 Y54.82561
G1 F300 X-7.74838 Y54.79488
G1 F300 X-7.64498 Y54.78497
G1 F300 X-4.84498 Y54.78497
G1 F300 X-4.73475 Y54.79622
G1 F300 X-4.62687 Y54.82990
G1 F300 X-4.35497 Y54.55800
G1 F300 X-4.35382 Y51.63329
G1 F300 X-4.33741 Y51.60256
G1 F300 X-4.30668 Y51.58615
G1 F300 X-3.99500 Y51.58498
G1 F300 X-3.95255 Y51.60256
G1 F300 X-3.93498 Y51.64500
;G04 P0 ; dwell for no time -- G64 should not smooth over this point 
G1 F3000 Z3.00000 ; retract 

G1 F3000 X-2.38497 Y55.04499 ; rapid move to begin. 
G1 F300 F300.00000
G1 F300 Z-0.07000
;G04 P0 ; dwell for no time -- G64 should not smooth over this point 
G1 F300 F600.00000
G1 F300 X-2.38497 Y55.04499
G1 F300 X-2.38497 Y57.14499
G1 F300 X-2.39487 Y57.24839
G1 F300 X-2.42561 Y57.35372
G1 F300 X-2.48286 Y57.46081
G1 F300 X-2.72914 Y57.70709
G1 F300 X-2.83622 Y57.76434
G1 F300 X-2.94156 Y57.79508
G1 F300 X-5.51300 Y57.80498
G1 F300 X-6.68496 Y58.97694
G1 F300 X-6.68496 Y61.64498
G1 F300 X-6.69486 Y61.74838
G1 F300 X-6.72560 Y61.85372
G1 F300 X-6.77632 Y61.95102
G1 F300 X-6.84899 Y62.04094
G1 F300 X-8.42913 Y63.60708
G1 F300 X-8.53621 Y63.66433
G1 F300 X-8.64155 Y63.69506
G1 F300 X-8.74498 Y63.70497
G1 F300 X-10.68706 Y63.70497
G1 F300 X-10.79046 Y63.69506
G1 F300 X-10.89580 Y63.66433
G1 F300 X-10.99310 Y63.61361
G1 F300 X-11.08302 Y63.54094
G1 F300 X-12.44710 Y62.16291
G1 F300 X-12.50435 Y62.05580
G1 F300 X-12.53509 Y61.95046
G1 F300 X-12.54499 Y61.35720
G1 F300 X-12.72119 Y61.17988
G1 F300 X-12.81632 Y61.01511
G1 F300 X-12.87347 Y60.84026
G1 F300 X-12.89465 Y60.65125
G1 F300 X-12.87608 Y60.46200
G1 F300 X-12.81632 Y60.27485
G1 F300 X-12.72119 Y60.11011
G1 F300 X-12.54499 Y59.93279
G1 F300 X-12.54499 Y57.85718
G1 F300 X-12.72119 Y57.67986
G1 F300 X-12.81632 Y57.51512
G1 F300 X-12.87608 Y57.32799
G1 F300 X-12.89498 Y57.14499
G1 F300 X-12.87347 Y56.94971
G1 F300 X-12.81347 Y56.76927
G1 F300 X-12.72119 Y56.61011
G1 F300 X-12.59833 Y56.47316
G1 F300 X-12.44525 Y56.36033
G1 F300 X-12.26620 Y56.27953
G1 F300 X-12.08632 Y56.24095
G1 F300 X-11.88365 Y56.24095
G1 F300 X-11.69793 Y56.28177
G1 F300 X-11.53557 Y56.35406
G1 F300 X-11.38096 Y56.46478
G1 F300 X-11.25274 Y56.60521
G1 F300 X-11.15366 Y56.77486
G1 F300 X-11.09389 Y56.96198
G1 F300 X-11.07499 Y57.14499
G1 F300 X-11.09389 Y57.32799
G1 F300 X-11.15142 Y57.50925
G1 F300 X-11.25274 Y57.68476
G1 F300 X-11.42498 Y57.85718
G1 F300 X-11.42498 Y59.93279
G1 F300 X-11.24878 Y60.11011
G1 F300 X-11.15366 Y60.27485
G1 F300 X-11.09389 Y60.46200
G1 F300 X-11.07532 Y60.65125
G1 F300 X-11.09651 Y60.84026
G1 F300 X-11.15366 Y61.01511
G1 F300 X-11.25274 Y61.18476
G1 F300 X-11.42498 Y61.35720
G1 F300 X-11.42498 Y61.61508
G1 F300 X-10.45508 Y62.58496
G1 F300 X-8.97693 Y62.58496
G1 F300 X-7.80497 Y61.41300
G1 F300 X-7.80467 Y58.73909
G1 F300 X-7.79278 Y58.63000
G1 F300 X-7.75981 Y58.52535
G1 F300 X-7.70708 Y58.42914
G1 F300 X-7.64094 Y58.34900
G1 F300 X-6.14094 Y56.84900
G1 F300 X-6.05103 Y56.77633
G1 F300 X-5.95372 Y56.72561
G1 F300 X-5.84838 Y56.69487
G1 F300 X-5.74496 Y56.68497
G1 F300 X-3.50498 Y56.68497
G1 F300 X-3.50498 Y55.04499
G1 F300 X-3.49373 Y54.93476
G1 F300 X-3.46005 Y54.82688
G1 F300 X-3.79741 Y54.48911
G1 F300 X-3.83648 Y54.43067
G1 F300 X-3.85469 Y54.35086
G1 F300 X-3.85499 Y51.64500
G1 F300 X-3.84488 Y51.61165
G1 F300 X-3.81796 Y51.58955
G1 F300 X-3.48329 Y51.58615
G1 F300 X-3.45256 Y51.60256
G1 F300 X-3.43615 Y51.63329
G1 F300 X-3.43498 Y54.25800
G1 F300 X-3.16155 Y54.53140
G1 F300 X-3.00971 Y54.48904
G1 F300 X-2.88024 Y54.48904
G1 F300 X-2.77194 Y54.51238
G1 F300 X-2.67057 Y54.55716
G1 F300 X-2.57514 Y54.62488
G1 F300 X-2.49589 Y54.71093
G1 F300 X-2.43338 Y54.81720
G1 F300 X-2.39622 Y54.93476
G1 F300 X-2.38497 Y55.04499
;G04 P0 ; dwell for no time -- G64 should not smooth over this point 
G1 F3000 Z3.00000 ; retract 

G1 F3000 X-1.99236 Y57.14463 ; rapid move to begin. 
G1 F300 F300.00000
G1 F300 Z-0.07000
;G04 P0 ; dwell for no time -- G64 should not smooth over this point 
G1 F300 F600.00000
G1 F300 X-1.99236 Y57.14463
G1 F300 X-1.99698 Y54.99841
G1 F300 X-2.01070 Y54.85914
G1 F300 X-2.06490 Y54.68043
G1 F300 X-2.15294 Y54.51576
G1 F300 X-2.27140 Y54.37138
G1 F300 X-2.41573 Y54.25294
G1 F300 X-2.58045 Y54.16491
G1 F300 X-2.75954 Y54.11055
G1 F300 X-2.92233 Y54.08843
G1 F300 X-2.99464 Y54.04235
G1 F300 X-3.03747 Y53.96953
G1 F300 X-3.04392 Y51.65412
G1 F300 X-3.07907 Y51.47271
G1 F300 X-3.12068 Y51.39483
G1 F300 X-3.24486 Y51.27065
G1 F300 X-3.40714 Y51.20342
G1 F300 X-4.19693 Y51.19389
G1 F300 X-4.43498 Y51.43194
G1 F300 X-4.44044 Y53.99165
G1 F300 X-4.47386 Y54.06638
G1 F300 X-4.53335 Y54.12262
G1 F300 X-4.60983 Y54.15180
G1 F300 X-4.74298 Y54.15498
G1 F300 X-4.75723 Y54.28154
G1 F300 X-4.79776 Y54.34220
G1 F300 X-4.85842 Y54.38274
G1 F300 X-4.93000 Y54.39699
G1 F300 X-7.64462 Y54.39236
G1 F300 X-7.83080 Y54.41068
G1 F300 X-8.00952 Y54.46491
G1 F300 X-8.17419 Y54.55294
G1 F300 X-8.31881 Y54.67161
G1 F300 X-9.46126 Y55.81548
G1 F300 X-9.52676 Y55.84296
G1 F300 X-9.82359 Y55.89686
G1 F300 X-10.05981 Y55.99470
G1 F300 X-10.27240 Y56.13676
G1 F300 X-10.45343 Y56.31779
G1 F300 X-10.58096 Y56.50308
G1 F300 X-10.67852 Y56.55614
G1 F300 X-10.75719 Y56.55472
G1 F300 X-10.83814 Y56.51243
G1 F300 X-10.97652 Y56.31779
G1 F300 X-11.15754 Y56.13676
G1 F300 X-11.37014 Y55.99470
G1 F300 X-11.60636 Y55.89686
G1 F300 X-11.85714 Y55.84697
G1 F300 X-12.11281 Y55.84697
G1 F300 X-12.36359 Y55.89686
G1 F300 X-12.59981 Y55.99470
G1 F300 X-12.81240 Y56.13676
G1 F300 X-12.99343 Y56.31779
G1 F300 X-13.13313 Y56.51746
G1 F300 X-13.18581 Y56.55187
G1 F300 X-13.25896 Y56.56729
G1 F300 X-13.37512 Y56.52774
G1 F300 X-13.48068 Y56.37552
G1 F300 X-13.65126 Y56.18626
G1 F300 X-13.85510 Y56.03422
G1 F300 X-14.14880 Y55.90476
G1 F300 X-14.21098 Y55.93757
G1 F300 X-14.21098 Y56.29536
G1 F300 X-14.07024 Y56.35675
G1 F300 X-13.92096 Y56.46478
G1 F300 X-13.78878 Y56.61011
G1 F300 X-13.69142 Y56.78073
G1 F300 X-13.63389 Y56.96198
G1 F300 X-13.61532 Y57.13871
G1 F300 X-13.63389 Y57.32799
G1 F300 X-13.69366 Y57.51512
G1 F300 X-13.79274 Y57.68476
G1 F300 X-13.96498 Y57.85718
G1 F300 X-13.96498 Y58.30805
G1 F300 X-13.85510 Y58.25573
G1 F300 X-13.65126 Y58.10369
G1 F300 X-13.48068 Y57.91443
G1 F300 X-13.40006 Y57.78540
G1 F300 X-13.29638 Y57.72619
G1 F300 X-13.19704 Y57.73363
G1 F300 X-13.12675 Y57.77846
G1 F300 X-12.96148 Y58.01123
G1 F300 X-12.93298 Y58.11009
G1 F300 X-12.93572 Y59.71051
G1 F300 X-12.96346 Y59.78217
G1 F300 X-13.12132 Y60.00465
G1 F300 X-13.16310 Y60.04010
G1 F300 X-13.23349 Y60.06538
G1 F300 X-13.30816 Y60.06103
G1 F300 X-13.36536 Y60.03485
G1 F300 X-13.40006 Y60.00455
G1 F300 X-13.48068 Y59.87554
G1 F300 X-13.65126 Y59.68628
G1 F300 X-13.85510 Y59.53424
G1 F300 X-13.96498 Y59.48191
G1 F300 X-13.96498 Y59.93279
G1 F300 X-13.78878 Y60.11011
G1 F300 X-13.69366 Y60.27485
G1 F300 X-13.63389 Y60.46200
G1 F300 X-13.61532 Y60.65125
G1 F300 X-13.63651 Y60.84026
G1 F300 X-13.69366 Y61.01511
G1 F300 X-13.78535 Y61.17460
G1 F300 X-13.92096 Y61.32519
G1 F300 X-14.07024 Y61.43322
G1 F300 X-14.21098 Y61.49461
G1 F300 X-14.21098 Y61.85237
G1 F300 X-14.14880 Y61.88519
G1 F300 X-13.85510 Y61.75572
G1 F300 X-13.65126 Y61.60368
G1 F300 X-13.48103 Y61.41480
G1 F300 X-13.37512 Y61.26220
G1 F300 X-13.29638 Y61.22618
G1 F300 X-13.19704 Y61.23363
G1 F300 X-13.10829 Y61.30068
G1 F300 X-12.94614 Y61.54135
G1 F300 X-12.91926 Y62.03289
G1 F300 X-12.86506 Y62.21160
G1 F300 X-12.77705 Y62.37627
G1 F300 X-12.65833 Y62.52090
G1 F300 X-11.36090 Y63.81830
G1 F300 X-11.21627 Y63.93700
G1 F300 X-11.05157 Y64.02506
G1 F300 X-10.87289 Y64.07926
G1 F300 X-10.68670 Y64.09760
G1 F300 X-8.74531 Y64.09760
G1 F300 X-8.55915 Y64.07926
G1 F300 X-8.38046 Y64.02506
G1 F300 X-8.21577 Y63.93700
G1 F300 X-8.07114 Y63.81830
G1 F300 X-6.57160 Y62.31879
G1 F300 X-6.45293 Y62.17419
G1 F300 X-6.36489 Y62.00952
G1 F300 X-6.31069 Y61.83080
G1 F300 X-6.29235 Y61.64462
G1 F300 X-6.29697 Y59.21511
G1 F300 X-6.28272 Y59.14354
G1 F300 X-6.24219 Y59.08288
G1 F300 X-5.40706 Y58.24775
G1 F300 X-5.33515 Y58.20379
G1 F300 X-5.27485 Y58.19297
G1 F300 X-3.04532 Y58.19759
G1 F300 X-2.85913 Y58.17925
G1 F300 X-2.68042 Y58.12505
G1 F300 X-2.51573 Y58.03701
G1 F300 X-2.37115 Y57.91834
G1 F300 X-2.15294 Y57.67420
G1 F300 X-2.06490 Y57.50953
G1 F300 X-2.01070 Y57.33081
G1 F300 X-1.99236 Y57.14463
;G04 P0 ; dwell for no time -- G64 should not smooth over this point 
G1 F3000 Z3.00000 ; retract 

G1 F3000 X-1.94697 Y61.47772 ; rapid move to begin. 
G1 F300 F300.00000
G1 F300 Z-0.07000
;G04 P0 ; dwell for no time -- G64 should not smooth over this point 
G1 F300 F600.00000
G1 F300 X-1.94697 Y61.47772
G1 F300 X-1.94697 Y61.81221
G1 F300 X-2.01222 Y62.14025
G1 F300 X-2.14024 Y62.44927
G1 F300 X-2.32604 Y62.72737
G1 F300 X-2.56256 Y62.96390
G1 F300 X-2.84067 Y63.14973
G1 F300 X-3.14969 Y63.27772
G1 F300 X-3.47773 Y63.34297
G1 F300 X-3.81219 Y63.34297
G1 F300 X-4.14026 Y63.27772
G1 F300 X-4.44928 Y63.14973
G1 F300 X-4.72738 Y62.96390
G1 F300 X-4.96391 Y62.72737
G1 F300 X-5.14971 Y62.44927
G1 F300 X-5.27772 Y62.14025
G1 F300 X-5.34298 Y61.81221
G1 F300 X-5.34298 Y61.47774
G1 F300 X-5.27772 Y61.14968
G1 F300 X-5.14971 Y60.84069
G1 F300 X-4.96391 Y60.56258
G1 F300 X-4.72738 Y60.32606
G1 F300 X-4.44928 Y60.14023
G1 F300 X-4.14026 Y60.01224
G1 F300 X-3.81219 Y59.94699
G1 F300 X-3.47775 Y59.94699
G1 F300 X-3.14969 Y60.01224
G1 F300 X-2.84067 Y60.14023
G1 F300 X-2.56256 Y60.32606
G1 F300 X-2.32604 Y60.56256
G1 F300 X-2.14024 Y60.84069
G1 F300 X-2.01222 Y61.14968
G1 F300 X-1.94697 Y61.47772
;G04 P0 ; dwell for no time -- G64 should not smooth over this point 
G1 F3000 Z3.00000 ; retract 

G1 F3000 X-14.16897 Y53.55345 ; rapid move to begin. 
G1 F300 F300.00000
G1 F300 Z-0.07000
;G04 P0 ; dwell for no time -- G64 should not smooth over this point 
G1 F300 F600.00000
G1 F300 X-14.16897 Y53.55345
G1 F300 X-14.17141 Y53.88119
G1 F300 X-14.22119 Y53.93097
G1 F300 X-14.56031 Y53.93097
G1 F300 X-14.56231 Y53.75315
G1 F300 X-14.59658 Y53.64426
G1 F300 X-14.69025 Y53.53969
G1 F300 X-14.79348 Y53.49458
G1 F300 X-14.79348 Y53.14616
G1 F300 X-14.74311 Y53.09580
G1 F300 X-14.62774 Y53.09402
G1 F300 X-14.53214 Y53.10344
G1 F300 X-14.36988 Y53.17065
G1 F300 X-14.24565 Y53.29486
G1 F300 X-14.20407 Y53.37266
G1 F300 X-14.16897 Y53.55345
;G04 P0 ; dwell for no time -- G64 should not smooth over this point 
G1 F3000 Z3.00000 ; retract 

G1 F3000 X-14.18858 Y54.59160 ; rapid move to begin. 
G1 F300 F300.00000
G1 F300 Z-0.07000
;G04 P0 ; dwell for no time -- G64 should not smooth over this point 
G1 F300 F600.00000
G1 F300 X-14.18858 Y54.59160
G1 F300 X-14.22119 Y54.55899
G1 F300 X-14.49775 Y54.55899
G1 F300 X-14.33681 Y54.73981
G1 F300 X-14.18858 Y54.59160
;G04 P0 ; dwell for no time -- G64 should not smooth over this point 
G1 F3000 Z3.00000 ; retract 

G1 F3000 X-14.65601 Y55.16689 ; rapid move to begin. 
G1 F300 F300.00000
G1 F300 Z-0.07000
;G04 P0 ; dwell for no time -- G64 should not smooth over this point 
G1 F300 F600.00000
G1 F300 X-14.65601 Y55.16689
G1 F300 X-14.66511 Y55.39406
G1 F300 X-14.74341 Y55.39384
G1 F300 X-14.79348 Y55.34377
G1 F300 X-14.79348 Y54.99612
G1 F300 X-14.70790 Y54.96102
G1 F300 X-14.65601 Y55.16689
;G04 P0 ; dwell for no time -- G64 should not smooth over this point 
G1 F3000 Z3.00000 ; retract 

G1 F3000 X-14.73498 Y62.49568 ; rapid move to begin. 
G1 F300 F300.00000
G1 F300 Z-0.07000
;G04 P0 ; dwell for no time -- G64 should not smooth over this point 
G1 F300 F600.00000
G1 F300 X-14.73498 Y62.49568
G1 F300 X-14.73498 Y62.91447
G1 F300 X-14.79348 Y62.89385
G1 F300 X-14.79348 Y62.54617
G1 F300 X-14.73498 Y62.49568
;G04 P0 ; dwell for no time -- G64 should not smooth over this point 
G1 F3000 Z3.00000 ; retract 

G1 F3000 X-14.16897 Y62.95343 ; rapid move to begin. 
G1 F300 F300.00000
G1 F300 Z-0.07000
;G04 P0 ; dwell for no time -- G64 should not smooth over this point 
G1 F300 F600.00000
G1 F300 X-14.16897 Y62.95343
G1 F300 X-14.17141 Y63.28120
G1 F300 X-14.22119 Y63.33098
G1 F300 X-14.49653 Y63.33098
G1 F300 X-14.35388 Y63.18386
G1 F300 X-14.32045 Y63.10914
G1 F300 X-14.31499 Y62.61572
G1 F300 X-14.24568 Y62.69489
G1 F300 X-14.20407 Y62.77269
G1 F300 X-14.16897 Y62.95343

;G04 P0 ; dwell for no time -- G64 should not smooth over this point 
G1 F3000 Z3.000 ; retract 

;M5 ; Spindle off. 
;G04 P1.000000
;M9 ; Coolant off. 
M0 ; Program end. 

