; pcb2gcode 2.0.0 
; Software-independent Gcode 

G94 ; Millimeters per minute feed rate. 
G21 ; Units == Millimeters. 

G90 ; Absolute coordinates. 
;G1 F3000 S10000 ; RPM spindle speed. 
G1 F300 F600.00000 ; Feedrate. 


G1 F3000 Z3.00000 ;Retract to tool change height
;T0
;M5      ;Spindle stop.
;G04 P1.00000 ;Wait for spindle to stop
;MSG, Change tool bit to mill diameter 0.12000mm
;M6      ;Tool change.
;M0      ;Temporary machine stop.
;M3 ; Spindle on clockwise. 
;G04 P1.00000 ;Wait for spindle to get up to speed
;G04 P0 ; dwell for no time -- G64 should not smooth over this point 
G1 F3000 Z3.00000 ; retract 

G1 F3000 X-2.23498 Y12.29499 ; rapid move to begin. 
G1 F300 F300.00000
G1 F300 Z-0.07000
;G04 P0 ; dwell for no time -- G64 should not smooth over this point 
G1 F300 F600.00000
G1 F300 X-2.23498 Y12.29499
G1 F300 X-2.23498 Y13.99499
G1 F300 X-2.25255 Y14.03741
G1 F300 X-2.29500 Y14.05498
G1 F300 X-4.00670 Y14.05384
G1 F300 X-4.03741 Y14.03741
G1 F300 X-4.05384 Y14.00670
G1 F300 X-4.05499 Y13.70497
G1 F300 X-8.16839 Y13.69507
G1 F300 X-8.28460 Y13.65981
G1 F300 X-8.45658 Y13.54490
G1 F300 X-9.08205 Y12.91986
G1 F300 X-9.23473 Y12.92029
G1 F300 X-9.40468 Y12.88453
G1 F300 X-9.56940 Y12.81262
G1 F300 X-9.72043 Y12.70408
G1 F300 X-9.84416 Y12.56522
G1 F300 X-9.93064 Y12.41478
G1 F300 X-9.98457 Y12.24986
G1 F300 X-10.00499 Y12.06499
G1 F300 X-9.98619 Y11.88618
G1 F300 X-9.93288 Y11.72105
G1 F300 X-9.83679 Y11.55461
G1 F300 X-9.72043 Y11.42588
G1 F300 X-9.56940 Y11.31735
G1 F300 X-9.40468 Y11.24546
G1 F300 X-9.23473 Y11.20968
G1 F300 X-9.08205 Y11.21011
G1 F300 X-7.70499 Y9.83302
G1 F300 X-7.70499 Y4.29694
G1 F300 X-9.08205 Y2.91988
G1 F300 X-9.23473 Y2.92028
G1 F300 X-9.40468 Y2.88452
G1 F300 X-9.56940 Y2.81261
G1 F300 X-9.72043 Y2.70410
G1 F300 X-9.84416 Y2.56522
G1 F300 X-9.93064 Y2.41477
G1 F300 X-9.98619 Y2.24378
G1 F300 X-10.00499 Y2.06499
G1 F300 X-9.98619 Y1.88617
G1 F300 X-9.93064 Y1.71521
G1 F300 X-9.84416 Y1.56476
G1 F300 X-9.72043 Y1.42587
G1 F300 X-9.58025 Y1.32361
G1 F300 X-9.40468 Y1.24546
G1 F300 X-9.23489 Y1.20970
G1 F300 X-9.05510 Y1.20970
G1 F300 X-8.87337 Y1.24932
G1 F300 X-8.70972 Y1.32361
G1 F300 X-8.56953 Y1.42587
G1 F300 X-8.45318 Y1.55460
G1 F300 X-8.35935 Y1.71521
G1 F300 X-8.30377 Y1.88617
G1 F300 X-8.29115 Y2.12684
G1 F300 X-6.74901 Y3.66900
G1 F300 X-6.68287 Y3.74914
G1 F300 X-6.63014 Y3.84535
G1 F300 X-6.59489 Y3.96156
G1 F300 X-6.58498 Y10.06500
G1 F300 X-6.59717 Y10.17996
G1 F300 X-6.67634 Y10.37104
G1 F300 X-6.74901 Y10.46096
G1 F300 X-8.29115 Y12.00312
G1 F300 X-8.29115 Y12.12684
G1 F300 X-7.83301 Y12.58496
G1 F300 X-4.05499 Y12.58496
G1 F300 X-4.05384 Y12.28328
G1 F300 X-4.03741 Y12.25255
G1 F300 X-4.00670 Y12.23614
G1 F300 X-2.29500 Y12.23500
G1 F300 X-2.25255 Y12.25255
G1 F300 X-2.23498 Y12.29499
;G04 P0 ; dwell for no time -- G64 should not smooth over this point 
G1 F3000 Z3.00000 ; retract 

G1 F3000 X-2.23498 Y15.68498 ; rapid move to begin. 
G1 F300 F300.00000
G1 F300 Z-0.07000
;G04 P0 ; dwell for no time -- G64 should not smooth over this point 
G1 F300 F600.00000
G1 F300 X-2.23498 Y15.68498
G1 F300 X-2.25390 Y15.50200
G1 F300 X-2.31140 Y15.32072
G1 F300 X-2.40879 Y15.15008
G1 F300 X-2.53165 Y15.01317
G1 F300 X-2.69558 Y14.89402
G1 F300 X-2.86378 Y14.81950
G1 F300 X-3.05613 Y14.77965
G1 F300 X-3.24630 Y14.78097
G1 F300 X-3.43205 Y14.82176
G1 F300 X-3.60525 Y14.90032
G1 F300 X-3.75390 Y15.00873
G1 F300 X-3.85900 Y15.12496
G1 F300 X-7.69084 Y15.12526
G1 F300 X-7.89371 Y15.16557
G1 F300 X-7.99102 Y15.21632
G1 F300 X-8.07657 Y15.28500
G1 F300 X-9.07695 Y16.28498
G1 F300 X-9.96795 Y16.28955
G1 F300 X-10.00385 Y16.33329
G1 F300 X-10.00499 Y16.58498
G1 F300 X-12.58497 Y16.58498
G1 F300 X-12.58497 Y11.37693
G1 F300 X-9.21304 Y8.00498
G1 F300 X-8.34500 Y8.00498
G1 F300 X-8.30255 Y7.98741
G1 F300 X-8.28498 Y7.94499
G1 F300 X-8.28498 Y6.34499
G1 F300 X-8.29511 Y6.31164
G1 F300 X-8.32203 Y6.28954
G1 F300 X-9.94499 Y6.28500
G1 F300 X-9.98741 Y6.30257
G1 F300 X-10.00499 Y6.34499
G1 F300 X-10.00499 Y7.21301
G1 F300 X-13.54095 Y10.74900
G1 F300 X-13.60709 Y10.82913
G1 F300 X-13.65982 Y10.92535
G1 F300 X-13.69279 Y11.03000
G1 F300 X-13.70498 Y11.14498
G1 F300 X-13.70498 Y17.14499
G1 F300 X-13.69279 Y17.25996
G1 F300 X-13.61362 Y17.45104
G1 F300 X-13.53658 Y17.54492
G1 F300 X-13.36460 Y17.65983
G1 F300 X-13.25995 Y17.69280
G1 F300 X-13.14499 Y17.70499
G1 F300 X-10.00499 Y17.70499
G1 F300 X-10.00385 Y17.95670
G1 F300 X-9.98741 Y17.98741
G1 F300 X-9.95670 Y18.00384
G1 F300 X-8.33329 Y18.00384
G1 F300 X-8.30255 Y17.98741
G1 F300 X-8.28498 Y17.94499
G1 F300 X-8.28498 Y17.07695
G1 F300 X-7.45300 Y16.24497
G1 F300 X-3.85905 Y16.24497
G1 F300 X-3.75390 Y16.36125
G1 F300 X-3.60525 Y16.46966
G1 F300 X-3.43205 Y16.54820
G1 F300 X-3.23383 Y16.59033
G1 F300 X-3.04366 Y16.58901
G1 F300 X-2.86378 Y16.55046
G1 F300 X-2.68471 Y16.46966
G1 F300 X-2.53607 Y16.36125
G1 F300 X-2.41272 Y16.22475
G1 F300 X-2.31140 Y16.04926
G1 F300 X-2.25390 Y15.86798
G1 F300 X-2.23498 Y15.68498
;G04 P0 ; dwell for no time -- G64 should not smooth over this point 
G1 F3000 Z3.00000 ; retract 

G1 F3000 X-15.90498 Y2.06499 ; rapid move to begin. 
G1 F300 F300.00000
G1 F300 Z-0.07000
;G04 P0 ; dwell for no time -- G64 should not smooth over this point 
G1 F300 F600.00000
G1 F300 X-15.90498 Y2.06499
G1 F300 X-15.92377 Y1.88617
G1 F300 X-15.98219 Y1.70959
G1 F300 X-16.07318 Y1.55460
G1 F300 X-16.18953 Y1.42587
G1 F300 X-16.32972 Y1.32361
G1 F300 X-16.49337 Y1.24932
G1 F300 X-16.68135 Y1.20936
G1 F300 X-16.85489 Y1.20970
G1 F300 X-17.02468 Y1.24546
G1 F300 X-17.18940 Y1.31737
G1 F300 X-17.34488 Y1.43032
G1 F300 X-17.45679 Y1.55460
G1 F300 X-17.54780 Y1.70959
G1 F300 X-17.60619 Y1.88617
G1 F300 X-17.61882 Y2.12684
G1 F300 X-19.62709 Y4.14914
G1 F300 X-19.68434 Y4.25622
G1 F300 X-19.71508 Y4.36156
G1 F300 X-19.72498 Y4.46498
G1 F300 X-19.72498 Y7.31301
G1 F300 X-22.03481 Y9.62284
G1 F300 X-22.23384 Y9.61964
G1 F300 X-22.43207 Y9.66177
G1 F300 X-22.59440 Y9.73406
G1 F300 X-22.74901 Y9.84478
G1 F300 X-22.88119 Y9.99009
G1 F300 X-22.97347 Y10.14925
G1 F300 X-23.03349 Y10.32972
G1 F300 X-23.05500 Y10.52499
G1 F300 X-23.03608 Y10.70797
G1 F300 X-22.97857 Y10.88925
G1 F300 X-22.88462 Y11.05461
G1 F300 X-22.74901 Y11.20520
G1 F300 X-22.59440 Y11.31592
G1 F300 X-22.42620 Y11.39045
G1 F300 X-22.24631 Y11.42903
G1 F300 X-22.05615 Y11.43032
G1 F300 X-21.85792 Y11.38819
G1 F300 X-21.68472 Y11.30965
G1 F300 X-21.53608 Y11.20124
G1 F300 X-21.40878 Y11.05987
G1 F300 X-21.31142 Y10.88925
G1 F300 X-21.25389 Y10.70797
G1 F300 X-21.23499 Y10.52499
G1 F300 X-21.24591 Y10.41788
G1 F300 X-18.70286 Y7.86081
G1 F300 X-18.64561 Y7.75373
G1 F300 X-18.61488 Y7.64839
G1 F300 X-18.60497 Y7.54499
G1 F300 X-18.60497 Y4.69694
G1 F300 X-16.82791 Y2.91988
G1 F300 X-16.67523 Y2.92028
G1 F300 X-16.49337 Y2.88063
G1 F300 X-16.32972 Y2.80634
G1 F300 X-16.18953 Y2.70410
G1 F300 X-16.06581 Y2.56522
G1 F300 X-15.97935 Y2.41477
G1 F300 X-15.92377 Y2.24378
G1 F300 X-15.90498 Y2.06499
;G04 P0 ; dwell for no time -- G64 should not smooth over this point 
G1 F3000 Z3.00000 ; retract 

G1 F3000 X-15.90498 Y7.14499 ; rapid move to begin. 
G1 F300 F300.00000
G1 F300 Z-0.07000
;G04 P0 ; dwell for no time -- G64 should not smooth over this point 
G1 F300 F600.00000
G1 F300 X-15.90498 Y7.14499
G1 F300 X-15.92377 Y7.32378
G1 F300 X-15.97935 Y7.49477
G1 F300 X-16.07318 Y7.65535
G1 F300 X-16.22042 Y7.80694
G1 F300 X-16.28384 Y7.97110
G1 F300 X-16.34361 Y8.05350
G1 F300 X-18.81198 Y10.82144
G1 F300 X-18.81198 Y11.87800
G1 F300 X-18.82417 Y11.99296
G1 F300 X-18.85714 Y12.09761
G1 F300 X-18.90987 Y12.19382
G1 F300 X-18.97601 Y12.27396
G1 F300 X-20.16301 Y13.46095
G1 F300 X-20.24314 Y13.52709
G1 F300 X-20.33936 Y13.57983
G1 F300 X-20.45556 Y13.61508
G1 F300 X-21.43095 Y13.62499
G1 F300 X-21.53608 Y13.74124
G1 F300 X-21.69559 Y13.85592
G1 F300 X-21.86379 Y13.93045
G1 F300 X-22.04367 Y13.96903
G1 F300 X-22.23384 Y13.97032
G1 F300 X-22.42620 Y13.93045
G1 F300 X-22.60524 Y13.84965
G1 F300 X-22.75833 Y13.73680
G1 F300 X-22.88119 Y13.59987
G1 F300 X-22.97857 Y13.42925
G1 F300 X-23.03608 Y13.24797
G1 F300 X-23.05500 Y13.06499
G1 F300 X-23.03349 Y12.86972
G1 F300 X-22.97347 Y12.68925
G1 F300 X-22.88119 Y12.53009
G1 F300 X-22.74901 Y12.38478
G1 F300 X-22.59440 Y12.27406
G1 F300 X-22.42620 Y12.19951
G1 F300 X-22.24631 Y12.16096
G1 F300 X-22.05615 Y12.15964
G1 F300 X-21.86379 Y12.19951
G1 F300 X-21.69559 Y12.27406
G1 F300 X-21.53608 Y12.38872
G1 F300 X-21.43095 Y12.50497
G1 F300 X-20.79095 Y12.50497
G1 F300 X-19.93199 Y11.64602
G1 F300 X-19.93174 Y10.60254
G1 F300 X-19.92150 Y10.50127
G1 F300 X-19.85313 Y10.32187
G1 F300 X-19.78991 Y10.23525
G1 F300 X-17.47035 Y7.63450
G1 F300 X-17.55064 Y7.49477
G1 F300 X-17.60619 Y7.32378
G1 F300 X-17.62499 Y7.14499
G1 F300 X-17.60718 Y6.97240
G1 F300 X-17.54780 Y6.78959
G1 F300 X-17.45679 Y6.63460
G1 F300 X-17.34043 Y6.50587
G1 F300 X-17.18940 Y6.39737
G1 F300 X-17.03660 Y6.32932
G1 F300 X-16.86108 Y6.29069
G1 F300 X-16.67510 Y6.28970
G1 F300 X-16.49337 Y6.32932
G1 F300 X-16.32972 Y6.40361
G1 F300 X-16.19441 Y6.50194
G1 F300 X-16.06581 Y6.64476
G1 F300 X-15.97935 Y6.79521
G1 F300 X-15.92540 Y6.96013
G1 F300 X-15.90498 Y7.14499
;G04 P0 ; dwell for no time -- G64 should not smooth over this point 
G1 F3000 Z3.00000 ; retract 

G1 F3000 X-15.90498 Y12.06499 ; rapid move to begin. 
G1 F300 F300.00000
G1 F300 Z-0.07000
;G04 P0 ; dwell for no time -- G64 should not smooth over this point 
G1 F300 F600.00000
G1 F300 X-15.90498 Y12.06499
G1 F300 X-15.92377 Y11.88618
G1 F300 X-15.98219 Y11.70960
G1 F300 X-16.07318 Y11.55461
G1 F300 X-16.18953 Y11.42588
G1 F300 X-16.32972 Y11.32362
G1 F300 X-16.49337 Y11.24932
G1 F300 X-16.68135 Y11.20937
G1 F300 X-16.86108 Y11.21069
G1 F300 X-17.03660 Y11.24932
G1 F300 X-17.18940 Y11.31735
G1 F300 X-17.34488 Y11.43032
G1 F300 X-17.45679 Y11.55461
G1 F300 X-17.54780 Y11.70960
G1 F300 X-17.60619 Y11.88618
G1 F300 X-17.61882 Y12.12687
G1 F300 X-20.49295 Y15.00098
G1 F300 X-20.89890 Y15.00098
G1 F300 X-21.00875 Y15.01188
G1 F300 X-21.11088 Y15.04497
G1 F300 X-21.43095 Y15.04497
G1 F300 X-21.53608 Y14.92872
G1 F300 X-21.68472 Y14.82034
G1 F300 X-21.86379 Y14.73951
G1 F300 X-22.04367 Y14.70096
G1 F300 X-22.23384 Y14.69964
G1 F300 X-22.43207 Y14.74177
G1 F300 X-22.60524 Y14.82034
G1 F300 X-22.75391 Y14.92872
G1 F300 X-22.88119 Y15.07007
G1 F300 X-22.97857 Y15.24073
G1 F300 X-23.03608 Y15.42199
G1 F300 X-23.05500 Y15.60499
G1 F300 X-23.03349 Y15.80024
G1 F300 X-22.97347 Y15.98071
G1 F300 X-22.87725 Y16.14474
G1 F300 X-22.75391 Y16.28124
G1 F300 X-22.60524 Y16.38965
G1 F300 X-22.42620 Y16.47045
G1 F300 X-22.23384 Y16.51032
G1 F300 X-22.04367 Y16.50903
G1 F300 X-21.85792 Y16.46819
G1 F300 X-21.68472 Y16.38965
G1 F300 X-21.53608 Y16.28124
G1 F300 X-21.43095 Y16.16499
G1 F300 X-20.94291 Y16.16499
G1 F300 X-20.83303 Y16.15409
G1 F300 X-20.73090 Y16.12099
G1 F300 X-20.25511 Y16.12069
G1 F300 X-20.14601 Y16.10880
G1 F300 X-19.95493 Y16.02963
G1 F300 X-19.86501 Y15.95696
G1 F300 X-16.82791 Y12.91988
G1 F300 X-16.67523 Y12.92029
G1 F300 X-16.49337 Y12.88064
G1 F300 X-16.32972 Y12.80634
G1 F300 X-16.18953 Y12.70408
G1 F300 X-16.06581 Y12.56522
G1 F300 X-15.97935 Y12.41478
G1 F300 X-15.92377 Y12.24379
G1 F300 X-15.90498 Y12.06499
;G04 P0 ; dwell for no time -- G64 should not smooth over this point 
G1 F3000 Z3.00000 ; retract 

G1 F3000 X-15.90498 Y17.14499 ; rapid move to begin. 
G1 F300 F300.00000
G1 F300 Z-0.07000
;G04 P0 ; dwell for no time -- G64 should not smooth over this point 
G1 F300 F600.00000
G1 F300 X-15.90498 Y17.14499
G1 F300 X-15.92377 Y16.96618
G1 F300 X-15.97935 Y16.79519
G1 F300 X-16.07318 Y16.63461
G1 F300 X-16.18953 Y16.50588
G1 F300 X-16.32972 Y16.40362
G1 F300 X-16.49337 Y16.32932
G1 F300 X-16.67510 Y16.28970
G1 F300 X-16.84861 Y16.28937
G1 F300 X-17.02468 Y16.32546
G1 F300 X-17.18940 Y16.39735
G1 F300 X-17.34043 Y16.50588
G1 F300 X-17.45679 Y16.63461
G1 F300 X-17.55064 Y16.79519
G1 F300 X-17.60457 Y16.96011
G1 F300 X-17.61882 Y17.20684
G1 F300 X-17.99695 Y17.58497
G1 F300 X-21.23499 Y17.58497
G1 F300 X-21.23613 Y17.28327
G1 F300 X-21.25257 Y17.25256
G1 F300 X-21.28327 Y17.23613
G1 F300 X-23.00669 Y17.23613
G1 F300 X-23.03742 Y17.25256
G1 F300 X-23.05500 Y17.29498
G1 F300 X-23.05383 Y19.00669
G1 F300 X-23.03742 Y19.03742
G1 F300 X-22.99498 Y19.05500
G1 F300 X-21.28327 Y19.05383
G1 F300 X-21.25257 Y19.03742
G1 F300 X-21.23613 Y19.00669
G1 F300 X-21.23499 Y18.70499
G1 F300 X-17.76499 Y18.70499
G1 F300 X-17.65001 Y18.69279
G1 F300 X-17.45892 Y18.61362
G1 F300 X-17.37338 Y18.54492
G1 F300 X-16.82791 Y17.99988
G1 F300 X-16.67523 Y18.00029
G1 F300 X-16.49337 Y17.96064
G1 F300 X-16.32972 Y17.88634
G1 F300 X-16.18953 Y17.78408
G1 F300 X-16.06581 Y17.64522
G1 F300 X-15.97935 Y17.49478
G1 F300 X-15.92377 Y17.32379
G1 F300 X-15.90498 Y17.14499

;G04 P0 ; dwell for no time -- G64 should not smooth over this point 
G1 F3000 Z3.000 ; retract 

;M5 ; Spindle off. 
;G04 P1.000000
;M9 ; Coolant off. 
M0 ; Program end. 

