; pcb2gcode 2.0.0 
; Software-independent Gcode 

; This file uses only one drill bit. Forced by 'onedrill' option 

G94       ;Millimeters per minute feed rate.
G21       ;Units == Millimeters.
G90       ;Absolute coordinates.
;G1 F3000 S10000     ;RPM spindle speed.

G1 F3000 Z3.00000 ;Retract
;T1
;M5      ;Spindle stop.
;G04 P1.00000
;MSG, Change tool bit to drill size 0.8 mm
;M6      ;Tool change.
;M0      ;Temporary machine stop.
;M3      ;Spindle on clockwise.
G1 F3000 Z3.00000
;G04 P1.00000

;F1000.00000
G1 F3000 X-23.14500 Y5.14500
G1 F300 Z-2.50000
G1 F300 Z3.00000
G1 F3000 X-22.14500 Y10.52500
G1 F300 Z-2.50000
G1 F300 Z3.00000
G1 F3000 X-22.14500 Y13.06500
G1 F300 Z-2.50000
G1 F300 Z3.00000
G1 F3000 X-22.14500 Y15.60500
G1 F300 Z-2.50000
G1 F300 Z3.00000
G1 F3000 X-22.14500 Y18.14500
G1 F300 Z-2.50000
G1 F300 Z3.00000
G1 F3000 X-16.76500 Y17.14500
G1 F300 Z-2.50000
G1 F300 Z3.00000
G1 F3000 X-16.76500 Y12.06500
G1 F300 Z-2.50000
G1 F300 Z3.00000
G1 F3000 X-16.76500 Y7.14500
G1 F300 Z-2.50000
G1 F300 Z3.00000
G1 F3000 X-16.76500 Y2.06500
G1 F300 Z-2.50000
G1 F300 Z3.00000
G1 F3000 X-9.14500 Y7.14500
G1 F300 Z-2.50000
G1 F300 Z3.00000
G1 F3000 X-9.14500 Y12.06500
G1 F300 Z-2.50000
G1 F300 Z3.00000
G1 F3000 X-9.14500 Y17.14500
G1 F300 Z-2.50000
G1 F300 Z3.00000
G1 F3000 X-3.14500 Y15.68500
G1 F300 Z-2.50000
G1 F300 Z3.00000
G1 F3000 X-3.14500 Y13.14500
G1 F300 Z-2.50000
G1 F300 Z3.00000
G1 F3000 X-3.14500 Y5.14500
G1 F300 Z-2.50000
G1 F300 Z3.00000
G1 F3000 X-9.14500 Y2.06500
G1 F300 Z-2.50000
G1 F300 Z3.00000

G1 F3000 Z3.000 ; All done -- retract 

;M5      ;Spindle off.
;G04 P1.000000
;M9      ;Coolant off.
M0      ;Program end.

