; pcb2gcode 2.0.0 
; Software-independent Gcode 

; This file uses only one drill bit. Forced by 'onedrill' option 

G94       ;Millimeters per minute feed rate.
G21       ;Units == Millimeters.
G90       ;Absolute coordinates.
;G1 F3000 S10000     ;RPM spindle speed.

G1 F3000 Z3.00000 ;Retract
;T1
;M5      ;Spindle stop.
;G04 P1.00000
;MSG, Change tool bit to drill size 0.8 mm
;M6      ;Tool change.
;M0      ;Temporary machine stop.
;M3      ;Spindle on clockwise.
G1 F3000 Z3.00000
;G04 P1.00000

;F1000.00000
G1 F3000 X-22.64500 Y61.64500
G1 F300 Z-2.50000
G1 F300 Z3.00000
G1 F3000 X-17.06500 Y60.64500
G1 F300 Z-2.50000
G1 F300 Z3.00000
G1 F3000 X-14.52500 Y60.64500
G1 F300 Z-2.50000
G1 F300 Z3.00000
G1 F3000 X-11.98500 Y60.64500
G1 F300 Z-2.50000
G1 F300 Z3.00000
G1 F3000 X-9.44500 Y60.64500
G1 F300 Z-2.50000
G1 F300 Z3.00000
G1 F3000 X-3.64500 Y61.64500
G1 F300 Z-2.50000
G1 F300 Z3.00000
G1 F3000 X-9.44500 Y57.14500
G1 F300 Z-2.50000
G1 F300 Z3.00000
G1 F3000 X-11.98500 Y57.14500
G1 F300 Z-2.50000
G1 F300 Z3.00000
G1 F3000 X-14.52500 Y57.14500
G1 F300 Z-2.50000
G1 F300 Z3.00000
G1 F3000 X-17.06500 Y57.14500
G1 F300 Z-2.50000
G1 F300 Z3.00000
G1 F3000 X-12.54500 Y52.14500
G1 F300 Z-2.50000
G1 F300 Z3.00000
G1 F3000 X-13.74500 Y47.44500
G1 F300 Z-2.50000
G1 F300 Z3.00000
G1 F3000 X-16.04500 Y45.74500
G1 F300 Z-2.50000
G1 F300 Z3.00000
G1 F3000 X-20.94500 Y50.74500
G1 F300 Z-2.50000
G1 F300 Z3.00000
G1 F3000 X-20.94500 Y48.20500
G1 F300 Z-2.50000
G1 F300 Z3.00000
G1 F3000 X-20.94500 Y45.66500
G1 F300 Z-2.50000
G1 F300 Z3.00000
G1 F3000 X-17.94500 Y45.74500
G1 F300 Z-2.50000
G1 F300 Z3.00000
G1 F3000 X-20.94500 Y43.12500
G1 F300 Z-2.50000
G1 F300 Z3.00000
G1 F3000 X-20.94500 Y40.58500
G1 F300 Z-2.50000
G1 F300 Z3.00000
G1 F3000 X-20.94500 Y38.04500
G1 F300 Z-2.50000
G1 F300 Z3.00000
G1 F3000 X-16.84500 Y37.14500
G1 F300 Z-2.50000
G1 F300 Z3.00000
G1 F3000 X-13.64500 Y41.34500
G1 F300 Z-2.50000
G1 F300 Z3.00000
G1 F3000 X-7.34500 Y40.94500
G1 F300 Z-2.50000
G1 F300 Z3.00000
G1 F3000 X-3.44500 Y41.44500
G1 F300 Z-2.50000
G1 F300 Z3.00000
G1 F3000 X-10.24500 Y37.94500
G1 F300 Z-2.50000
G1 F300 Z3.00000
G1 F3000 X-5.34500 Y31.46500
G1 F300 Z-2.50000
G1 F300 Z3.00000
G1 F3000 X-10.42500 Y31.46500
G1 F300 Z-2.50000
G1 F300 Z3.00000
G1 F3000 X-13.74500 Y32.44500
G1 F300 Z-2.50000
G1 F300 Z3.00000
G1 F3000 X-20.94500 Y35.50500
G1 F300 Z-2.50000
G1 F300 Z3.00000
G1 F3000 X-20.94500 Y32.96500
G1 F300 Z-2.50000
G1 F300 Z3.00000
G1 F3000 X-20.94500 Y30.42500
G1 F300 Z-2.50000
G1 F300 Z3.00000
G1 F3000 X-20.94500 Y27.88500
G1 F300 Z-2.50000
G1 F300 Z3.00000
G1 F3000 X-20.94500 Y25.34500
G1 F300 Z-2.50000
G1 F300 Z3.00000
G1 F3000 X-20.94500 Y22.80500
G1 F300 Z-2.50000
G1 F300 Z3.00000
G1 F3000 X-17.54500 Y27.74500
G1 F300 Z-2.50000
G1 F300 Z3.00000
G1 F3000 X-14.74500 Y24.74500
G1 F300 Z-2.50000
G1 F300 Z3.00000
G1 F3000 X-10.42500 Y23.84500
G1 F300 Z-2.50000
G1 F300 Z3.00000
G1 F3000 X-10.32500 Y20.74500
G1 F300 Z-2.50000
G1 F300 Z3.00000
G1 F3000 X-5.34500 Y23.84500
G1 F300 Z-2.50000
G1 F300 Z3.00000
G1 F3000 X-5.24500 Y20.74500
G1 F300 Z-2.50000
G1 F300 Z3.00000
G1 F3000 X-5.24500 Y13.12500
G1 F300 Z-2.50000
G1 F300 Z3.00000
G1 F3000 X-3.64500 Y3.64500
G1 F300 Z-2.50000
G1 F300 Z3.00000
G1 F3000 X-11.64500 Y9.04500
G1 F300 Z-2.50000
G1 F300 Z3.00000
G1 F3000 X-10.32500 Y13.12500
G1 F300 Z-2.50000
G1 F300 Z3.00000
G1 F3000 X-20.94500 Y20.26500
G1 F300 Z-2.50000
G1 F300 Z3.00000
G1 F3000 X-20.94500 Y17.72500
G1 F300 Z-2.50000
G1 F300 Z3.00000
G1 F3000 X-20.94500 Y15.18500
G1 F300 Z-2.50000
G1 F300 Z3.00000
G1 F3000 X-20.94500 Y12.64500
G1 F300 Z-2.50000
G1 F300 Z3.00000
G1 F3000 X-14.18500 Y9.04500
G1 F300 Z-2.50000
G1 F300 Z3.00000
G1 F3000 X-22.64500 Y3.64500
G1 F300 Z-2.50000
G1 F300 Z3.00000

G1 F3000 Z3.000 ; All done -- retract 

;M5      ;Spindle off.
;G04 P1.000000
;M9      ;Coolant off.
M0      ;Program end.

